Abanesjo/go2_pendulum_ros2/src/go2_pendulum/go2_bridge/data/20260426_204855.csv
timestamp,pendulum_joint1_pos,pendulum_joint1_vel,pendulum_joint2_pos,pendulum_joint2_vel
1777236536.060417,0.0,0.0,0.0,0.0
1777236536.0782082,0.24692755277098563,-0.07861423559893277,0.0020208268303458362,-0.0034827996326511554
1777236536.098186,0.2438860672160148,-0.04558084602311886,0.0020109689656703598,-0.00022773663068113143
1777236536.1185632,0.2447248753000426,0.11987782134828473,0.0019522433545901443,-0.005705543354727179
1777236536.1382465,0.2474271821872429,0.05500771313172947,0.001884884603982667,0.003951200436792229
1777236536.1582382,0.2464974348843444,-0.11316881357352804,0.0020212193671968045,0.009737010589977644
1777236536.1786432,0.24440890499015022,0.0087422296229973,0.0021243500363229565,-0.004949682984270655
1777236536.198197,0.24688220352350349,0.10560829183677312,0.0018820680966129832,-0.01265829069320204
1777236536.2182856,0.2470479810452969,0.0035840075025221855,0.0017987834929901682,0.002431776821583492
1777236536.2388065,0.2468086641687308,-0.01763025385356532,0.0019253777070264077,0.007241559075048809
1777236536.2582653,0.24662279340063115,0.004745976564942905,0.002064948546682448,-0.004002669708418248
1777236536.2782443,0.24698499487498637,0.012994260914539696,0.0019283911821396976,-0.005280411841177578
1777236536.298227,0.24709855604150388,0.0004193017856586271,0.001611627450546276,-0.03027645497619158
1777236536.3182743,0.2467035438674233,-0.02450506498324901,0.001789500947665976,0.028203833194707595
1777236536.338333,0.2465143191719851,0.0027717192156853027,0.0019145537362651411,0.004951886093522876
1777236536.358217,0.246776715703513,-0.0003105813481232345,0.0018712970610561901,-0.007648737754659487
1777236536.3784113,0.24678557165225112,0.016942937692908437,0.0018505208918891548,-0.0006931547982966873
1777236536.3985016,0.24696242117689826,-0.009833650299768243,0.001817032436092163,0.0032916850018818045
1777236536.418642,0.24673871921074844,-0.010365259158364287,0.0019712676101668013,0.001293418204293923
1777236536.4382205,0.24451686888090995,-0.07880770419630602,0.0020886731501998097,0.00878741597410675
1777236536.4582586,0.24667990382192168,0.09408497078324807,0.0020170472379077535,-0.009652792657857338
1777236536.478218,0.24699569015864078,-0.0037292574750571513,0.0018959568272425634,-0.00354386054752677
1777236536.4981909,0.24675102261328483,-0.0022616274347671056,0.0018797741317018398,-0.0001688286637371965
1777236536.518473,0.24516244733722875,-0.11443753845748406,0.002020975666368331,0.005555699505672005
1777236536.5382352,0.2446534913922856,0.0015959895092500969,0.0021343326045458267,0.0009006467731808268
1777236536.5582285,0.2445573977024471,0.10374324591897333,0.0019522359728858453,-0.008121696614321078
1777236536.5782135,0.24664641495091266,-0.007443514614712494,0.0018960755638625275,0.002044111929265461
1777236536.598287,0.2466995208483825,0.003872917392844671,0.001994223434009433,-0.013064594457606056
1777236536.6182117,0.2468507639864877,0.005336651365555938,0.0017033525020486427,0.0009144851811615019
1777236536.6382978,0.24674849282042396,-0.008213133163058389,0.0018558763250854197,-0.00021791225357319105
1777236536.6582177,0.24664150156409287,0.0008787732489725581,0.0019323470207884982,0.005653791720425395
1777236536.67825,0.24659886375842735,0.0005135228447414814,0.0019440224024632382,0.0028868164463563793
1777236536.6982913,0.24698961845195194,0.017868119722112656,0.001974253294580972,-0.005151546424405937
1777236536.7185395,0.24698585977047055,0.0030824464690870582,0.0019191966028266527,0.0004544427571122576
1777236536.7382789,0.24660384525577433,-0.019565418425608445,0.0019925281951267727,0.003886376485507083
1777236536.7582667,0.24664320192180333,-0.0005261470510276093,0.001953541064287977,0.0007443847495953171
1777236536.7782187,0.24679146388769863,0.015278240816984917,0.0019616099457979374,-0.002110046754795425
1777236536.7982183,0.24689993170414815,-0.005368282111017924,0.001929916406079298,-0.0032030464307903246
1777236536.8184807,0.24684370363781125,-0.004834428851049127,0.0019145720652456897,0.002503648929960342
1777236536.8382795,0.2467397220532782,0.01167521593791098,0.0019461162439630346,0.002950611726293427
1777236536.8582277,0.24674598529037545,-0.013181520813281729,0.0020429571965467786,0.0013763449674159408
1777236536.8783185,0.24660381867262843,-0.0035880013904483537,0.002021940190598954,-0.0037003593390873106
1777236536.898204,0.24686855551402528,0.008496574320918876,0.0019096070953142218,-0.006349863445395523
1777236536.918319,0.24675941980010468,0.0018146964646814589,0.0018271931074368198,-0.0018461357624899764
1777236536.938302,0.24688131249125164,-0.0036914033403285863,0.0018067120548739917,0.0008763739888104601
1777236536.9582129,0.24667108156380108,-0.014120544451528445,0.0018662789784252747,0.006122372184587839
1777236536.9782956,0.2465102117037424,-0.0057109271459543426,0.0019250693703846003,0.0017174076498164999
1777236536.9982014,0.2466885166232341,0.02487241575702858,0.0019113265022705874,-0.010175155345635806
1777236537.0185096,0.2470999448467886,0.01643193213153315,0.0017849269042173005,-0.0003570607464331424
1777236537.03824,0.2469644345643842,-0.02330229430432374,0.0018057722314784603,0.0035763854146064044
1777236537.0582232,0.2465890461211686,-0.009988680960149939,0.001987964393135259,0.004678744578627669
1777236537.0782106,0.24306177546023983,-0.13995085082425263,0.0005568887502306874,-0.06165390311325611
1777236537.0982199,0.24353459491414883,0.029876226247881096,0.0005293449118490961,0.006926596368405458
1777236537.1189961,0.2439376499110832,-0.016078333813966072,0.0006207776243953514,-0.0056977563667262796
1777236537.1383107,0.24322652876090675,-0.03485340828252649,0.0005597984177629239,-0.0002321780551404549
1777236537.1582315,0.2429812706311515,0.006294206252502642,0.0005398473772711774,0.000751209864053061
1777236537.1782184,0.2435409062283906,0.020212840179170567,0.0006019396303532348,-0.0019339460265929505
1777236537.1982186,0.24343059514763757,-0.0043540235954453565,0.0005557522987603274,0.0029588442469727317
1777236537.2183063,0.24331220908086434,-0.015777330578416585,0.0006304977809891019,-0.0021700286121718528
1777236537.2383103,0.2432261471068039,0.01049935709939741,0.0006011725913069014,0.005193862651293641
1777236537.2583125,0.2433314648370704,0.008383052223532849,0.0005613732064359961,-0.005923147602871698
1777236537.2783005,0.24327823951975053,-0.02268700992992835,0.0004236152856094894,-0.004631861757836801
1777236537.2982116,0.24314146651314597,0.0010385750418206875,0.0002466984628648075,-0.000563649250579651
1777236537.3186238,0.24305362643325287,0.015064273571494523,0.0005972009399167844,0.0198369229600107
1777236537.3385725,0.24374433142821286,0.1515354509507354,0.0006571093618259891,0.051064475848891344
1777236537.3582294,0.24691412911480515,-0.01569669977374267,0.001867323097856014,0.0013144534370984754
1777236537.3783128,0.246707952577728,0.0018235330361924204,0.0020639889158377634,0.010807655488155658
1777236537.3982124,0.24655284599660063,-0.0029316421832295053,0.0020312833958311943,-0.007366054929538436
1777236537.4181747,0.2466844420949563,0.005230927077413566,0.0019437457844491092,-0.003048679983899863
1777236537.4382093,0.2469416694202194,0.01704285716968989,0.0019254501998597947,0.003509984302534245
1777236537.4582272,0.24695745822262216,-0.01456129947008345,0.00198894543197105,0.0044855295053231985
1777236537.4783132,0.24672681758385742,0.002666017300757323,0.002088369561007566,-0.0032608432453315075
1777236537.4982076,0.24684636096131413,-0.005324115936824031,0.0019557358382474247,-0.0025287063845532247
1777236537.5182219,0.24659140973675855,-0.008418119019844024,0.001894673432848958,-0.0005258000371702112
1777236537.5382354,0.2466739901219786,0.020042117662231622,0.0019039200708424716,0.001931156792554723
1777236537.55832,0.24698237864092543,-0.00234093890475951,0.0018820645268041154,-0.0009227421561729297
1777236537.5782096,0.2470490609650498,-0.0032610173140428297,0.00193504216632291,0.0009893452266161
1777236537.5982013,0.24482767381237658,-0.09419141144921284,0.0020809574837588104,0.0034142728200609114
1777236537.6182392,0.24448157455573882,-0.019595113064284863,0.0020549273539600585,-0.003983169899701492
1777236537.6385791,0.2453579498804523,0.13655853262328144,0.0020214554773102375,0.0002716590735456182
1777236537.6584218,0.24721236984324965,0.0193591601992713,0.0019986827600305206,-0.004622665540798664
1777236537.6782167,0.24691439208474902,-0.0358222922564937,0.0019506765752713767,-0.0020515606252003715
1777236537.698207,0.24694152417293502,-0.05549489415670817,0.0018918877878817205,0.006560278545807964
1777236537.7182508,0.2447622656695969,0.01316190514524872,0.0020879419650334853,0.001505733306707679
1777236537.7385867,0.24683138997675574,-0.008410413064468441,0.0018838762712601355,-0.00983539826510078
1777236537.7584603,0.24689643728481517,0.0032750830660663813,0.0018349010902434576,0.005791484280632756
1777236537.7781992,0.24679423536636258,-0.0034663590281689472,0.0019272773911433957,0.0017490476758583763
1777236537.7981846,0.2452740030344745,-0.1123506042768816,0.0015547578109115687,0.0030829387981486317
1777236537.8184855,0.2446110064200471,-0.0014092656972608626,0.002010949208453367,0.011067837583572677
1777236537.8382812,0.24443418907602169,-0.01044024273829126,0.002042694050860672,0.006938222659991975
1777236537.8582149,0.24443093171026337,0.011453627336615913,0.0021729507395191086,0.0032787433450490217
1777236537.8782153,0.2448767890274539,0.025447372844794806,0.002166668922506759,-0.005188163031396131
1777236537.898548,0.2448328941346239,-0.01917466093865273,0.0020076838770813547,-0.002535910574598916
1777236537.918347,0.2445274004634318,-0.029273142312375555,0.0019204522171543644,-0.0070050291784306065
1777236537.9382982,0.2441217018664129,0.009685534250928541,0.0019085439555057242,0.004266343803903134
1777236537.9582977,0.24674028588347274,0.11807946920265655,0.001978526369516614,0.004461840172341603
1777236537.9782012,0.2473367154984643,-0.0004920591158774681,0.0019982328052323196,-0.0016883981546983728
1777236537.9982138,0.24671736806433542,-0.03248027025516676,0.0018266539886825062,-0.009422242837048483
1777236538.0184085,0.24629588055799156,-0.009108146877423902,0.0017679831841226363,-0.003927437791859773
1777236538.0383284,0.2468322329529148,0.02627125547401698,0.0017329858019674337,0.01027821387660424
1777236538.058229,0.24695115461214556,0.0012339020075788853,0.002020593562081689,0.007261748289922345
1777236538.0786808,0.24668515726900703,-0.004759210435390409,0.0019373461404541682,-0.010664016471891295
1777236538.0982327,0.24683333469868926,-0.0015294981634466132,0.0017825121136070196,-0.014184619666889966
1777236538.1184137,0.2468933493563527,0.010510289878345786,0.0016448913466581621,0.005490374737863362
1777236538.138509,0.24685374232673465,-0.007097413853697892,0.0018216476201962433,0.0136761024459426
1777236538.1583743,0.2464949489064481,-0.01835446130253305,0.002058087985466469,0.0007196964343275868
1777236538.1784914,0.24650439656891882,0.02056866120373301,0.002015327602522218,-0.006543380321136938
1777236538.1982048,0.2472675697154199,0.020719294755333625,0.001743243518039399,-0.01172202736366986
1777236538.2182133,0.24739159821960896,-0.009039194089096819,0.0016840333840830212,0.003164851185262662
1777236538.2385178,0.24572633190971893,-0.1468337581455792,0.002013110592581165,0.023070422233422025
1777236538.2582133,0.24419419754262908,0.006746398767232254,0.0021655538709456756,-0.0021843718070157117
1777236538.278309,0.24621502638852366,0.14975336037825038,0.0018457599615873002,-0.022629136683129443
1777236538.2982304,0.2473410368451513,0.00028353090726528996,0.0017085005080461559,0.0024738670557450013
1777236538.3183482,0.24680157093257485,-0.13297511160936049,0.0014712028762937429,0.006086239469055931
1777236538.3382115,0.24393124007120107,-0.06589886767115428,0.00197692547057903,0.023730209731167826
1777236538.3582017,0.2445170122495081,0.035070513644215304,0.0021212723539537227,-0.0032972516736566658
1777236538.3782084,0.24661224637551887,0.11190433554845125,0.0019541711022972173,-0.01292999870653913
1777236538.398207,0.2470115161479195,-0.02434335706983904,0.0018708777045789236,-0.000740121858310794
1777236538.4183054,0.24646574756946324,-0.008054811449099926,0.0017877427381633576,-0.0008655179851452119
1777236538.4387753,0.24699416509347805,0.020910603506452123,0.0019256734900723038,0.003152935403250661
1777236538.4584599,0.24708592362297188,-0.008034679626981239,0.0018573432852682752,-0.003638834379578893
1777236538.4786165,0.2465230711006921,-0.01868729568007544,0.0018975633652006784,-0.0006395000580498615
1777236538.498277,0.24652684394616442,0.015046083174684359,0.0019624116592905565,0.004079187139914089
1777236538.5182552,0.24709007272738098,0.03802414706980083,0.0018969555392262833,-0.0014198810444862216
1777236538.5385048,0.2472165486786279,-0.019511972378903238,0.0018866558650256805,-0.0021311419342568624
1777236538.5582244,0.24658552230379185,-0.03270076761290675,0.0018700959055381475,-0.0004945829764145852
1777236538.5782144,0.24637810131089177,0.011047467173249441,0.0019209741088923884,0.002776570773648585
1777236538.598209,0.24694833363395738,0.03571464602106155,0.001971906152985415,0.003527570494804306
1777236538.618179,0.24735765622484762,-0.0016008461613195072,0.0019491335747885918,-0.0054715445166150616
1777236538.6383054,0.24697562569045353,-0.026559217113312446,0.0018613027678043175,0.0036912480183934875
1777236538.6582985,0.24625854425987723,-0.009493306523785001,0.0019260647039960714,-0.023279142514723166
1777236538.6782045,0.2465885913008598,0.027310991522614174,0.0019300920648931282,0.023801854792362517
1777236538.698206,0.24733578634797387,0.0157530010225102,0.00194711414809624,-0.000794647839579523
1777236538.7182758,0.24716003551991414,-0.01993381560753616,0.0019274578913446652,-0.0037657558973622253
1777236538.738217,0.24674550003334167,-0.01515103355956305,0.001847186189420426,0.00017394970210193162
1777236538.7582166,0.24650413603399415,0.0072612758435099895,0.0019209653476373804,0.004665803378365408
1777236538.7782168,0.24691741570618445,0.008341236283041726,0.0019120467989716394,0.0022845928838103394
1777236538.7982192,0.24717373357978456,-0.006255540354127126,0.001955894682595274,-0.00278740768019314
1777236538.8182387,0.2467117301546026,-0.011490919476714106,0.0019292353279337666,0.0012537018474918678
1777236538.8382003,0.24684167874863727,0.0032972295427486863,0.0019664855968524195,0.002573576702196708
1777236538.8582156,0.24714722610281117,0.007510016878962128,0.001953313111460976,-0.0021080752528490967
1777236538.8782027,0.24668915377139727,-0.013086207024588965,0.0019471288211470184,0.0019190919806612791
1777236538.898219,0.24674024657294963,-0.0020903920639074925,0.0020466572581184055,0.004404128269988032
1777236538.918253,0.24687221815275767,0.007286137875453397,0.0019457527349468697,-0.007207784051769646
1777236538.9383476,0.24672629737541127,0.010460878851266113,0.0018406941903254064,-0.003197708612445213
1777236538.9582853,0.24707514030172964,-0.006480250195754605,0.0019477781079204417,0.006427424130558065
1777236538.9782245,0.24659044552213782,-0.11430364916707791,0.002043627386798151,0.01085431852864159
1777236538.9982417,0.24405184166122273,-0.04820206159230313,0.0021594185678699973,-0.002022758742418702
1777236539.0182726,0.24481984489311448,0.09808230270011986,0.002131496737717412,-0.010529244788191894
1777236539.038204,0.24677826686424265,-0.004930956552109849,0.0018725310922670883,0.0019355991848199609
1777236539.0583065,0.24668044045625354,-0.008815631640460182,0.0018370536377392103,2.6549919062045766e-05
1777236539.0782943,0.2466807515058736,0.003503131164197087,0.0017954397390481849,-0.0029416007705587513
1777236539.0982091,0.2465561587858057,0.009103528910503915,0.001892240648768051,0.0001578840183423106
1777236539.1184106,0.2468955338998922,0.006295055003935341,0.0019010853602326506,0.0010893765812523895
1777236539.1382213,0.24685825990443516,-0.003134782269233144,0.0019190683393045208,-0.0015809961772073472
1777236539.1582124,0.24593758096318485,-0.10742548626138593,0.0019414325347129828,0.010022487396348152
1777236539.1782086,0.2447433395601089,-0.00022480799479397245,0.002182058378142406,0.002569349776340439
1777236539.1981993,0.24528578371362192,0.10940080202226588,0.0020917339732921102,-0.007305225207330887
1777236539.2184808,0.24675152440973724,0.011477355832784301,0.0019434624245597376,0.00046512625934751883
1777236539.2382798,0.24695198544453978,-0.013762894821283128,0.0020181635833097966,0.0019347872386960702
1777236539.258525,0.2464735052003678,-0.09551600228513468,0.002024701528904609,0.004401413748039495
1777236539.2782173,0.24489346950861504,0.12066597710283444,0.0021003852972969056,-0.010180116985637023
1777236539.298283,0.24705723446502256,-0.019933412634340016,0.001834881295084361,-0.003579210264260932
1777236539.318592,0.246620503757158,-0.02150535324115844,0.0018350277697376193,-0.0019805341587808972
1777236539.338734,0.2463343009774245,0.0006669874882581019,0.0017786240094382075,0.006411645825519121
1777236539.3582509,0.24645926430091034,0.02005979004075397,0.0018886132747139668,-0.000703604398800451
1777236539.3782141,0.24719651336066595,0.02993545730251989,0.0020307752944490913,-0.0014429321489528993
1777236539.3981857,0.24712221947739008,-0.04096313979032607,0.0018217337127144025,-0.004294304479855279
1777236539.4185882,0.24467335063775217,-0.13508435154190357,0.0019119699076141404,0.015665859845857687
1777236539.438836,0.24407581720250687,0.033076317519116646,0.0021622554242659822,0.0038795774572992427
1777236539.4585035,0.24708146540192594,0.11676649810674222,0.001993410485001697,-0.006884486686513931
1777236539.4787574,0.24724925056111335,-0.010233051863805192,0.0020206803806898845,-0.0032900161067981014
1777236539.4982228,0.24683712244375838,-0.023637851427234853,0.001992860225989076,-0.0013765970364289432
1777236539.5186014,0.24414290098330865,-0.10934063886569458,0.002015400803159438,0.004121284624161267
1777236539.5386336,0.24447131256644142,0.13873427881356726,0.002071904509572191,-0.002099277032332303
1777236539.5586417,0.2474169928198175,0.016312174422766553,0.0020022657596545637,-0.0009988826366243118
1777236539.5782292,0.2467809619222288,-0.1310360853292294,0.0019453402271399085,0.013058079464055239
1777236539.5982056,0.24433956146337377,-0.002323254897957049,0.0021855075962735403,-0.006648753938489096
1777236539.6182096,0.24465508061285907,0.10926958497810046,0.002044762241366245,-0.008032062703395938
1777236539.6386592,0.2471713989911462,0.06534867888581752,0.0019154470637051907,0.0017535498560102211
1777236539.65853,0.24710301631229933,-0.007159037153301911,0.0020604951911319678,-0.0017542659203754125
1777236539.6785822,0.24662227709883133,-0.017265521678119906,0.0019633437653764334,-0.002411001445712619
1777236539.6982071,0.24459574450133723,-0.07234258322075561,0.001967867047709671,0.0009110297161676016
1777236539.718335,0.2471559924754979,0.0915745234808929,0.0018178735802381622,-0.009068348637421453
1777236539.7387166,0.2466817152050127,-0.029509936707312175,0.0017893821006100459,0.009147175555664766
1777236539.7586145,0.244891472576279,-0.10773851312784943,0.002144585798640426,0.01076695057347218
1777236539.7786596,0.2462075733739444,0.1298146918656271,0.0020796660369519454,-0.012941895372138825
1777236539.7982137,0.24704511164394535,0.004330922415416877,0.001867105872651582,-0.002310114591352396
1777236539.8183448,0.246912242134964,-0.016794468474527154,0.0018913233237594104,-0.0027606580974162097
1777236539.8387642,0.24626338943503998,-0.12156717847288867,0.0018232960157228855,0.010300079854858842
1777236539.8586726,0.24412320433797793,0.026737006092880645,0.0021722382335068974,0.003742439143550304
1777236539.8782136,0.24567547617347307,0.14308628581834792,0.002071181702278042,-0.016709730414521937
1777236539.8988514,0.2471840334606481,-0.027750819740489437,0.0017306422648566242,-0.004996390554638573
1777236539.9186518,0.2462811682407764,-0.1243666689270917,0.001779967454675882,-0.0030863470968615953
1777236539.9385571,0.2442325312734246,-0.005764440276714754,0.0016110149762038912,0.0127175720219065
1777236539.958563,0.24415873510721664,0.09726075418833612,0.00216939231438606,0.0032127049273652547
1777236539.9786747,0.24741437030065555,0.0730256033859118,0.001938370459348821,-0.004172665840298736
1777236539.998179,0.24722129799317188,-0.042545927850619954,0.0019161876386799442,-0.0032300672857142575
1777236540.0186276,0.2456474277920903,-0.12898976130330686,0.0019572595938937808,0.007021263429662614
1777236540.0383155,0.2441933303862605,0.015815672481055188,0.002085710121778043,0.0017107980069146283
1777236540.0582995,0.24628679594013458,0.13086960526497027,0.001968631694751733,-0.00820579997113986
1777236540.0782077,0.24707279205904412,-0.004591106974341846,0.0019507344067569972,0.0039255062630583586
1777236540.0984561,0.2468975116562532,-0.01680233483089611,0.0019234159381329805,-0.027494882841069674
1777236540.118255,0.24666541354378232,-0.01403108436261969,0.0016377679213878929,0.011681494211536332
1777236540.138224,0.24638309251294893,0.012159208062326947,0.0018479496347717959,-0.0014416091598432638
1777236540.158317,0.24685110896116919,0.0011191418141325237,0.0019545571223071115,0.009189709087252699
1777236540.1782014,0.2468513928110786,-0.007879327909400496,0.002003898223284944,-0.010032173044684775
1777236540.1981883,0.24464814862850873,-0.07871045888544836,0.0019066378453043713,0.005860801804364574
1777236540.2184935,0.24483853138680103,0.003279822748756702,0.001947505315201083,0.0005886251899099061
1777236540.2382803,0.24474309581951809,-0.009282382455201974,0.002063200021438061,0.009741549797667507
1777236540.2582817,0.24433361523167896,-0.01700320499100495,0.002143744643855294,0.0010372754980304826
1777236540.2782116,0.24457552187203552,0.023222225999646618,0.0021666162474117583,-0.0069006916658236155
1777236540.298221,0.2464740595224293,0.13672732134973842,0.0018820715549297605,-0.010157955242227845
1777236540.3182223,0.24717490955585542,-0.02790763727558466,0.0018055091537703977,0.005297244372950996
1777236540.338233,0.24658416743789346,-0.0399786541094005,0.0018752909989586215,0.005205133111356668
1777236540.3589904,0.24405015423807452,-0.07999160317665012,0.002294976041013844,0.010354067307884927
1777236540.3785837,0.2453662242825913,0.15024102046652166,0.0021052418692721776,-0.02095712870882612
1777236540.398215,0.24734892493960997,0.00200357972071163,0.0017622823655170552,-0.011490557157325065
1777236540.418623,0.24626125826764783,-0.13918403390125622,0.0014637949265618455,-0.004993955707927986
1777236540.43821,0.24432611830837406,-0.013715610433360236,0.0019495110149308442,0.02774800110538608
1777236540.4582658,0.2451490979616396,0.1277034374653887,0.002111076833116927,-0.009707633843854688
1777236540.478326,0.24712223029137453,0.023592154902865918,0.0019161564544674507,-0.001289548293111828
1777236540.4982164,0.2470250074534313,-0.02544605066457529,0.0019681190212046716,0.002219468175295263
1777236540.5182602,0.24646513518358842,-0.10333158712712986,0.0019320888454409293,0.001021380609697236
1777236540.53822,0.24424470880399127,-0.043212552537306166,0.002027332312838991,0.006025261288637954
1777236540.5583189,0.24614578857936478,0.12102168886494047,0.0020362559735845887,-0.0008959145490135058
1777236540.5786912,0.24686391739940167,-0.07276311857932205,0.0020394023416431166,0.00019602672997590825
1777236540.59839,0.24425347544733322,-0.04965604999321017,0.0021083682712696094,-0.0009274552606152763
1777236540.6182926,0.24467179454994847,0.011568182270794914,0.0019973060263229524,-0.0033965515282568075
1777236540.638186,0.24631659815743356,0.12362871778460338,0.001922087859028484,-0.007588631976289773
1777236540.6583018,0.24700168966008068,-0.01938530520211846,0.0019131953315028767,0.005636608006220439
1777236540.6782007,0.24572352847743673,-0.13270808153929492,0.002042258606540804,0.007594710521992364
1777236540.6982067,0.24444408323777356,0.03913942073225528,0.002103164289121391,-0.0034619836685327726
1777236540.718338,0.24644578425495894,0.12880317320524926,0.0018639276125842457,-0.012961511010888094
1777236540.7385125,0.24713304732264782,-0.02919148512888637,0.001821363389973617,0.006536201974453256
1777236540.7582269,0.2458364742404058,-0.12248864635309431,0.002192553253129849,0.01518376204572778
1777236540.778216,0.24431626915789867,0.01312476764866809,0.002233280469992248,-0.004025403719038287
1777236540.7982862,0.24536686217734127,0.12555578669193102,0.0020350285472888383,-0.015049867291860902
1777236540.818568,0.24724010492402107,0.018907036433650763,0.001896696057391171,0.0029342388318953465
1777236540.838763,0.2470317977697044,-0.04001579282652124,0.002044491262671688,0.0003548849129301134
1777236540.8585234,0.2461013222434256,-0.09425263457211042,0.001961683156553617,0.0045054310043923
1777236540.8782146,0.24456456120576067,0.12268208596591279,0.0020122141339916,-0.009860814915100786
1777236540.8982096,0.24694871699078655,-0.012641814710672166,0.001810063415550657,-0.0010379107272593167
1777236540.9186254,0.2468843548960096,-0.003239829959031942,0.0018062953354764956,0.0016598862139261638
1777236540.9382424,0.24653948385349778,-0.001600761564679149,0.001842546891796195,-0.0012036760586014823
1777236540.958795,0.24655917039985495,0.010159680733233138,0.0019319079902957548,0.008017723236711995
1777236540.978234,0.24723148165615622,0.008914157600429901,0.0019677642866358543,-0.0016073486987259467
1777236540.9982128,0.24703734362907398,-0.026420140026806045,0.0019008483863722572,-0.006028662102573194
1777236541.0183353,0.24622809648468139,-0.017322742927841535,0.0017797774211968966,0.00023063191554592902
1777236541.0384355,0.24681344972169883,0.030562169734477333,0.001920615812910907,0.0006071920330811552
1777236541.0582285,0.24722283494474795,0.011382024822735643,0.0019139212967110024,0.0005521049767468617
1777236541.0782118,0.24694638863336776,-0.015192114493667757,0.0019056696085338503,0.0032343805973923077
1777236541.0982206,0.24663634650019592,-0.11349647191798073,0.0019515491869060856,0.0046476481994901266
1777236541.1183007,0.24399835799575081,-0.06587835326334936,0.0020606359219528547,0.002131098079447429
1777236541.1382542,0.24472447272392012,0.12689134639583166,0.0020015116542651994,-0.007613841903770971
1777236541.1583164,0.24737523586194318,0.01203832896164147,0.001977726239979939,0.009427392054357626
1777236541.1781812,0.24661971594331014,-0.14082358985436816,0.0019565862540778635,-0.001152292733003317
1777236541.198788,0.24431940315785547,-0.0062340803584550845,0.0017521414271910287,-0.0036766907165971573
1777236541.2186463,0.24400852551768926,0.07653130214234415,0.001953054664082108,-0.005676361246009641
1777236541.2383573,0.2470429285517306,0.07133198865239265,0.0019239680747598535,0.003300822728491073
1777236541.258207,0.24723750768759514,0.0005161514660345598,0.001901175753858321,-0.0010319211751576504
1777236541.278215,0.2466529890760604,-0.020996777103477367,0.0015469761585779973,-0.026428772759107596
1777236541.298416,0.245694668127296,-0.11171282171274077,0.0017603917008238753,0.026044013094501266
1777236541.3182065,0.24453733822521162,0.01311409540791696,0.0018821324206541577,0.003736974883888612
1777236541.3385277,0.2445109072080265,0.00353402322271056,0.002154098752625613,0.0096530440820944
1777236541.358675,0.24682959736310833,0.09243022160069847,0.0020904267404673405,-0.012943577052031831
1777236541.3782115,0.24703277166593618,-0.055504171446374435,0.00174685117732288,-0.02492781565704558
1777236541.3982766,0.24475861489223705,-0.09506703876597866,0.0013784367033546918,0.011493303538858395
1777236541.4182405,0.24459982646322054,-0.0028202068645453255,0.002005267014976996,0.013998847443258935
1777236541.438254,0.24454450398906957,-0.0075144508746625245,0.002158838345600018,0.014298905447242678
1777236541.4582105,0.24450089357300842,0.006765675837297804,0.002150615146091617,-0.01118140910514952
1777236541.4782028,0.2450256656412615,0.11400397239432669,0.0019238556504482902,-0.015000620144157012
1777236541.4982078,0.24704187847687237,-0.012499352466416097,0.0016373692531501832,0.0005941930864320187
1777236541.518242,0.24662586922401036,-0.03145371533851105,0.0017527423863023719,0.008062287738042254
1777236541.5381825,0.2463742056238477,0.0030905347798237883,0.002015297333438754,0.00854024570809778
1777236541.5585604,0.2466077576701572,0.023832112533903153,0.002024251481019128,-0.0012819501195465534
1777236541.578218,0.24718269266199983,0.0171999324571006,0.0018237736456597538,-0.008148071018935044
1777236541.598212,0.24714268911903534,-0.01774173227042742,0.0017374988606075916,0.0006267629322605091
1777236541.618253,0.24625020560464594,-0.13269244592349816,0.0018465821827871706,0.010990642333960604
1777236541.6382515,0.2441570600628971,0.00981537768899753,0.0021699079890254154,0.007504481282326558
1777236541.6582568,0.24611358075136947,0.14301011310186595,0.0020708257008364207,-0.014271961129289596
1777236541.6782098,0.24726202627521865,0.012719292509263175,0.0017675153311708526,-0.005671207981541436
1777236541.6982021,0.24696863551787046,-0.036857021296865085,0.00181322781217374,0.0006168577741491041
1777236541.7182238,0.24565717922399796,-0.1435595829590004,0.0018030728753397642,0.00529408406277598
1777236541.7383492,0.24408253955582812,0.026695150609914,0.00200264634654558,0.009501049077243227
1777236541.7583203,0.2463528983075466,0.15017572718162908,0.002011532511982167,-0.007064827251592843
1777236541.7782078,0.2471618756544549,-0.025552383570432997,0.002042208339560681,0.002729854561584682
1777236541.7981985,0.24449103816663842,-0.11304937365858647,0.002042507381318605,-0.002425010021186051
1777236541.8182733,0.24438038228325754,0.00879411683855479,0.0019481222541091335,0.00022890314101691595
1777236541.838288,0.2453872537348097,0.14135971283070248,0.0019855274304445723,0.0007365728101901143
1777236541.858224,0.24726741446121814,-0.008913081581993781,0.0020902235629960673,0.00613420492418364
1777236541.878157,0.2464938834892235,-0.11782322335838735,0.0020219867255296784,-0.004225729289290728
1777236541.8985755,0.2440971976209142,-0.04073424215497879,0.002023903043312752,-0.00011060977786362172
1777236541.9186826,0.2462661824450035,0.13122538545467322,0.001782172012535505,-0.013045474006207938
1777236541.938256,0.2470979790592972,-0.012379812570328058,0.0019443079162938946,0.015725721215046493
1777236541.958796,0.2464776526985299,-0.10810516572531981,0.002168095924668702,0.008163664636277448
1777236541.9785469,0.24425916705042405,0.0010979965590545045,0.0021193334006549547,-0.011822370777341128
1777236541.9982078,0.24678804306758823,0.11207705589533434,0.0016734741967774952,-0.012901107525597366
1777236542.0182245,0.2472106809444114,0.020124902178258346,0.0018009495653279438,0.01535310463885731
1777236542.038299,0.24682599284998188,-0.13549985194315095,0.002190928831313624,0.017023918211872584
1777236542.0587113,0.244066104004664,-0.003563762799925218,0.0022545249122430493,-0.010596996524571026
1777236542.0784006,0.2452491725973972,0.14444592415926483,0.0018985462664608758,-0.013860752636767861
1777236542.1006522,0.2472503857423024,0.015427363511149478,0.0018484165132467481,0.0006573142677912812
1777236542.1182477,0.24715652940784744,-0.0761781763510263,0.0019918652400849634,0.011388072301233239
1777236542.1382022,0.24451227572338421,-0.1071787149920933,0.0019194309722442258,-0.0008807192605335104
1777236542.1585839,0.24439430838881473,0.003977324635361591,0.002006711960541154,-0.0021532009830189137
1777236542.1784956,0.24634670355339922,0.1352080176686168,0.0018477382515313316,-0.016486917089831785
1777236542.1982753,0.24680387552930932,-0.01441718487805011,0.001781029466645413,0.003102329536933153
1777236542.2184901,0.2458477300839952,-0.12315753165610932,0.0019032639063908386,-0.005695236754067783
1777236542.2382421,0.2448092501027585,0.10834378469735562,0.00205446509662271,0.02063679206051013
1777236542.2583191,0.24691813228370652,0.0019997294448894586,0.0017915407040648675,-0.012953076042963127
1777236542.2782083,0.2466507764214659,-0.01206822043564238,0.001634471806936693,-0.018826707676390587
1777236542.2983186,0.2466612956853304,-0.0017812820041838212,0.001926135261261907,0.03125460437855221
1777236542.3183827,0.24672819036327218,0.013473471985189882,0.0020262903223402817,0.003667362660373503
1777236542.338252,0.24719287143234409,0.009959235830155228,0.0020056071509204445,-0.007203041213506171
1777236542.3584137,0.24691094950504267,-0.02274116105521041,0.0018982459177086582,-0.0007928006337551384
1777236542.3782103,0.24644533865281182,-0.016644522667539803,0.0018879532972491957,0.0016707174795623295
1777236542.3982065,0.24675529010572805,0.02277224838812452,0.0019509524190081129,-0.0033284633033558338
1777236542.4182734,0.24689696781473164,0.017749574705186337,0.0018368664417755978,-0.004325788218470787
1777236542.4382112,0.24705252909605002,-0.01896281719390825,0.0018726902144591759,0.003065655364965853
1777236542.45839,0.24652960658576403,-0.025008025510565364,0.0018668701992270442,-0.0008432580284383486
1777236542.4784486,0.24616102119377375,0.00966157000810685,0.0017785112175080393,-0.004771157636465441
1777236542.498448,0.246784244415084,0.04143505483663645,0.001800996128906821,0.0037640627342179623
1777236542.518441,0.24730498534641648,0.002728753280652358,0.0018067306740809897,0.0071308262423515345
1777236542.5388193,0.24674221592541845,-0.04438786055692435,0.0019646377790253347,-0.005465815174875516
1777236542.5582757,0.2463281439415069,0.0022471320301193855,0.001918547578643512,-0.0011947461258150181
1777236542.5782256,0.24675205339717687,0.03346318011290838,0.0018613990985601307,-0.002625948752798927
1777236542.598648,0.24703308445367106,0.004982429462538013,0.0017857993797893374,-0.0010934944063591989
1777236542.6186643,0.24701704705091837,-0.025850358814111914,0.0018751145529505972,0.0038013130731206347
1777236542.6385486,0.24632745286228608,0.0025160976172520157,0.001946780870065191,0.008831953491932863
1777236542.6586657,0.24682715157388646,0.019510761640160627,0.0019682796061638455,-0.00626765118261436
1777236542.6782115,0.24713713441054216,0.0020759293198362398,0.0018282640195698286,-0.006733740859595053
1777236542.6981394,0.24666641349511748,-0.02026288823667733,0.0017350074633284728,0.0038335781218789273
1777236542.7186975,0.24665039552789847,-0.0031360641198348083,0.00194408612412098,0.008344833882612732
1777236542.7385366,0.24681811104146853,0.021578728911087357,0.00193755727720867,-0.0036370072393746393
1777236542.758316,0.2471296529517949,-0.0004129532408105924,0.0017876571716798134,-0.005494155231790553
1777236542.7785494,0.24674016163293383,-0.019799989617683707,0.001773484648424721,0.0005751585731307327
1777236542.7982388,0.24421617548060615,-0.0913948970265004,0.0019757344964413366,-0.0018839843152104463
1777236542.8186104,0.24458739656543804,0.021790727292590784,0.0019057595939595594,0.004899233048218172
1777236542.8386142,0.2470134381971269,0.10350083852262681,0.0017746750915756688,-0.008793236205182929
1777236542.8586674,0.24678137411507353,-0.02050319614277197,0.001773289407903991,0.0031248474646661454
1777236542.8782117,0.24640431457464024,-0.0047468691562531145,0.0018693030508397314,0.001447185627588384
1777236542.898143,0.24672229676350121,0.01356507442187737,0.0018622130824344461,-0.0014869966690768711
1777236542.9184124,0.2468582636784482,0.01236949977433443,0.0018269378623623342,-0.0014787525850751063
1777236542.938521,0.24681792444244757,-0.01807339618905602,0.0016894564650245898,-0.009462260952381191
1777236542.9582136,0.24637788285369966,-0.016717869656124325,0.0018318094297076755,0.01591268634888101
1777236542.9782674,0.24672991445973663,0.029689388659424047,0.0019036251897057693,0.00013342844816468407
1777236542.9987268,0.2470414632811873,0.007694666180902749,0.0018552093690453767,0.0028166739636492043
1777236543.0186226,0.2467775511063184,-0.014195843035893945,0.0017912307725927675,-0.022010706070411425
1777236543.0382457,0.24647961782099959,-0.014434008323092946,0.0016108595581485034,0.015145935162735581
1777236543.0583081,0.24667012141219521,0.017937068635087698,0.002075972167798751,0.009081819086951586
1777236543.0782197,0.2470891289831884,0.017244202756870657,0.002138847992732632,-0.0038653293910097942
1777236543.0982141,0.24703085618682652,-0.012061871393469486,0.001940794144667993,-0.006393160492453184
1777236543.1182969,0.2466443641407841,-0.037036768620372314,0.0018525831402784985,-0.006329535375145641
1777236543.1382704,0.24641471179207294,0.018479752024329603,0.0019676032784209543,0.007310705860277274
1777236543.1582606,0.24684549998890418,0.01965565617177977,0.002013484593631245,-0.0032938231477948887
1777236543.1782153,0.2470790213586429,-0.007431760017289962,0.0018500674973612962,-0.0013379557936372274
1777236543.1982112,0.2466479930039762,-0.024489789783719303,0.0019055004274058747,-0.004223823554321451
1777236543.2185397,0.24633170030276239,-0.012077498009571037,0.0015420505708587497,-0.006690176003516977
1777236543.238586,0.24643392109471304,0.02676525532686646,0.0017696455380746341,0.004762365513467138
1777236543.258252,0.24707486557413957,0.020731469604782664,0.0018967379639337934,0.002723053738420061
1777236543.2782173,0.24688777191910172,-0.02122192611194374,0.001942088120135836,0.0020938405931593476
1777236543.2982326,0.2465890334333686,-0.01479048848162546,0.0019201599700967456,-0.006218138947128568
1777236543.3184,0.24644359103729357,0.002626983887636929,0.0017570161095957642,-0.005556786345218695
1777236543.338302,0.24662560657074636,0.014036115899028971,0.0017761179903664612,0.0021063191906778625
1777236543.3582969,0.2470177837712689,0.006258336280212435,0.0018792152865606845,0.006965501811428541
1777236543.378225,0.24701772331358843,-9.83418587026159e-05,0.002035033643636339,0.004704780472964961
1777236543.3982074,0.24684800596334425,-0.006755454534929322,0.001955921187853819,-0.011204432005030844
1777236543.4182026,0.24689116004184042,-0.012289316526858945,0.0017714601596094852,-0.00668530953447021
1777236543.4382997,0.24667890608036505,0.005590845824449347,0.0017212453322131495,0.008810774870926925
1777236543.4586384,0.24674348593155537,-0.0006484116395855171,0.0019314149929516577,0.0029582430231197485
1777236543.478528,0.24717034098497737,0.012691336995580999,0.0020281393170164513,-0.0020423782742846237
1777236543.4984438,0.2471236313611304,-0.0004063733089507744,0.001938214734731664,-0.006302689508241189
1777236543.51845,0.24657830104776798,-0.029511847845493662,0.0018678189023192686,-0.0017938322895337986
1777236543.5383036,0.24636366043896807,-0.0003682701322036473,0.0018693912925413728,0.008424479575129255
1777236543.5585399,0.24684559367039594,0.03026975422304145,0.0020213008777597145,-0.003201228731519852
1777236543.5784562,0.2473277426478312,0.009593452899053553,0.001952974859971972,-0.006579470587338248
1777236543.5982332,0.24677757119082483,-0.03615084736312069,0.0017644962159051414,-0.007056487292396652
1777236543.6190102,0.24620700828432773,-0.10731822567988836,0.0015799512860601654,-0.010737586047496481
1777236543.63876,0.24431251952720903,0.018169973221967773,0.0019168968164519008,0.030872875438973487
1777236543.6586053,0.2448078079840466,0.019581886764041368,0.0022594861903057796,0.0023780926737809083
1777236543.678247,0.24711817275297907,0.08624427700303272,0.0020597139414033645,-0.013500509925132898
1777236543.6982028,0.24668515421283882,-0.022965761070647968,0.0017690641464999943,-0.005616173881770877
1777236543.718817,0.245015428034367,-0.11069538954650815,0.0018557660922113117,0.006609210990588232
1777236543.7385924,0.24449429986750845,0.008467068628474007,0.0020581069971531353,0.007946695206468506
1777236543.7583034,0.2443669063394398,0.06606142251687695,0.0021673304181509395,-0.003950798638661438
1777236543.7782025,0.24709620213981714,0.0626027919494967,0.001826184787026883,-0.0075428123278713476
1777236543.798199,0.2469199072924883,-0.008934304507455254,0.0017705528021760167,-0.025656782571799815
1777236543.8185842,0.24677790262016358,-0.013017585479084387,0.001146824418135735,-0.0014864121995841625
1777236543.8384373,0.2449001013996884,-0.1144316980947826,0.0019263882362764348,0.026923546862375327
1777236543.858674,0.2445936499754937,0.020932279116563358,0.0022254788521160612,0.010187693118557963
1777236543.8781998,0.2456060947735691,0.12384010602567264,0.0021611598433766283,-0.012632423848353062
