Abanesjo/go2_pendulum_ros2/src/go2_pendulum/go2_bridge/data/20260420_192232.csv
timestamp,FR_hip_joint_pos,FR_hip_joint_vel,FR_thigh_joint_pos,FR_thigh_joint_vel,FR_calf_joint_pos,FR_calf_joint_vel,FL_hip_joint_pos,FL_hip_joint_vel,FL_thigh_joint_pos,FL_thigh_joint_vel,FL_calf_joint_pos,FL_calf_joint_vel,RR_hip_joint_pos,RR_hip_joint_vel,RR_thigh_joint_pos,RR_thigh_joint_vel,RR_calf_joint_pos,RR_calf_joint_vel,RL_hip_joint_pos,RL_hip_joint_vel,RL_thigh_joint_pos,RL_thigh_joint_vel,RL_calf_joint_pos,RL_calf_joint_vel,pendulum_joint1_pos,pendulum_joint1_vel,pendulum_joint2_pos,pendulum_joint2_vel
1776712952.4702957,0.0,0.0,1.3,0.0,-2.5,0.0,0.0,0.0,1.3,0.0,-2.5,0.0,0.0,0.0,1.3,0.0,-2.5,0.0,0.0,0.0,1.3,0.0,-2.5,0.0,-0.05163174016772096,0.0,-0.3237124132452452,0.0
1776712952.490301,0.0,0.0,1.3,0.0,-2.5,0.0,0.0,0.0,1.3,0.0,-2.5,0.0,0.0,0.0,1.3,0.0,-2.5,0.0,0.0,0.0,1.3,0.0,-2.5,0.0,-0.05194835944429244,0.0,-0.3235466942373045,0.0
1776712952.5102208,0.0,0.0,1.3,0.0,-2.5,0.0,0.0,0.0,1.3,0.0,-2.5,0.0,0.0,0.0,1.3,0.0,-2.5,0.0,0.0,0.0,1.3,0.0,-2.5,0.0,-0.05160394683061757,0.0,-0.323684581837016,0.0
1776712952.5302072,0.0,0.0,1.3,0.0,-2.5,0.0,0.0,0.0,1.3,0.0,-2.5,0.0,0.0,0.0,1.3,0.0,-2.5,0.0,0.0,0.0,1.3,0.0,-2.5,0.0,-0.05125308936338456,0.042581619387398906,-0.3236075905131464,-0.006333687979847014
1776712952.550452,0.0,0.0,1.3,0.0,-2.5,0.0,0.0,0.0,1.3,0.0,-2.5,0.0,0.0,0.0,1.3,0.0,-2.5,0.0,0.0,0.0,1.3,0.0,-2.5,0.0,-0.05134246602040138,-0.007430112386354271,-0.32365652753482077,-0.0015709102106740147
1776712952.5703351,0.0,0.0,1.3,0.0,-2.5,0.0,0.0,0.0,1.3,0.0,-2.5,0.0,0.0,0.0,1.3,0.0,-2.5,0.0,0.0,0.0,1.3,0.0,-2.5,0.0,-0.05132720195240878,-0.004582012370863087,-0.32364273133978305,-0.00022551503725054545
1776712952.59031,0.0,0.0,1.3,0.0,-2.5,0.0,0.0,0.0,1.3,0.0,-2.5,0.0,0.0,0.0,1.3,0.0,-2.5,0.0,0.0,0.0,1.3,0.0,-2.5,0.0,-0.052180418514851265,-0.09106654729579677,-0.323734058731219,-0.007399258542138298
1776712952.6102421,0.0,0.0,1.3,0.0,-2.5,0.0,0.0,0.0,1.3,0.0,-2.5,0.0,0.0,0.0,1.3,0.0,-2.5,0.0,0.0,0.0,1.3,0.0,-2.5,0.0,-0.051848360293555724,0.022943057360453878,-0.32359319933245145,0.017098457340383177
1776712952.630258,0.0,0.0,1.3,0.0,-2.5,0.0,0.0,0.0,1.3,0.0,-2.5,0.0,0.0,0.0,1.3,0.0,-2.5,0.0,0.0,0.0,1.3,0.0,-2.5,0.0,-0.0509986989156149,0.12476485391473613,-0.32344945503534545,0.024183326732091004
1776712952.6503136,0.0,0.0,1.3,0.0,-2.5,0.0,0.0,0.0,1.3,0.0,-2.5,0.0,0.0,0.0,1.3,0.0,-2.5,0.0,0.0,0.0,1.3,0.0,-2.5,0.0,-0.05120594669289161,0.005289389925711818,-0.3235795361153847,-0.013205072324117495
1776712952.6703012,0.0,0.0,1.3,0.0,-2.5,0.0,0.0,0.0,1.3,0.0,-2.5,0.0,0.0,0.0,1.3,0.0,-2.5,0.0,0.0,0.0,1.3,0.0,-2.5,0.0,-0.05152764187387732,-0.04617936101074749,-0.323736526167832,-0.01773342707546277
1776712952.690228,0.0,0.0,1.3,0.0,-2.5,0.0,0.0,0.0,1.3,0.0,-2.5,0.0,0.0,0.0,1.3,0.0,-2.5,0.0,0.0,0.0,1.3,0.0,-2.5,0.0,-0.051958532155227874,-0.06063072927050239,-0.32369019706450586,0.005169573597060051
1776712952.7102563,0.0,0.0,1.3,0.0,-2.5,0.0,0.0,0.0,1.3,0.0,-2.5,0.0,0.0,0.0,1.3,0.0,-2.5,0.0,0.0,0.0,1.3,0.0,-2.5,0.0,-0.052057301969985675,-0.016384252318188963,-0.32359030529437816,0.00893518330942733
1776712952.7302248,0.0,0.0,1.3,0.0,-2.5,0.0,0.0,0.0,1.3,0.0,-2.5,0.0,0.0,0.0,1.3,0.0,-2.5,0.0,0.0,0.0,1.3,0.0,-2.5,0.0,-0.051047824177419765,0.11492412610831226,-0.3237155488566131,-0.010442142769974794
1776712952.7502928,0.0,0.0,1.3,0.0,-2.5,0.0,0.0,0.0,1.3,0.0,-2.5,0.0,0.0,0.0,1.3,0.0,-2.5,0.0,0.0,0.0,1.3,0.0,-2.5,0.0,-0.051132060967974284,0.024306379829966307,-0.3237816346587826,-0.01763257827155762
1776712952.7702186,0.0,0.0,1.3,0.0,-2.5,0.0,0.0,0.0,1.3,0.0,-2.5,0.0,0.0,0.0,1.3,0.0,-2.5,0.0,0.0,0.0,1.3,0.0,-2.5,0.0,-0.051672157857991535,-0.06437387993923882,-0.32358674368006324,0.02066201816614388
1776712952.7903132,0.0,0.0,1.3,0.0,-2.5,0.0,0.0,0.0,1.3,0.0,-2.5,0.0,0.0,0.0,1.3,0.0,-2.5,0.0,0.0,0.0,1.3,0.0,-2.5,0.0,-0.051815106781023045,-0.03570427683852406,-0.32352917025414685,0.012386328371469801
1776712952.8102465,0.0,0.0,1.3,0.0,-2.5,0.0,0.0,0.0,1.3,0.0,-2.5,0.0,0.0,0.0,1.3,0.0,-2.5,0.0,0.0,0.0,1.3,0.0,-2.5,0.0,-0.05467992467699324,-0.35380567704665467,-0.32291481343634154,0.08181623808180305
1776712952.8303027,0.0,0.0,1.3,0.0,-2.5,0.0,0.0,0.0,1.3,0.0,-2.5,0.0,0.0,0.0,1.3,0.0,-2.5,0.0,0.0,0.0,1.3,0.0,-2.5,0.0,-0.058313615294988026,-0.48176925852039365,-0.3191914404523325,0.40676822854768524
1776712952.8502474,0.0,0.0,1.3,0.0,-2.5,0.0,0.0,0.0,1.3,0.0,-2.5,0.0,0.0,0.0,1.3,0.0,-2.5,0.0,0.0,0.0,1.3,0.0,-2.5,0.0,-0.056248324522914686,0.16243234954334818,-0.31985816499858266,0.020854564875287807
1776712952.870373,0.0,0.0,1.3,0.0,-2.5,0.0,0.0,0.0,1.3,0.0,-2.5,0.0,0.0,0.0,1.3,0.0,-2.5,0.0,0.0,0.0,1.3,0.0,-2.5,0.0,-0.05275366403030185,0.47741406605220305,-0.32288364541435544,-0.41680923785483515
1776712952.8902187,0.0,0.0,1.3,0.0,-2.5,0.0,0.0,0.0,1.3,0.0,-2.5,0.0,0.0,0.0,1.3,0.0,-2.5,0.0,0.0,0.0,1.3,0.0,-2.5,0.0,-0.05017967616247154,0.37012818659054236,-0.3246050033980437,-0.2824739523743549
1776712952.9102504,0.0,0.0,1.3,0.0,-2.5,0.0,0.0,0.0,1.3,0.0,-2.5,0.0,0.0,0.0,1.3,0.0,-2.5,0.0,0.0,0.0,1.3,0.0,-2.5,0.0,-0.05268275220714798,-0.2922954745358344,-0.32332900166921064,0.15791734316202977
1776712952.930263,0.0,0.0,1.3,0.0,-2.5,0.0,0.0,0.0,1.3,0.0,-2.5,0.0,0.0,0.0,1.3,0.0,-2.5,0.0,0.0,0.0,1.3,0.0,-2.5,0.0,-0.057598563825537026,-0.5971131123282176,-0.3199808013028823,0.41509323909298956
1776712952.950268,0.0,0.0,1.3,0.0,-2.5,0.0,0.0,0.0,1.3,0.0,-2.5,0.0,0.0,0.0,1.3,0.0,-2.5,0.0,0.0,0.0,1.3,0.0,-2.5,0.0,-0.05708506970685734,-0.11342530546491814,-0.31925222916495555,0.21648578418425402
1776712952.9703355,0.0,0.0,1.3,0.0,-2.5,0.0,0.0,0.0,1.3,0.0,-2.5,0.0,0.0,0.0,1.3,0.0,-2.5,0.0,0.0,0.0,1.3,0.0,-2.5,0.0,-0.0552567181108644,0.3017438113915769,-0.3207630901662417,-0.21135116540667553
1776712952.9902194,0.0,0.0,1.3,0.0,-2.5,0.0,0.0,0.0,1.3,0.0,-2.5,0.0,0.0,0.0,1.3,0.0,-2.5,0.0,0.0,0.0,1.3,0.0,-2.5,0.0,-0.05705413597039999,-0.10779490298273897,-0.3203524578166738,-0.027672209846953066
1776712953.010211,0.0,0.0,1.3,0.0,-2.5,0.0,0.0,0.0,1.3,0.0,-2.5,0.0,0.0,0.0,1.3,0.0,-2.5,0.0,0.0,0.0,1.3,0.0,-2.5,0.0,-0.057076834888326676,-0.020700077309821374,-0.320175095280119,0.013869187624109713
1776712953.0302193,0.0,0.0,1.3,0.0,-2.5,0.0,0.0,0.0,1.3,0.0,-2.5,0.0,0.0,0.0,1.3,0.0,-2.5,0.0,0.0,0.0,1.3,0.0,-2.5,0.0,-0.056636610394513884,0.05599365844656812,-0.32007715314396357,0.016364734690082372
1776712953.0504858,0.0,0.0,1.3,0.0,-2.5,0.0,0.0,0.0,1.3,0.0,-2.5,0.0,0.0,0.0,1.3,0.0,-2.5,0.0,0.0,0.0,1.3,0.0,-2.5,0.0,-0.056206551287562134,0.06495396811786192,-0.32014616450304756,-0.007126985846952039
1776712953.0702617,0.0,0.0,1.3,0.0,-2.5,0.0,0.0,0.0,1.3,0.0,-2.5,0.0,0.0,0.0,1.3,0.0,-2.5,0.0,0.0,0.0,1.3,0.0,-2.5,0.0,-0.05647268937376405,-0.01855429860044744,-0.32004809288506025,0.006028788232654847
1776712953.0902731,0.0,0.0,1.3,0.0,-2.5,0.0,0.0,0.0,1.3,0.0,-2.5,0.0,0.0,0.0,1.3,0.0,-2.5,0.0,0.0,0.0,1.3,0.0,-2.5,0.0,-0.05678106476958979,-0.05321858784472644,-0.32054118175226826,-0.04440846075573823
1776712953.1102698,0.0,0.0,1.3,0.0,-2.5,0.0,0.0,0.0,1.3,0.0,-2.5,0.0,0.0,0.0,1.3,0.0,-2.5,0.0,0.0,0.0,1.3,0.0,-2.5,0.0,-0.05681707769323856,-0.013235926523696762,-0.32050068944175847,-0.0047732222175032035
1776712953.130201,0.0,0.0,1.3,0.0,-2.5,0.0,0.0,0.0,1.3,0.0,-2.5,0.0,0.0,0.0,1.3,0.0,-2.5,0.0,0.0,0.0,1.3,0.0,-2.5,0.0,-0.05676364110110555,0.004556008789180943,-0.31995197789258667,0.06126794687592074
1776712953.1502752,0.0,0.0,1.3,0.0,-2.5,0.0,0.0,0.0,1.3,0.0,-2.5,0.0,0.0,0.0,1.3,0.0,-2.5,0.0,0.0,0.0,1.3,0.0,-2.5,0.0,-0.05662440784843915,0.017973882402219088,-0.3198964422497817,0.029976271270468757
1776712953.1702693,0.0,0.0,1.3,0.0,-2.5,0.0,0.0,0.0,1.3,0.0,-2.5,0.0,0.0,0.0,1.3,0.0,-2.5,0.0,0.0,0.0,1.3,0.0,-2.5,0.0,-0.056350409103186824,0.03797385983246393,-0.3202212349531126,-0.03697650979787426
1776712953.190249,0.0,0.0,1.3,0.0,-2.5,0.0,0.0,0.0,1.3,0.0,-2.5,0.0,0.0,0.0,1.3,0.0,-2.5,0.0,0.0,0.0,1.3,0.0,-2.5,0.0,-0.0565759292210203,-0.016878736463947996,-0.32026657553497695,-0.013910758377962296
1776712953.210271,0.0,0.0,1.3,0.0,-2.5,0.0,0.0,0.0,1.3,0.0,-2.5,0.0,0.0,0.0,1.3,0.0,-2.5,0.0,0.0,0.0,1.3,0.0,-2.5,0.0,-0.05206603014759908,0.5118378508489503,-0.3236960363706745,-0.3913963752020546
1776712953.230206,0.0,0.0,1.3,0.0,-2.5,0.0,0.0,0.0,1.3,0.0,-2.5,0.0,0.0,0.0,1.3,0.0,-2.5,0.0,0.0,0.0,1.3,0.0,-2.5,0.0,-0.0505683917246707,0.2812685770625616,-0.3244313106942015,-0.16813180747448797
1776712953.2501895,0.0,0.0,1.3,0.0,-2.5,0.0,0.0,0.0,1.3,0.0,-2.5,0.0,0.0,0.0,1.3,0.0,-2.5,0.0,0.0,0.0,1.3,0.0,-2.5,0.0,-0.05236495544645303,-0.2447303586632532,-0.3229973695257462,0.20590836958369962
1776712953.2702434,0.0,0.0,1.3,0.0,-2.5,0.0,0.0,0.0,1.3,0.0,-2.5,0.0,0.0,0.0,1.3,0.0,-2.5,0.0,0.0,0.0,1.3,0.0,-2.5,0.0,-0.05142521923464387,0.026583968997644813,-0.32361942633865093,-0.009014806994514402
1776712953.290205,0.0,0.0,1.3,0.0,-2.5,0.0,0.0,0.0,1.3,0.0,-2.5,0.0,0.0,0.0,1.3,0.0,-2.5,0.0,0.0,0.0,1.3,0.0,-2.5,0.0,-0.05142560858023486,-0.000190491702037221,-0.32362748949031095,-0.005407745704106404
1776712953.3102076,0.0,0.0,1.3,0.0,-2.5,0.0,0.0,0.0,1.3,0.0,-2.5,0.0,0.0,0.0,1.3,0.0,-2.5,0.0,0.0,0.0,1.3,0.0,-2.5,0.0,-0.051637302082044624,-0.032054007170066345,-0.32375111864101724,-0.014868632478966859
1776712953.3302033,0.0,0.0,1.3,0.0,-2.5,0.0,0.0,0.0,1.3,0.0,-2.5,0.0,0.0,0.0,1.3,0.0,-2.5,0.0,0.0,0.0,1.3,0.0,-2.5,0.0,-0.05190742715721834,-0.03224253154583656,-0.3235981935524555,0.010873405249311574
1776712953.3502016,0.0,0.0,1.3,0.0,-2.5,0.0,0.0,0.0,1.3,0.0,-2.5,0.0,0.0,0.0,1.3,0.0,-2.5,0.0,0.0,0.0,1.3,0.0,-2.5,0.0,-0.05175195726417185,0.01034549022150344,-0.32364456700411254,0.0028422994779351285
1776712953.3702805,0.0,0.0,1.3,0.0,-2.5,0.0,0.0,0.0,1.3,0.0,-2.5,0.0,0.0,0.0,1.3,0.0,-2.5,0.0,0.0,0.0,1.3,0.0,-2.5,0.0,-0.05139048497526566,0.04642325552721793,-0.32361923237496987,0.0005330499320592708
1776712953.390287,0.0,0.0,1.3,0.0,-2.5,0.0,0.0,0.0,1.3,0.0,-2.5,0.0,0.0,0.0,1.3,0.0,-2.5,0.0,0.0,0.0,1.3,0.0,-2.5,0.0,-0.051245266427473055,0.021709357103080862,-0.32358033946174225,0.005229030123611977
1776712953.4102063,0.0,0.0,1.3,0.0,-2.5,0.0,0.0,0.0,1.3,0.0,-2.5,0.0,0.0,0.0,1.3,0.0,-2.5,0.0,0.0,0.0,1.3,0.0,-2.5,0.0,-0.051582390120056734,-0.03672482963894419,-0.3235954762536304,0.001734213204340307
1776712953.4303892,0.0,0.0,1.3,0.0,-2.5,0.0,0.0,0.0,1.3,0.0,-2.5,0.0,0.0,0.0,1.3,0.0,-2.5,0.0,0.0,0.0,1.3,0.0,-2.5,0.0,-0.05213425747330955,-0.06238489967151062,-0.32367661347135157,-0.00796353303445052
1776712953.450283,0.0,0.0,1.3,0.0,-2.5,0.0,0.0,0.0,1.3,0.0,-2.5,0.0,0.0,0.0,1.3,0.0,-2.5,0.0,0.0,0.0,1.3,0.0,-2.5,0.0,-0.05174937210051436,0.02788819724000202,-0.32366839749657617,-0.0018380066052330335
1776712953.470232,0.0,0.0,1.3,0.0,-2.5,0.0,0.0,0.0,1.3,0.0,-2.5,0.0,0.0,0.0,1.3,0.0,-2.5,0.0,0.0,0.0,1.3,0.0,-2.5,0.0,-0.05101691402375276,0.09462827902503612,-0.32369550843259376,-0.0006797180148119253
1776712953.4902081,0.0,0.0,1.3,0.0,-2.5,0.0,0.0,0.0,1.3,0.0,-2.5,0.0,0.0,0.0,1.3,0.0,-2.5,0.0,0.0,0.0,1.3,0.0,-2.5,0.0,-0.05125703912232915,-0.007457000996333285,-0.32353333129452105,0.020771990887137548
1776712953.5102112,0.0,0.0,1.3,0.0,-2.5,0.0,0.0,0.0,1.3,0.0,-2.5,0.0,0.0,0.0,1.3,0.0,-2.5,0.0,0.0,0.0,1.3,0.0,-2.5,0.0,-0.05164970462436721,-0.04809415368615522,-0.32353219744248163,0.004703377215225402
1776712953.5302253,0.0,0.0,1.3,0.0,-2.5,0.0,0.0,0.0,1.3,0.0,-2.5,0.0,0.0,0.0,1.3,0.0,-2.5,0.0,0.0,0.0,1.3,0.0,-2.5,0.0,-0.051821491906197184,-0.030509841876123822,-0.3237125981608454,-0.024955483084825758
1776712953.5502722,0.0,0.0,1.3,0.0,-2.5,0.0,0.0,0.0,1.3,0.0,-2.5,0.0,0.0,0.0,1.3,0.0,-2.5,0.0,0.0,0.0,1.3,0.0,-2.5,0.0,-0.05190530574799175,-0.012681200701178286,-0.3238469489149512,-0.024099357176973868
1776712953.5702221,0.0,0.0,1.3,0.0,-2.5,0.0,0.0,0.0,1.3,0.0,-2.5,0.0,0.0,0.0,1.3,0.0,-2.5,0.0,0.0,0.0,1.3,0.0,-2.5,0.0,-0.05128448447563459,0.07592556237213044,-0.3235538225029956,0.026147219518112053
1776712953.5902772,0.0,0.0,1.3,0.0,-2.5,0.0,0.0,0.0,1.3,0.0,-2.5,0.0,0.0,0.0,1.3,0.0,-2.5,0.0,0.0,0.0,1.3,0.0,-2.5,0.0,-0.05101466149116204,0.04639188633507674,-0.3236415144449817,-0.001442573884620657
1776712953.6102028,0.0,0.0,1.3,0.0,-2.5,0.0,0.0,0.0,1.3,0.0,-2.5,0.0,0.0,0.0,1.3,0.0,-2.5,0.0,0.0,0.0,1.3,0.0,-2.5,0.0,-0.05161156321287828,-0.0638731755758235,-0.3235954278465295,-1.399718473038547e-05
1776712953.630309,0.0,0.0,1.3,0.0,-2.5,0.0,0.0,0.0,1.3,0.0,-2.5,0.0,0.0,0.0,1.3,0.0,-2.5,0.0,0.0,0.0,1.3,0.0,-2.5,0.0,-0.05175655828663956,-0.037415770532700066,-0.3236673020154484,-0.009309014006420924
1776712953.6502714,0.0,0.0,1.3,0.0,-2.5,0.0,0.0,0.0,1.3,0.0,-2.5,0.0,0.0,0.0,1.3,0.0,-2.5,0.0,0.0,0.0,1.3,0.0,-2.5,0.0,-0.051918033314655665,-0.022201833701403384,-0.32385299460991457,-0.019856833520750072
1776712953.6702394,0.0,0.0,1.3,0.0,-2.5,0.0,0.0,0.0,1.3,0.0,-2.5,0.0,0.0,0.0,1.3,0.0,-2.5,0.0,0.0,0.0,1.3,0.0,-2.5,0.0,-0.051423243359903434,0.05753237327396965,-0.32380929588385676,0.00372408764768295
1776712953.690222,0.0,0.0,1.3,0.0,-2.5,0.0,0.0,0.0,1.3,0.0,-2.5,0.0,0.0,0.0,1.3,0.0,-2.5,0.0,0.0,0.0,1.3,0.0,-2.5,0.0,-0.05094449461057124,0.05496131786357061,-0.3235300294967668,0.025406865879643803
1776712953.7102592,0.0,0.0,1.3,0.0,-2.5,0.0,0.0,0.0,1.3,0.0,-2.5,0.0,0.0,0.0,1.3,0.0,-2.5,0.0,0.0,0.0,1.3,0.0,-2.5,0.0,-0.05177370275339531,-0.08291213095754513,-0.32360298776736296,-0.0017753371379303218
1776712953.7302198,0.0,0.0,1.3,0.0,-2.5,0.0,0.0,0.0,1.3,0.0,-2.5,0.0,0.0,0.0,1.3,0.0,-2.5,0.0,0.0,0.0,1.3,0.0,-2.5,0.0,-0.0516031681565739,0.003840882542357704,-0.32366553969241707,-0.005248042717461487
1776712953.7502377,0.0,0.0,1.3,0.0,-2.5,0.0,0.0,0.0,1.3,0.0,-2.5,0.0,0.0,0.0,1.3,0.0,-2.5,0.0,0.0,0.0,1.3,0.0,-2.5,0.0,-0.051620250675076196,0.0121763612478607,-0.323630859318054,0.00303025869269824
1776712953.770255,0.0,0.0,1.3,0.0,-2.5,0.0,0.0,0.0,1.3,0.0,-2.5,0.0,0.0,0.0,1.3,0.0,-2.5,0.0,0.0,0.0,1.3,0.0,-2.5,0.0,-0.051950471080108765,-0.03127868071391848,-0.3233246155187338,0.04937240677081434
1776712953.7902262,0.0,0.0,1.3,0.0,-2.5,0.0,0.0,0.0,1.3,0.0,-2.5,0.0,0.0,0.0,1.3,0.0,-2.5,0.0,0.0,0.0,1.3,0.0,-2.5,0.0,-0.05425692642734052,-0.2247588603694637,-0.32147997400001416,0.17730613396444106
1776712953.810251,0.0,0.0,1.3,0.0,-2.5,0.0,0.0,0.0,1.3,0.0,-2.5,0.0,0.0,0.0,1.3,0.0,-2.5,0.0,0.0,0.0,1.3,0.0,-2.5,0.0,-0.05198367293497495,0.22390284598716503,-0.32304189112620896,-0.18078569338920403
1776712953.8302045,0.0,0.0,1.3,0.0,-2.5,0.0,0.0,0.0,1.3,0.0,-2.5,0.0,0.0,0.0,1.3,0.0,-2.5,0.0,0.0,0.0,1.3,0.0,-2.5,0.0,-0.05102703646086863,0.18066279892094106,-0.3241955686268878,-0.1400601435895883
1776712953.8502169,0.0,0.0,1.3,0.0,-2.5,0.0,0.0,0.0,1.3,0.0,-2.5,0.0,0.0,0.0,1.3,0.0,-2.5,0.0,0.0,0.0,1.3,0.0,-2.5,0.0,-0.05196011608978077,-0.0989771463946707,-0.3236545271113315,0.03900982252006635
1776712953.8701947,0.0,0.0,1.3,0.0,-2.5,0.0,0.0,0.0,1.3,0.0,-2.5,0.0,0.0,0.0,1.3,0.0,-2.5,0.0,0.0,0.0,1.3,0.0,-2.5,0.0,-0.051694303668042334,0.017051791689086215,-0.3235601240994494,0.01465463492773722
1776712953.8902256,0.0,0.0,1.3,0.0,-2.5,0.0,0.0,0.0,1.3,0.0,-2.5,0.0,0.0,0.0,1.3,0.0,-2.5,0.0,0.0,0.0,1.3,0.0,-2.5,0.0,-0.05123947979273537,0.050516544038415656,-0.3234934549810575,0.012768706324319368
1776712953.9102101,0.0,0.0,1.3,0.0,-2.5,0.0,0.0,0.0,1.3,0.0,-2.5,0.0,0.0,0.0,1.3,0.0,-2.5,0.0,0.0,0.0,1.3,0.0,-2.5,0.0,-0.05142504522434111,-0.01451447973147224,-0.32350933879190746,-0.0012380503785784924
1776712953.9302044,0.0,0.0,1.3,0.0,-2.5,0.0,0.0,0.0,1.3,0.0,-2.5,0.0,0.0,0.0,1.3,0.0,-2.5,0.0,0.0,0.0,1.3,0.0,-2.5,0.0,-0.05212228253986605,-0.08328820597900188,-0.3237960393686192,-0.03755118067379115
1776712953.9502242,0.0,0.0,1.3,0.0,-2.5,0.0,0.0,0.0,1.3,0.0,-2.5,0.0,0.0,0.0,1.3,0.0,-2.5,0.0,0.0,0.0,1.3,0.0,-2.5,0.0,-0.05152744809283517,0.04451096685268663,-0.3236241984829524,0.01002198250406039
1776712953.9702406,0.0,0.0,1.3,0.0,-2.5,0.0,0.0,0.0,1.3,0.0,-2.5,0.0,0.0,0.0,1.3,0.0,-2.5,0.0,0.0,0.0,1.3,0.0,-2.5,0.0,-0.05142533258721662,0.02299770136012591,-0.3235168366879575,0.017765969473057197
1776712953.9902658,0.0,0.0,1.3,0.0,-2.5,0.0,0.0,0.0,1.3,0.0,-2.5,0.0,0.0,0.0,1.3,0.0,-2.5,0.0,0.0,0.0,1.3,0.0,-2.5,0.0,-0.05167274945978105,-0.027283371347242902,-0.3235538665122011,-0.0007868271033188989
1776712954.010211,0.0,0.0,1.3,0.0,-2.5,0.0,0.0,0.0,1.3,0.0,-2.5,0.0,0.0,0.0,1.3,0.0,-2.5,0.0,0.0,0.0,1.3,0.0,-2.5,0.0,-0.05120672270841478,0.04138544305868708,-0.32352511256392846,0.003891718152042145
1776712954.030214,0.0,0.0,1.3,0.0,-2.5,0.0,0.0,0.0,1.3,0.0,-2.5,0.0,0.0,0.0,1.3,0.0,-2.5,0.0,0.0,0.0,1.3,0.0,-2.5,0.0,-0.05174732679627804,-0.05095860562084331,-0.32358348695757866,-0.005567761705391305
1776712954.0502908,0.0,0.0,1.3,0.0,-2.5,0.0,0.0,0.0,1.3,0.0,-2.5,0.0,0.0,0.0,1.3,0.0,-2.5,0.0,0.0,0.0,1.3,0.0,-2.5,0.0,-0.05162190670217214,-0.0058391402918349655,-0.3235672293509459,-0.001623757167735107
1776712954.07026,0.0,0.0,1.3,0.0,-2.5,0.0,0.0,0.0,1.3,0.0,-2.5,0.0,0.0,0.0,1.3,0.0,-2.5,0.0,0.0,0.0,1.3,0.0,-2.5,0.0,-0.05121524872653815,0.0489936098102457,-0.3235706723499695,-0.00012353641224827072
1776712954.0902789,0.0,0.0,1.3,0.0,-2.5,0.0,0.0,0.0,1.3,0.0,-2.5,0.0,0.0,0.0,1.3,0.0,-2.5,0.0,0.0,0.0,1.3,0.0,-2.5,0.0,-0.05188461605945165,-0.0578990796647767,-0.32366307890901136,-0.006386491276114015
1776712954.1102247,0.0,0.0,1.3,0.0,-2.5,0.0,0.0,0.0,1.3,0.0,-2.5,0.0,0.0,0.0,1.3,0.0,-2.5,0.0,0.0,0.0,1.3,0.0,-2.5,0.0,-0.051294953054669405,0.04895867170847157,-0.32342993965950667,0.025302600093903393
1776712954.1303642,0.0,0.0,1.3,0.0,-2.5,0.0,0.0,0.0,1.3,0.0,-2.5,0.0,0.0,0.0,1.3,0.0,-2.5,0.0,0.0,0.0,1.3,0.0,-2.5,0.0,-0.05111537619126225,0.04692313597652609,-0.3233827429463091,0.011496341605340632
1776712954.1503048,0.0,0.0,1.3,0.0,-2.5,0.0,0.0,0.0,1.3,0.0,-2.5,0.0,0.0,0.0,1.3,0.0,-2.5,0.0,0.0,0.0,1.3,0.0,-2.5,0.0,-0.05167887868138662,-0.05027695923480202,-0.3237305791730862,-0.03187322094100509
1776712954.170255,0.0,0.0,1.3,0.0,-2.5,0.0,0.0,0.0,1.3,0.0,-2.5,0.0,0.0,0.0,1.3,0.0,-2.5,0.0,0.0,0.0,1.3,0.0,-2.5,0.0,-0.05152283753167313,0.003785583700530726,-0.3236564067030826,0.0004492988672151199
1776712954.1902072,0.0,0.0,1.3,0.0,-2.5,0.0,0.0,0.0,1.3,0.0,-2.5,0.0,0.0,0.0,1.3,0.0,-2.5,0.0,0.0,0.0,1.3,0.0,-2.5,0.0,-0.05171156210128295,-0.014671841983493916,-0.3237981339560152,-0.012381804030377808
1776712954.2102087,0.0,0.0,1.3,0.0,-2.5,0.0,0.0,0.0,1.3,0.0,-2.5,0.0,0.0,0.0,1.3,0.0,-2.5,0.0,0.0,0.0,1.3,0.0,-2.5,0.0,-0.05142214264835225,0.03196757671971984,-0.3236349365658776,0.016118067787374457
1776712954.2302039,0.0,0.0,1.3,0.0,-2.5,0.0,0.0,0.0,1.3,0.0,-2.5,0.0,0.0,0.0,1.3,0.0,-2.5,0.0,0.0,0.0,1.3,0.0,-2.5,0.0,-0.05115771081342592,0.03367702400825978,-0.32333072903343135,0.033030985735029716
1776712954.2502155,0.0,0.0,1.3,0.0,-2.5,0.0,0.0,0.0,1.3,0.0,-2.5,0.0,0.0,0.0,1.3,0.0,-2.5,0.0,0.0,0.0,1.3,0.0,-2.5,0.0,-0.051598835618822364,-0.04910791520205171,-0.3237798989739107,-0.04602696640685977
1776712954.2703047,0.0,0.0,1.3,0.0,-2.5,0.0,0.0,0.0,1.3,0.0,-2.5,0.0,0.0,0.0,1.3,0.0,-2.5,0.0,0.0,0.0,1.3,0.0,-2.5,0.0,-0.0517586487083436,-0.029239980370991292,-0.32375722627516956,-0.011546895867747153
1776712954.2902026,0.0,0.0,1.3,0.0,-2.5,0.0,0.0,0.0,1.3,0.0,-2.5,0.0,0.0,0.0,1.3,0.0,-2.5,0.0,0.0,0.0,1.3,0.0,-2.5,0.0,-0.05155968782730761,0.01875180141921695,-0.3235153851299176,0.027966340705889436
1776712954.310204,0.0,0.0,1.3,0.0,-2.5,0.0,0.0,0.0,1.3,0.0,-2.5,0.0,0.0,0.0,1.3,0.0,-2.5,0.0,0.0,0.0,1.3,0.0,-2.5,0.0,-0.051715665022053395,-0.00757047022353996,-0.3237599718040314,-0.01835300699303133
1776712954.3302052,0.0,0.0,1.3,0.0,-2.5,0.0,0.0,0.0,1.3,0.0,-2.5,0.0,0.0,0.0,1.3,0.0,-2.5,0.0,0.0,0.0,1.3,0.0,-2.5,0.0,-0.051073613545538195,0.07504579246922782,-0.3234940671833505,0.019287373588388945
1776712954.3502908,0.0,0.0,1.3,0.0,-2.5,0.0,0.0,0.0,1.3,0.0,-2.5,0.0,0.0,0.0,1.3,0.0,-2.5,0.0,0.0,0.0,1.3,0.0,-2.5,0.0,-0.05137833861009704,-0.013629744397099852,-0.3234346582427955,0.014039810063277258
1776712954.3702319,0.0,0.0,1.3,0.0,-2.5,0.0,0.0,0.0,1.3,0.0,-2.5,0.0,0.0,0.0,1.3,0.0,-2.5,0.0,0.0,0.0,1.3,0.0,-2.5,0.0,-0.05200342147286449,-0.0708691038169027,-0.3238897497005342,-0.05152830016539056
1776712954.3902013,0.0,0.0,1.3,0.0,-2.5,0.0,0.0,0.0,1.3,0.0,-2.5,0.0,0.0,0.0,1.3,0.0,-2.5,0.0,0.0,0.0,1.3,0.0,-2.5,0.0,-0.051413766138554515,0.059355669221514695,-0.3234668403654972,0.036970939619131116
1776712954.4102042,0.0,0.0,1.3,0.0,-2.5,0.0,0.0,0.0,1.3,0.0,-2.5,0.0,0.0,0.0,1.3,0.0,-2.5,0.0,0.0,0.0,1.3,0.0,-2.5,0.0,-0.0514627511294129,0.011318160760835694,-0.32354674876993006,0.0018075066548650653
1776712954.430213,0.0,0.0,1.3,0.0,-2.5,0.0,0.0,0.0,1.3,0.0,-2.5,0.0,0.0,0.0,1.3,0.0,-2.5,0.0,0.0,0.0,1.3,0.0,-2.5,0.0,-0.05139765757841944,0.007541211272779513,-0.32357639491565804,-0.01016139957015838
1776712954.4501579,0.0,0.0,1.3,0.0,-2.5,0.0,0.0,0.0,1.3,0.0,-2.5,0.0,0.0,0.0,1.3,0.0,-2.5,0.0,0.0,0.0,1.3,0.0,-2.5,0.0,-0.05125636548221933,0.019528408974956113,-0.323372473670615,0.02474267571775357
1776712954.4703,0.0,0.0,1.3,0.0,-2.5,0.0,0.0,0.0,1.3,0.0,-2.5,0.0,0.0,0.0,1.3,0.0,-2.5,0.0,0.0,0.0,1.3,0.0,-2.5,0.0,-0.0517125601057602,-0.04812130316744323,-0.32375310874374297,-0.03649666020413811
1776712954.4902027,0.0,0.0,1.3,0.0,-2.5,0.0,0.0,0.0,1.3,0.0,-2.5,0.0,0.0,0.0,1.3,0.0,-2.5,0.0,0.0,0.0,1.3,0.0,-2.5,0.0,-0.051791836921543086,-0.0180711836652665,-0.3236254170711723,0.006473124672599084
1776712954.5102031,0.0,0.0,1.3,0.0,-2.5,0.0,0.0,0.0,1.3,0.0,-2.5,0.0,0.0,0.0,1.3,0.0,-2.5,0.0,0.0,0.0,1.3,0.0,-2.5,0.0,-0.051376309753490876,0.046847503830837356,-0.3233551332651903,0.03358050689376846
1776712954.5302153,0.0,0.0,1.3,0.0,-2.5,0.0,0.0,0.0,1.3,0.0,-2.5,0.0,0.0,0.0,1.3,0.0,-2.5,0.0,0.0,0.0,1.3,0.0,-2.5,0.0,-0.05132220369828082,0.00818478662724953,-0.32372326995569745,-0.03520086420678936
1776712954.5505369,0.0,0.0,1.3,0.0,-2.5,0.0,0.0,0.0,1.3,0.0,-2.5,0.0,0.0,0.0,1.3,0.0,-2.5,0.0,0.0,0.0,1.3,0.0,-2.5,0.0,-0.051347302466651035,-0.011193581468612823,-0.32349412502742464,0.014278867565181486
1776712954.57026,0.0,0.0,1.3,0.0,-2.5,0.0,0.0,0.0,1.3,0.0,-2.5,0.0,0.0,0.0,1.3,0.0,-2.5,0.0,0.0,0.0,1.3,0.0,-2.5,0.0,-0.05167676842019259,-0.04268447445970658,-0.32342658550985703,0.01875259593792933
1776712954.5902035,0.0,0.0,1.3,0.0,-2.5,0.0,0.0,0.0,1.3,0.0,-2.5,0.0,0.0,0.0,1.3,0.0,-2.5,0.0,0.0,0.0,1.3,0.0,-2.5,0.0,-0.051947550392804784,-0.03798741563186314,-0.32367998182571456,-0.02791966440637239
1776712954.610201,0.0,0.0,1.3,0.0,-2.5,0.0,0.0,0.0,1.3,0.0,-2.5,0.0,0.0,0.0,1.3,0.0,-2.5,0.0,0.0,0.0,1.3,0.0,-2.5,0.0,-0.05119807366372661,0.07799204588804787,-0.32369073739235943,-0.005491317168562659
1776712954.6302025,0.0,0.0,1.3,0.0,-2.5,0.0,0.0,0.0,1.3,0.0,-2.5,0.0,0.0,0.0,1.3,0.0,-2.5,0.0,0.0,0.0,1.3,0.0,-2.5,0.0,-0.05155680718552971,-0.025775857727889928,-0.32362651724937713,0.003991601314414339
1776712954.6502879,0.0,0.0,1.3,0.0,-2.5,0.0,0.0,0.0,1.3,0.0,-2.5,0.0,0.0,0.0,1.3,0.0,-2.5,0.0,0.0,0.0,1.3,0.0,-2.5,0.0,-0.051661977288546504,-0.03315690430520046,-0.32359490689607273,0.005972497603249138
1776712954.6702101,0.0,0.0,1.3,0.0,-2.5,0.0,0.0,0.0,1.3,0.0,-2.5,0.0,0.0,0.0,1.3,0.0,-2.5,0.0,0.0,0.0,1.3,0.0,-2.5,0.0,-0.05115612343534012,0.04315048684784495,-0.3235333119274693,0.006574211363574278
1776712954.6902976,0.0,0.0,1.3,0.0,-2.5,0.0,0.0,0.0,1.3,0.0,-2.5,0.0,0.0,0.0,1.3,0.0,-2.5,0.0,0.0,0.0,1.3,0.0,-2.5,0.0,-0.051658226932581305,-0.05035536444498501,-0.32374012269768104,-0.019627525939837298
1776712954.7102017,0.0,0.0,1.3,0.0,-2.5,0.0,0.0,0.0,1.3,0.0,-2.5,0.0,0.0,0.0,1.3,0.0,-2.5,0.0,0.0,0.0,1.3,0.0,-2.5,0.0,-0.051765416780621576,-0.022426830601368408,-0.3237855491648214,-0.00936874767521978
1776712954.7302043,0.0,0.0,1.3,0.0,-2.5,0.0,0.0,0.0,1.3,0.0,-2.5,0.0,0.0,0.0,1.3,0.0,-2.5,0.0,0.0,0.0,1.3,0.0,-2.5,0.0,-0.0514438659120679,0.03576008691952581,-0.3237150142928631,0.010035976028817117
1776712954.7506168,0.0,0.0,1.3,0.0,-2.5,0.0,0.0,0.0,1.3,0.0,-2.5,0.0,0.0,0.0,1.3,0.0,-2.5,0.0,0.0,0.0,1.3,0.0,-2.5,0.0,-0.051361150741365186,0.023733716712659003,-0.32346940900812804,0.0323112813934614
1776712954.7702067,0.0,0.0,1.3,0.0,-2.5,0.0,0.0,0.0,1.3,0.0,-2.5,0.0,0.0,0.0,1.3,0.0,-2.5,0.0,0.0,0.0,1.3,0.0,-2.5,0.0,-0.05104587206631264,0.03334797001267331,-0.32346962614502794,0.002718089282698344
1776712954.7902806,0.0,0.0,1.3,0.0,-2.5,0.0,0.0,0.0,1.3,0.0,-2.5,0.0,0.0,0.0,1.3,0.0,-2.5,0.0,0.0,0.0,1.3,0.0,-2.5,0.0,-0.05149698367657334,-0.04756477870530551,-0.3236942841475971,-0.02563852913218234
1776712954.8102074,0.0,0.0,1.3,0.0,-2.5,0.0,0.0,0.0,1.3,0.0,-2.5,0.0,0.0,0.0,1.3,0.0,-2.5,0.0,0.0,0.0,1.3,0.0,-2.5,0.0,-0.05196072615722511,-0.05542855809987923,-0.3235807104668672,0.013166059705566724
1776712954.8304698,0.0,0.0,1.3,0.0,-2.5,0.0,0.0,0.0,1.3,0.0,-2.5,0.0,0.0,0.0,1.3,0.0,-2.5,0.0,0.0,0.0,1.3,0.0,-2.5,0.0,-0.051328372195383075,0.06606796064094378,-0.3234778535670626,0.018960120679540893
1776712954.8502123,0.0,0.0,1.3,0.0,-2.5,0.0,0.0,0.0,1.3,0.0,-2.5,0.0,0.0,0.0,1.3,0.0,-2.5,0.0,0.0,0.0,1.3,0.0,-2.5,0.0,-0.05117644293464371,0.04816244791312685,-0.323382610418726,0.01825396070916696
1776712954.8702545,0.0,0.0,1.3,0.0,-2.5,0.0,0.0,0.0,1.3,0.0,-2.5,0.0,0.0,0.0,1.3,0.0,-2.5,0.0,0.0,0.0,1.3,0.0,-2.5,0.0,-0.05142784642067988,-0.01738962534295796,-0.32344841328828916,-0.002241041191528126
1776712954.8902261,0.0,0.0,1.3,0.0,-2.5,0.0,0.0,0.0,1.3,0.0,-2.5,0.0,0.0,0.0,1.3,0.0,-2.5,0.0,0.0,0.0,1.3,0.0,-2.5,0.0,-0.05156046878979244,-0.013650639691703326,-0.3237414174071068,-0.02725524265271062
1776712954.9102206,0.0,0.0,1.3,0.0,-2.5,0.0,0.0,0.0,1.3,0.0,-2.5,0.0,0.0,0.0,1.3,0.0,-2.5,0.0,0.0,0.0,1.3,0.0,-2.5,0.0,-0.051549254677452375,0.005447398852298946,-0.3237200508372089,-0.0006541485950481984
1776712954.9302151,0.0,0.0,1.3,0.0,-2.5,0.0,0.0,0.0,1.3,0.0,-2.5,0.0,0.0,0.0,1.3,0.0,-2.5,0.0,0.0,0.0,1.3,0.0,-2.5,0.0,-0.053080754759995546,-0.13466088203890236,-0.3211005095618586,0.2799390322980706
1776712954.9502032,0.0,0.0,1.3,0.0,-2.5,0.0,0.0,0.0,1.3,0.0,-2.5,0.0,0.0,0.0,1.3,0.0,-2.5,0.0,0.0,0.0,1.3,0.0,-2.5,0.0,-0.05231004382021708,0.05860037578614863,-0.32155749328969574,0.045897281564254655
1776712954.9702249,0.0,0.0,1.3,0.0,-2.5,0.0,0.0,0.0,1.3,0.0,-2.5,0.0,0.0,0.0,1.3,0.0,-2.5,0.0,0.0,0.0,1.3,0.0,-2.5,0.0,-0.050924688282350174,0.17717851057201894,-0.3245656799347325,-0.3384462717438197
1776712954.9902008,0.0,0.0,1.3,0.0,-2.5,0.0,0.0,0.0,1.3,0.0,-2.5,0.0,0.0,0.0,1.3,0.0,-2.5,0.0,0.0,0.0,1.3,0.0,-2.5,0.0,-0.05158450036869196,-0.03659016492908718,-0.3235410911543786,0.054773880687758236
1776712955.0102398,0.0,0.0,1.3,0.0,-2.5,0.0,0.0,0.0,1.3,0.0,-2.5,0.0,0.0,0.0,1.3,0.0,-2.5,0.0,0.0,0.0,1.3,0.0,-2.5,0.0,-0.051358709139961864,0.018335455083387853,-0.32366474128908,-0.008756955902567753
1776712955.0302007,0.0,0.0,1.3,0.0,-2.5,0.0,0.0,0.0,1.3,0.0,-2.5,0.0,0.0,0.0,1.3,0.0,-2.5,0.0,0.0,0.0,1.3,0.0,-2.5,0.0,-0.05165352997404502,-0.026042532789351647,-0.3235997213252356,0.00982259783133621
1776712955.050202,0.0,0.0,1.3,0.0,-2.5,0.0,0.0,0.0,1.3,0.0,-2.5,0.0,0.0,0.0,1.3,0.0,-2.5,0.0,0.0,0.0,1.3,0.0,-2.5,0.0,-0.05176032305976773,-0.02682024160586005,-0.32358516916573166,0.0057692995298168626
1776712955.0702229,0.0,0.0,1.3,0.0,-2.5,0.0,0.0,0.0,1.3,0.0,-2.5,0.0,0.0,0.0,1.3,0.0,-2.5,0.0,0.0,0.0,1.3,0.0,-2.5,0.0,-0.0514755767771647,0.02801048759246405,-0.3235808657328437,-0.0007268609099586598
1776712955.0902407,0.0,0.0,1.3,0.0,-2.5,0.0,0.0,0.0,1.3,0.0,-2.5,0.0,0.0,0.0,1.3,0.0,-2.5,0.0,0.0,0.0,1.3,0.0,-2.5,0.0,-0.05134696282773225,0.02197043067123916,-0.32360576457117274,-0.004580779266506241
1776712955.1102526,0.0,0.0,1.3,0.0,-2.5,0.0,0.0,0.0,1.3,0.0,-2.5,0.0,0.0,0.0,1.3,0.0,-2.5,0.0,0.0,0.0,1.3,0.0,-2.5,0.0,-0.05126578710619106,0.004825176987697244,-0.32373528904148474,-0.01565527138278
1776712955.1302056,0.0,0.0,1.3,0.0,-2.5,0.0,0.0,0.0,1.3,0.0,-2.5,0.0,0.0,0.0,1.3,0.0,-2.5,0.0,0.0,0.0,1.3,0.0,-2.5,0.0,-0.05192859074466076,-0.07515797621125708,-0.3236112731873648,0.00841003538677576
1776712955.1502054,0.0,0.0,1.3,0.0,-2.5,0.0,0.0,0.0,1.3,0.0,-2.5,0.0,0.0,0.0,1.3,0.0,-2.5,0.0,0.0,0.0,1.3,0.0,-2.5,0.0,-0.05185039601734906,-0.016851678007697046,-0.32358265014998544,0.009638612080511422
1776712955.1702511,0.0,0.0,1.3,0.0,-2.5,0.0,0.0,0.0,1.3,0.0,-2.5,0.0,0.0,0.0,1.3,0.0,-2.5,0.0,0.0,0.0,1.3,0.0,-2.5,0.0,-0.05106752108349216,0.09396199700959351,-0.32361591844827897,-0.0066737212466847495
1776712955.1902874,0.0,0.0,1.3,0.0,-2.5,0.0,0.0,0.0,1.3,0.0,-2.5,0.0,0.0,0.0,1.3,0.0,-2.5,0.0,0.0,0.0,1.3,0.0,-2.5,0.0,-0.05129350561764269,-0.006409086559072241,-0.3236064891999758,-0.006347539150993953
1776712955.2102551,0.0,0.0,1.3,0.0,-2.5,0.0,0.0,0.0,1.3,0.0,-2.5,0.0,0.0,0.0,1.3,0.0,-2.5,0.0,0.0,0.0,1.3,0.0,-2.5,0.0,-0.051624621763549504,-0.048821043753245696,-0.3237394698577908,-0.009886460343826897
1776712955.2302513,0.0,0.0,1.3,0.0,-2.5,0.0,0.0,0.0,1.3,0.0,-2.5,0.0,0.0,0.0,1.3,0.0,-2.5,0.0,0.0,0.0,1.3,0.0,-2.5,0.0,-0.05290313539945739,-0.16701896771581692,-0.32319834426733834,0.07299830851389544
1776712955.250202,0.0,0.0,1.3,0.0,-2.5,0.0,0.0,0.0,1.3,0.0,-2.5,0.0,0.0,0.0,1.3,0.0,-2.5,0.0,0.0,0.0,1.3,0.0,-2.5,0.0,-0.058347957865164696,-0.6306736845595973,-0.31926329393150676,0.4442041011060951
1776712955.2702105,0.0,0.0,1.3,0.0,-2.5,0.0,0.0,0.0,1.3,0.0,-2.5,0.0,0.0,0.0,1.3,0.0,-2.5,0.0,0.0,0.0,1.3,0.0,-2.5,0.0,-0.05673735851547252,0.07051653034308947,-0.31986354520247867,0.021383205929197402
1776712955.2902856,0.0,0.0,1.3,0.0,-2.5,0.0,0.0,0.0,1.3,0.0,-2.5,0.0,0.0,0.0,1.3,0.0,-2.5,0.0,0.0,0.0,1.3,0.0,-2.5,0.0,-0.05525213488675877,0.26173466047445126,-0.3209207319217888,-0.1768965491237715
1776712955.3102012,0.0,0.0,1.3,0.0,-2.5,0.0,0.0,0.0,1.3,0.0,-2.5,0.0,0.0,0.0,1.3,0.0,-2.5,0.0,0.0,0.0,1.3,0.0,-2.5,0.0,-0.050416499264401185,0.5096878045256192,-0.32455448183009117,-0.3907957819081975
1776712955.3302007,0.0,0.0,1.3,0.0,-2.5,0.0,0.0,0.0,1.3,0.0,-2.5,0.0,0.0,0.0,1.3,0.0,-2.5,0.0,0.0,0.0,1.3,0.0,-2.5,0.0,-0.05141037783770783,-0.03441591411463962,-0.3237930855523382,0.01467222100228227
1776712955.3501992,0.0,0.0,1.3,0.0,-2.5,0.0,0.0,0.0,1.3,0.0,-2.5,0.0,0.0,0.0,1.3,0.0,-2.5,0.0,0.0,0.0,1.3,0.0,-2.5,0.0,-0.05230583525335909,-0.2400701740636293,-0.3229300140649415,0.1971796863216735
1776712955.3702369,0.0,0.0,1.3,0.0,-2.5,0.0,0.0,0.0,1.3,0.0,-2.5,0.0,0.0,0.0,1.3,0.0,-2.5,0.0,0.0,0.0,1.3,0.0,-2.5,0.0,-0.051363024538020385,0.018570358889119287,-0.3237369610362081,-0.01892432887837181
1776712955.3902187,0.0,0.0,1.3,0.0,-2.5,0.0,0.0,0.0,1.3,0.0,-2.5,0.0,0.0,0.0,1.3,0.0,-2.5,0.0,0.0,0.0,1.3,0.0,-2.5,0.0,-0.05126565694796748,0.009349496278321823,-0.32346600601391307,0.020723913509771208
1776712955.4102058,0.0,0.0,1.3,0.0,-2.5,0.0,0.0,0.0,1.3,0.0,-2.5,0.0,0.0,0.0,1.3,0.0,-2.5,0.0,0.0,0.0,1.3,0.0,-2.5,0.0,-0.05144321276505066,-0.01823753127740746,-0.3235500773173836,-0.004125058468570586
1776712955.430203,0.0,0.0,1.3,0.0,-2.5,0.0,0.0,0.0,1.3,0.0,-2.5,0.0,0.0,0.0,1.3,0.0,-2.5,0.0,0.0,0.0,1.3,0.0,-2.5,0.0,-0.05171636853365773,-0.022926759287078102,-0.32363808334776106,-0.012914242670706955
1776712955.4502919,0.0,0.0,1.3,0.0,-2.5,0.0,0.0,0.0,1.3,0.0,-2.5,0.0,0.0,0.0,1.3,0.0,-2.5,0.0,0.0,0.0,1.3,0.0,-2.5,0.0,-0.056413782810237845,-0.4959658792319268,-0.3217494833398109,0.19562459771310614
1776712955.4702,0.0,0.0,1.3,0.0,-2.5,0.0,0.0,0.0,1.3,0.0,-2.5,0.0,0.0,0.0,1.3,0.0,-2.5,0.0,0.0,0.0,1.3,0.0,-2.5,0.0,-0.057566487596047794,-0.2137865242431909,-0.31963700834073105,0.26897070989059024
1776712955.4902039,0.0,0.0,1.3,0.0,-2.5,0.0,0.0,0.0,1.3,0.0,-2.5,0.0,0.0,0.0,1.3,0.0,-2.5,0.0,0.0,0.0,1.3,0.0,-2.5,0.0,-0.05594027074228805,0.2353629762399123,-0.32015240040381787,-0.037610297739552934
1776712955.510201,0.0,0.0,1.3,0.0,-2.5,0.0,0.0,0.0,1.3,0.0,-2.5,0.0,0.0,0.0,1.3,0.0,-2.5,0.0,0.0,0.0,1.3,0.0,-2.5,0.0,-0.056170658513232254,0.07381038150954033,-0.3203588206150852,-0.0945021085441855
1776712955.5302002,0.0,0.0,1.3,0.0,-2.5,0.0,0.0,0.0,1.3,0.0,-2.5,0.0,0.0,0.0,1.3,0.0,-2.5,0.0,0.0,0.0,1.3,0.0,-2.5,0.0,-0.05683983775176671,-0.059743770389185435,-0.32029306550708125,-0.026838719996503002
1776712955.5503058,0.0,0.0,1.3,0.0,-2.5,0.0,0.0,0.0,1.3,0.0,-2.5,0.0,0.0,0.0,1.3,0.0,-2.5,0.0,0.0,0.0,1.3,0.0,-2.5,0.0,-0.05705946517556077,-0.04612048161356075,-0.32041494324070374,-0.027291206323102557
1776712955.570253,0.0,0.0,1.3,0.0,-2.5,0.0,0.0,0.0,1.3,0.0,-2.5,0.0,0.0,0.0,1.3,0.0,-2.5,0.0,0.0,0.0,1.3,0.0,-2.5,0.0,-0.056844711907917775,0.01964524115455113,-0.32008056365137616,0.03410096136801144
1776712955.59028,0.0,0.0,1.3,0.0,-2.5,0.0,0.0,0.0,1.3,0.0,-2.5,0.0,0.0,0.0,1.3,0.0,-2.5,0.0,0.0,0.0,1.3,0.0,-2.5,0.0,-0.056597551788590904,0.03430638948216336,-0.32006669082993267,0.0035001847426805455
1776712955.6102493,0.0,0.0,1.3,0.0,-2.5,0.0,0.0,0.0,1.3,0.0,-2.5,0.0,0.0,0.0,1.3,0.0,-2.5,0.0,0.0,0.0,1.3,0.0,-2.5,0.0,-0.05620444066875828,0.044168058902615215,-0.3201955567918614,-0.012456738758094943
1776712955.6301997,0.0,0.0,1.3,0.0,-2.5,0.0,0.0,0.0,1.3,0.0,-2.5,0.0,0.0,0.0,1.3,0.0,-2.5,0.0,0.0,0.0,1.3,0.0,-2.5,0.0,-0.056502346689150044,-0.027976166531959556,-0.32044987105503375,-0.030864266570842958
1776712955.6501997,0.0,0.0,1.3,0.0,-2.5,0.0,0.0,0.0,1.3,0.0,-2.5,0.0,0.0,0.0,1.3,0.0,-2.5,0.0,0.0,0.0,1.3,0.0,-2.5,0.0,-0.057022927783999304,-0.07790768490983568,-0.3204896787709013,-0.014418232211633963
1776712955.6702607,0.0,0.0,1.3,0.0,-2.5,0.0,0.0,0.0,1.3,0.0,-2.5,0.0,0.0,0.0,1.3,0.0,-2.5,0.0,0.0,0.0,1.3,0.0,-2.5,0.0,-0.05682486533146435,0.003600790646768104,-0.3200370078147019,0.05060354598084871
1776712955.690304,0.0,0.0,1.3,0.0,-2.5,0.0,0.0,0.0,1.3,0.0,-2.5,0.0,0.0,0.0,1.3,0.0,-2.5,0.0,0.0,0.0,1.3,0.0,-2.5,0.0,-0.05651769728311592,0.047313258548869364,-0.3200255476463798,0.007606873562867378
1776712955.7102077,0.0,0.0,1.3,0.0,-2.5,0.0,0.0,0.0,1.3,0.0,-2.5,0.0,0.0,0.0,1.3,0.0,-2.5,0.0,0.0,0.0,1.3,0.0,-2.5,0.0,-0.056162029724366305,0.04552419029140964,-0.3202855750387307,-0.03210582560518738
1776712955.7302034,0.0,0.0,1.3,0.0,-2.5,0.0,0.0,0.0,1.3,0.0,-2.5,0.0,0.0,0.0,1.3,0.0,-2.5,0.0,0.0,0.0,1.3,0.0,-2.5,0.0,-0.05632350116542407,-0.018579412082778246,-0.3202691307323212,-0.0035493878118515454
1776712955.7501776,0.0,0.0,1.3,0.0,-2.5,0.0,0.0,0.0,1.3,0.0,-2.5,0.0,0.0,0.0,1.3,0.0,-2.5,0.0,0.0,0.0,1.3,0.0,-2.5,0.0,-0.05717971172479943,-0.10926024191908068,-0.32033783642313585,-0.004365064579962663
1776712955.7702446,0.0,0.0,1.3,0.0,-2.5,0.0,0.0,0.0,1.3,0.0,-2.5,0.0,0.0,0.0,1.3,0.0,-2.5,0.0,0.0,0.0,1.3,0.0,-2.5,0.0,-0.05706178203337174,-0.007419008271091876,-0.3199185860977846,0.042711454236439295
1776712955.7902415,0.0,0.0,1.3,0.0,-2.5,0.0,0.0,0.0,1.3,0.0,-2.5,0.0,0.0,0.0,1.3,0.0,-2.5,0.0,0.0,0.0,1.3,0.0,-2.5,0.0,-0.05625679506247244,0.09988399716773033,-0.31990923782621017,0.0076528082417013366
1776712955.8102846,0.0,0.0,1.3,0.0,-2.5,0.0,0.0,0.0,1.3,0.0,-2.5,0.0,0.0,0.0,1.3,0.0,-2.5,0.0,0.0,0.0,1.3,0.0,-2.5,0.0,-0.05298361073182752,0.4248974662362621,-0.32268796325116367,-0.334258465379218
1776712955.8302004,0.0,0.0,1.3,0.0,-2.5,0.0,0.0,0.0,1.3,0.0,-2.5,0.0,0.0,0.0,1.3,0.0,-2.5,0.0,0.0,0.0,1.3,0.0,-2.5,0.0,-0.04993503983443606,0.3989407892039436,-0.32462156809173415,-0.27389743868391214
1776712955.850286,0.0,0.0,1.3,0.0,-2.5,0.0,0.0,0.0,1.3,0.0,-2.5,0.0,0.0,0.0,1.3,0.0,-2.5,0.0,0.0,0.0,1.3,0.0,-2.5,0.0,-0.051964268153268385,-0.19825499131214963,-0.323478835571943,0.11617148587408188
1776712955.8702543,0.0,0.0,1.3,0.0,-2.5,0.0,0.0,0.0,1.3,0.0,-2.5,0.0,0.0,0.0,1.3,0.0,-2.5,0.0,0.0,0.0,1.3,0.0,-2.5,0.0,-0.05673772184910196,-0.5858829871355373,-0.3220102238746837,0.19696976350308582
1776712955.8902826,0.0,0.0,1.3,0.0,-2.5,0.0,0.0,0.0,1.3,0.0,-2.5,0.0,0.0,0.0,1.3,0.0,-2.5,0.0,0.0,0.0,1.3,0.0,-2.5,0.0,-0.05793538072075974,-0.25913967689599593,-0.32097474927078834,0.15635716570142222
1776712955.9102774,0.0,0.0,1.3,0.0,-2.5,0.0,0.0,0.0,1.3,0.0,-2.5,0.0,0.0,0.0,1.3,0.0,-2.5,0.0,0.0,0.0,1.3,0.0,-2.5,0.0,-0.050582570686403455,0.9051886063326435,-0.3239659977193652,-0.35680313750147086
1776712955.9301994,0.0,0.0,1.3,0.0,-2.5,0.0,0.0,0.0,1.3,0.0,-2.5,0.0,0.0,0.0,1.3,0.0,-2.5,0.0,0.0,0.0,1.3,0.0,-2.5,0.0,-0.05047003834987348,0.2380532174901968,-0.3242831455618157,-0.12073763539425286
1776712955.9502056,0.0,0.0,1.3,0.0,-2.5,0.0,0.0,0.0,1.3,0.0,-2.5,0.0,0.0,0.0,1.3,0.0,-2.5,0.0,0.0,0.0,1.3,0.0,-2.5,0.0,-0.05207405447616139,-0.24372345014457508,-0.32336472947674877,0.12218821018940496
1776712955.9702828,0.0,0.0,1.3,0.0,-2.5,0.0,0.0,0.0,1.3,0.0,-2.5,0.0,0.0,0.0,1.3,0.0,-2.5,0.0,0.0,0.0,1.3,0.0,-2.5,0.0,-0.051885380209324386,-0.03641442408125006,-0.32357445930831635,0.009223802563292693
1776712955.9902008,0.0,0.0,1.3,0.0,-2.5,0.0,0.0,0.0,1.3,0.0,-2.5,0.0,0.0,0.0,1.3,0.0,-2.5,0.0,0.0,0.0,1.3,0.0,-2.5,0.0,-0.05140295031984658,0.03994209737409138,-0.32363668449201616,-0.005757477348286244
1776712956.010216,0.0,0.0,1.3,0.0,-2.5,0.0,0.0,0.0,1.3,0.0,-2.5,0.0,0.0,0.0,1.3,0.0,-2.5,0.0,0.0,0.0,1.3,0.0,-2.5,0.0,-0.0512836782267139,0.02015298567855983,-0.3236342906757851,-0.005775352538016421
1776712956.0302052,0.0,0.0,1.3,0.0,-2.5,0.0,0.0,0.0,1.3,0.0,-2.5,0.0,0.0,0.0,1.3,0.0,-2.5,0.0,0.0,0.0,1.3,0.0,-2.5,0.0,-0.0518924793722301,-0.06776993904967865,-0.3236714264841767,-0.004964994063902495
1776712956.050295,0.0,0.0,1.3,0.0,-2.5,0.0,0.0,0.0,1.3,0.0,-2.5,0.0,0.0,0.0,1.3,0.0,-2.5,0.0,0.0,0.0,1.3,0.0,-2.5,0.0,-0.051314282132630076,0.05530676272896251,-0.3235448516354019,0.009304569427014187
1776712956.070288,0.0,0.0,1.3,0.0,-2.5,0.0,0.0,0.0,1.3,0.0,-2.5,0.0,0.0,0.0,1.3,0.0,-2.5,0.0,0.0,0.0,1.3,0.0,-2.5,0.0,-0.05154905842116519,-0.007207379220419252,-0.32344582647027786,0.01624095025511707
1776712956.0902896,0.0,0.0,1.3,0.0,-2.5,0.0,0.0,0.0,1.3,0.0,-2.5,0.0,0.0,0.0,1.3,0.0,-2.5,0.0,0.0,0.0,1.3,0.0,-2.5,0.0,-0.052067578783393936,-0.060751655239825064,-0.3237828044093237,-0.03193145996732838
1776712956.1102526,0.0,0.0,1.3,0.0,-2.5,0.0,0.0,0.0,1.3,0.0,-2.5,0.0,0.0,0.0,1.3,0.0,-2.5,0.0,0.0,0.0,1.3,0.0,-2.5,0.0,-0.05119901124298357,0.08271799346095587,-0.3236604223348983,0.008624609704822817
1776712956.130207,0.0,0.0,1.3,0.0,-2.5,0.0,0.0,0.0,1.3,0.0,-2.5,0.0,0.0,0.0,1.3,0.0,-2.5,0.0,0.0,0.0,1.3,0.0,-2.5,0.0,-0.051373590648552646,-0.0002087204459155778,-0.3234497518162305,0.02687133085222193
1776712956.150201,0.0,0.0,1.3,0.0,-2.5,0.0,0.0,0.0,1.3,0.0,-2.5,0.0,0.0,0.0,1.3,0.0,-2.5,0.0,0.0,0.0,1.3,0.0,-2.5,0.0,-0.051651159965327015,-0.04738837210170965,-0.323592539250008,-0.007531738924182463
1776712956.1702,0.0,0.0,1.3,0.0,-2.5,0.0,0.0,0.0,1.3,0.0,-2.5,0.0,0.0,0.0,1.3,0.0,-2.5,0.0,0.0,0.0,1.3,0.0,-2.5,0.0,-0.05148057524148779,0.007834197797214504,-0.32360206031152117,-0.004860427530806177
1776712956.1902952,0.0,0.0,1.3,0.0,-2.5,0.0,0.0,0.0,1.3,0.0,-2.5,0.0,0.0,0.0,1.3,0.0,-2.5,0.0,0.0,0.0,1.3,0.0,-2.5,0.0,-0.05250379028732076,-0.11524976200730697,-0.3237094811321998,-0.007647228374155546
1776712956.2102525,0.0,0.0,1.3,0.0,-2.5,0.0,0.0,0.0,1.3,0.0,-2.5,0.0,0.0,0.0,1.3,0.0,-2.5,0.0,0.0,0.0,1.3,0.0,-2.5,0.0,-0.05697911344443511,-0.43521867363720323,-0.3214585712608704,0.2128238370838318
1776712956.2301903,0.0,0.0,1.3,0.0,-2.5,0.0,0.0,0.0,1.3,0.0,-2.5,0.0,0.0,0.0,1.3,0.0,-2.5,0.0,0.0,0.0,1.3,0.0,-2.5,0.0,-0.05034038034784638,0.6604124806004681,-0.32364612736681336,-0.19174843341899006
1776712956.2502096,0.0,0.0,1.3,0.0,-2.5,0.0,0.0,0.0,1.3,0.0,-2.5,0.0,0.0,0.0,1.3,0.0,-2.5,0.0,0.0,0.0,1.3,0.0,-2.5,0.0,-0.04987796402740276,0.3820767058563532,-0.3241900863820393,-0.18335714358859256
1776712956.270287,0.0,0.0,1.3,0.0,-2.5,0.0,0.0,0.0,1.3,0.0,-2.5,0.0,0.0,0.0,1.3,0.0,-2.5,0.0,0.0,0.0,1.3,0.0,-2.5,0.0,-0.0523420335633919,-0.27268811906994816,-0.3233574966040811,0.07813800410475302
1776712956.2902882,0.0,0.0,1.3,0.0,-2.5,0.0,0.0,0.0,1.3,0.0,-2.5,0.0,0.0,0.0,1.3,0.0,-2.5,0.0,0.0,0.0,1.3,0.0,-2.5,0.0,-0.05194702360653533,-0.031391891519196635,-0.32369587681067,-0.005706519919328912
1776712956.3102477,0.0,0.0,1.3,0.0,-2.5,0.0,0.0,0.0,1.3,0.0,-2.5,0.0,0.0,0.0,1.3,0.0,-2.5,0.0,0.0,0.0,1.3,0.0,-2.5,0.0,-0.05836378099833181,-0.6209058669069927,-0.31920838431800785,0.454944350236703
1776712956.3302486,0.0,0.0,1.3,0.0,-2.5,0.0,0.0,0.0,1.3,0.0,-2.5,0.0,0.0,0.0,1.3,0.0,-2.5,0.0,0.0,0.0,1.3,0.0,-2.5,0.0,-0.05631419351071719,0.11395534996905776,-0.3198791677743028,0.01287968446469634
1776712956.3502731,0.0,0.0,1.3,0.0,-2.5,0.0,0.0,0.0,1.3,0.0,-2.5,0.0,0.0,0.0,1.3,0.0,-2.5,0.0,0.0,0.0,1.3,0.0,-2.5,0.0,-0.055370091239460156,0.2891622753857961,-0.32093549747231764,-0.22314804524119225
1776712956.3702428,0.0,0.0,1.3,0.0,-2.5,0.0,0.0,0.0,1.3,0.0,-2.5,0.0,0.0,0.0,1.3,0.0,-2.5,0.0,0.0,0.0,1.3,0.0,-2.5,0.0,-0.056789888860481696,-0.0663699367037558,-0.3201517104518855,0.016265728756030384
1776712956.3902345,0.0,0.0,1.3,0.0,-2.5,0.0,0.0,0.0,1.3,0.0,-2.5,0.0,0.0,0.0,1.3,0.0,-2.5,0.0,0.0,0.0,1.3,0.0,-2.5,0.0,-0.05686931382315401,-0.020156351027567077,-0.3203197177847957,-0.01410335437882182
1776712956.4103005,0.0,0.0,1.3,0.0,-2.5,0.0,0.0,0.0,1.3,0.0,-2.5,0.0,0.0,0.0,1.3,0.0,-2.5,0.0,0.0,0.0,1.3,0.0,-2.5,0.0,-0.05717810358767281,-0.03541668079428151,-0.3201822272117544,0.014936467753832616
1776712956.430204,0.0,0.0,1.3,0.0,-2.5,0.0,0.0,0.0,1.3,0.0,-2.5,0.0,0.0,0.0,1.3,0.0,-2.5,0.0,0.0,0.0,1.3,0.0,-2.5,0.0,-0.05596492492998318,0.12944376500341548,-0.3200923717807386,0.01186187425693852
1776712956.4502087,0.0,0.0,1.3,0.0,-2.5,0.0,0.0,0.0,1.3,0.0,-2.5,0.0,0.0,0.0,1.3,0.0,-2.5,0.0,0.0,0.0,1.3,0.0,-2.5,0.0,-0.05609372629460873,0.02190991559941713,-0.3201342141487896,-0.00980261694472162
1776712956.4702005,0.0,0.0,1.3,0.0,-2.5,0.0,0.0,0.0,1.3,0.0,-2.5,0.0,0.0,0.0,1.3,0.0,-2.5,0.0,0.0,0.0,1.3,0.0,-2.5,0.0,-0.05718162106119676,-0.13490193138949236,-0.3203149895097773,-0.021448997976968087
1776712956.49025,0.0,0.0,1.3,0.0,-2.5,0.0,0.0,0.0,1.3,0.0,-2.5,0.0,0.0,0.0,1.3,0.0,-2.5,0.0,0.0,0.0,1.3,0.0,-2.5,0.0,-0.056752511557218485,0.020699783253074866,-0.3204220341405202,-0.01420607991892453
1776712956.5102067,0.0,0.0,1.3,0.0,-2.5,0.0,0.0,0.0,1.3,0.0,-2.5,0.0,0.0,0.0,1.3,0.0,-2.5,0.0,0.0,0.0,1.3,0.0,-2.5,0.0,-0.05651523432413799,0.038972628270570464,-0.3201899200613137,0.02199542370293095
1776712956.5302012,0.0,0.0,1.3,0.0,-2.5,0.0,0.0,0.0,1.3,0.0,-2.5,0.0,0.0,0.0,1.3,0.0,-2.5,0.0,0.0,0.0,1.3,0.0,-2.5,0.0,-0.05654657841104671,0.004881324390343167,-0.3198982581235935,0.044163859347122525
1776712956.5502052,0.0,0.0,1.3,0.0,-2.5,0.0,0.0,0.0,1.3,0.0,-2.5,0.0,0.0,0.0,1.3,0.0,-2.5,0.0,0.0,0.0,1.3,0.0,-2.5,0.0,-0.056138490104626786,0.04911066738173142,-0.32023828315982267,-0.027363550901316813
1776712956.5702453,0.0,0.0,1.3,0.0,-2.5,0.0,0.0,0.0,1.3,0.0,-2.5,0.0,0.0,0.0,1.3,0.0,-2.5,0.0,0.0,0.0,1.3,0.0,-2.5,0.0,-0.05687379994645378,-0.07617947573863271,-0.32045080608589704,-0.03468881380736022
1776712956.590202,0.0,0.0,1.3,0.0,-2.5,0.0,0.0,0.0,1.3,0.0,-2.5,0.0,0.0,0.0,1.3,0.0,-2.5,0.0,0.0,0.0,1.3,0.0,-2.5,0.0,-0.05661169377666184,0.01072287805823624,-0.3202568852205769,0.0198519131919781
1776712956.6102898,0.0,0.0,1.3,0.0,-2.5,0.0,0.0,0.0,1.3,0.0,-2.5,0.0,0.0,0.0,1.3,0.0,-2.5,0.0,0.0,0.0,1.3,0.0,-2.5,0.0,-0.056398363171613196,0.031821340782548724,-0.320004959947664,0.03876370065843204
1776712956.6302052,0.0,0.0,1.3,0.0,-2.5,0.0,0.0,0.0,1.3,0.0,-2.5,0.0,0.0,0.0,1.3,0.0,-2.5,0.0,0.0,0.0,1.3,0.0,-2.5,0.0,-0.056979405358573924,-0.05647277512093707,-0.3200807544984071,-0.0010306949262179899
1776712956.6502223,0.0,0.0,1.3,0.0,-2.5,0.0,0.0,0.0,1.3,0.0,-2.5,0.0,0.0,0.0,1.3,0.0,-2.5,0.0,0.0,0.0,1.3,0.0,-2.5,0.0,-0.05652830645939165,0.0332545534963824,-0.3202057595808195,-0.016879717910667225
1776712956.670248,0.0,0.0,1.3,0.0,-2.5,0.0,0.0,0.0,1.3,0.0,-2.5,0.0,0.0,0.0,1.3,0.0,-2.5,0.0,0.0,0.0,1.3,0.0,-2.5,0.0,-0.0550415408261415,0.19847353854574523,-0.321217692956716,-0.13148496995028403
1776712956.690254,0.0,0.0,1.3,0.0,-2.5,0.0,0.0,0.0,1.3,0.0,-2.5,0.0,0.0,0.0,1.3,0.0,-2.5,0.0,0.0,0.0,1.3,0.0,-2.5,0.0,-0.05008966684592898,0.4997840897870591,-0.32467527404959207,-0.3499127687183865
1776712956.7102969,0.0,0.0,1.3,0.0,-2.5,0.0,0.0,0.0,1.3,0.0,-2.5,0.0,0.0,0.0,1.3,0.0,-2.5,0.0,0.0,0.0,1.3,0.0,-2.5,0.0,-0.0513309295706838,-0.09930458054866387,-0.32358121940104256,0.09729467707773942
1776712956.7302127,0.0,0.0,1.3,0.0,-2.5,0.0,0.0,0.0,1.3,0.0,-2.5,0.0,0.0,0.0,1.3,0.0,-2.5,0.0,0.0,0.0,1.3,0.0,-2.5,0.0,-0.05423712560055237,-0.3688303221608087,-0.32285798706429714,0.10951936299259835
1776712956.7502632,0.0,0.0,1.3,0.0,-2.5,0.0,0.0,0.0,1.3,0.0,-2.5,0.0,0.0,0.0,1.3,0.0,-2.5,0.0,0.0,0.0,1.3,0.0,-2.5,0.0,-0.05860822397103567,-0.6192520376200772,-0.31907779916969586,0.4413847092254919
1776712956.7702906,0.0,0.0,1.3,0.0,-2.5,0.0,0.0,0.0,1.3,0.0,-2.5,0.0,0.0,0.0,1.3,0.0,-2.5,0.0,0.0,0.0,1.3,0.0,-2.5,0.0,-0.0500636178921257,0.8367669127969348,-0.32396387415885874,-0.44247441046245584
1776712956.7902532,0.0,0.0,1.3,0.0,-2.5,0.0,0.0,0.0,1.3,0.0,-2.5,0.0,0.0,0.0,1.3,0.0,-2.5,0.0,0.0,0.0,1.3,0.0,-2.5,0.0,-0.05034188952841641,0.19069899852061267,-0.3245532138736389,-0.22058541990918457
1776712956.81026,0.0,0.0,1.3,0.0,-2.5,0.0,0.0,0.0,1.3,0.0,-2.5,0.0,0.0,0.0,1.3,0.0,-2.5,0.0,0.0,0.0,1.3,0.0,-2.5,0.0,-0.05276314168488111,-0.33664538385944276,-0.3231838455210301,0.1600455507415237
1776712956.8302054,0.0,0.0,1.3,0.0,-2.5,0.0,0.0,0.0,1.3,0.0,-2.5,0.0,0.0,0.0,1.3,0.0,-2.5,0.0,0.0,0.0,1.3,0.0,-2.5,0.0,-0.05224280501702311,-0.06945341409870309,-0.323744922787529,0.007941420227854934
1776712956.8502188,0.0,0.0,1.3,0.0,-2.5,0.0,0.0,0.0,1.3,0.0,-2.5,0.0,0.0,0.0,1.3,0.0,-2.5,0.0,0.0,0.0,1.3,0.0,-2.5,0.0,-0.05754747841248277,-0.5870018838351747,-0.3198820085911138,0.4298693573858312
1776712956.8702254,0.0,0.0,1.3,0.0,-2.5,0.0,0.0,0.0,1.3,0.0,-2.5,0.0,0.0,0.0,1.3,0.0,-2.5,0.0,0.0,0.0,1.3,0.0,-2.5,0.0,-0.05656366370806089,-0.016243957099977058,-0.31960188492111485,0.13008783846532346
1776712956.8902576,0.0,0.0,1.3,0.0,-2.5,0.0,0.0,0.0,1.3,0.0,-2.5,0.0,0.0,0.0,1.3,0.0,-2.5,0.0,0.0,0.0,1.3,0.0,-2.5,0.0,-0.0557962380032779,0.17550655048061792,-0.3209679187473467,-0.21483379833583882
1776712956.9102068,0.0,0.0,1.3,0.0,-2.5,0.0,0.0,0.0,1.3,0.0,-2.5,0.0,0.0,0.0,1.3,0.0,-2.5,0.0,0.0,0.0,1.3,0.0,-2.5,0.0,-0.05735534453545042,-0.09460423867625023,-0.32048175343426094,-0.015644669323984672
1776712956.9302115,0.0,0.0,1.3,0.0,-2.5,0.0,0.0,0.0,1.3,0.0,-2.5,0.0,0.0,0.0,1.3,0.0,-2.5,0.0,0.0,0.0,1.3,0.0,-2.5,0.0,-0.056599027989235245,0.0757476384014466,-0.31986687181084295,0.06148264831538519
1776712956.9501715,0.0,0.0,1.3,0.0,-2.5,0.0,0.0,0.0,1.3,0.0,-2.5,0.0,0.0,0.0,1.3,0.0,-2.5,0.0,0.0,0.0,1.3,0.0,-2.5,0.0,-0.05649359303145175,0.04737524721336972,-0.32020371178202767,-0.019386168851179164
1776712956.9702024,0.0,0.0,1.3,0.0,-2.5,0.0,0.0,0.0,1.3,0.0,-2.5,0.0,0.0,0.0,1.3,0.0,-2.5,0.0,0.0,0.0,1.3,0.0,-2.5,0.0,-0.05630446316280201,0.030279814360989477,-0.3203329600414856,-0.02490902022148056
1776712956.990215,0.0,0.0,1.3,0.0,-2.5,0.0,0.0,0.0,1.3,0.0,-2.5,0.0,0.0,0.0,1.3,0.0,-2.5,0.0,0.0,0.0,1.3,0.0,-2.5,0.0,-0.056445815065097625,-0.01482711952826321,-0.3202742454775549,0.003535057619668436
1776712957.0102801,0.0,0.0,1.3,0.0,-2.5,0.0,0.0,0.0,1.3,0.0,-2.5,0.0,0.0,0.0,1.3,0.0,-2.5,0.0,0.0,0.0,1.3,0.0,-2.5,0.0,-0.05723338353832398,-0.08848296530235622,-0.32014398608704353,0.013303267908469252
1776712957.0302012,0.0,0.0,1.3,0.0,-2.5,0.0,0.0,0.0,1.3,0.0,-2.5,0.0,0.0,0.0,1.3,0.0,-2.5,0.0,0.0,0.0,1.3,0.0,-2.5,0.0,-0.05659057526097624,0.05507207737131514,-0.320264678108944,-0.008654858806215415
1776712957.0502121,0.0,0.0,1.3,0.0,-2.5,0.0,0.0,0.0,1.3,0.0,-2.5,0.0,0.0,0.0,1.3,0.0,-2.5,0.0,0.0,0.0,1.3,0.0,-2.5,0.0,-0.05639680208750668,0.054349168225813926,-0.32029893371753004,-0.01198269377288419
1776712957.0702424,0.0,0.0,1.3,0.0,-2.5,0.0,0.0,0.0,1.3,0.0,-2.5,0.0,0.0,0.0,1.3,0.0,-2.5,0.0,0.0,0.0,1.3,0.0,-2.5,0.0,-0.05678786117911079,-0.034311924481556844,-0.3201557542791311,0.01179402173220545
1776712957.0902188,0.0,0.0,1.3,0.0,-2.5,0.0,0.0,0.0,1.3,0.0,-2.5,0.0,0.0,0.0,1.3,0.0,-2.5,0.0,0.0,0.0,1.3,0.0,-2.5,0.0,-0.056462833039802277,0.019595384977317387,-0.32020417741346674,-0.003864907773611037
1776712957.1102035,0.0,0.0,1.3,0.0,-2.5,0.0,0.0,0.0,1.3,0.0,-2.5,0.0,0.0,0.0,1.3,0.0,-2.5,0.0,0.0,0.0,1.3,0.0,-2.5,0.0,-0.0566286193515604,-0.014093837157702183,-0.3202283150750267,-0.004889120094571098
1776712957.1302044,0.0,0.0,1.3,0.0,-2.5,0.0,0.0,0.0,1.3,0.0,-2.5,0.0,0.0,0.0,1.3,0.0,-2.5,0.0,0.0,0.0,1.3,0.0,-2.5,0.0,-0.05672894808040267,-0.009988813750606118,-0.32018882350837197,0.007137096341885751
1776712957.1502607,0.0,0.0,1.3,0.0,-2.5,0.0,0.0,0.0,1.3,0.0,-2.5,0.0,0.0,0.0,1.3,0.0,-2.5,0.0,0.0,0.0,1.3,0.0,-2.5,0.0,-0.05649469869176746,0.029327846552931858,-0.32018025476595635,0.004262320881519344
1776712957.1702247,0.0,0.0,1.3,0.0,-2.5,0.0,0.0,0.0,1.3,0.0,-2.5,0.0,0.0,0.0,1.3,0.0,-2.5,0.0,0.0,0.0,1.3,0.0,-2.5,0.0,-0.056760096163212724,-0.02053949450503545,-0.32007441223902455,0.010123506092492462
1776712957.1902237,0.0,0.0,1.3,0.0,-2.5,0.0,0.0,0.0,1.3,0.0,-2.5,0.0,0.0,0.0,1.3,0.0,-2.5,0.0,0.0,0.0,1.3,0.0,-2.5,0.0,-0.05630805129746265,0.04299457408139373,-0.32013633541242603,-0.0039223446196228196
1776712957.2102213,0.0,0.0,1.3,0.0,-2.5,0.0,0.0,0.0,1.3,0.0,-2.5,0.0,0.0,0.0,1.3,0.0,-2.5,0.0,0.0,0.0,1.3,0.0,-2.5,0.0,-0.05633276264408214,0.005538938234581181,-0.32034171447711357,-0.02295556024908052
1776712957.230191,0.0,0.0,1.3,0.0,-2.5,0.0,0.0,0.0,1.3,0.0,-2.5,0.0,0.0,0.0,1.3,0.0,-2.5,0.0,0.0,0.0,1.3,0.0,-2.5,0.0,-0.056899817341551494,-0.06787372141601278,-0.3203813606599657,-0.00782291141710445
1776712957.250234,0.0,0.0,1.3,0.0,-2.5,0.0,0.0,0.0,1.3,0.0,-2.5,0.0,0.0,0.0,1.3,0.0,-2.5,0.0,0.0,0.0,1.3,0.0,-2.5,0.0,-0.057103919311938804,-0.04356297499581685,-0.32016994124753967,0.023458507330641254
1776712957.2702155,0.0,0.0,1.3,0.0,-2.5,0.0,0.0,0.0,1.3,0.0,-2.5,0.0,0.0,0.0,1.3,0.0,-2.5,0.0,0.0,0.0,1.3,0.0,-2.5,0.0,-0.056706127397968764,0.04180099643854307,-0.3200463455509913,0.018170391362515304
1776712957.2901974,0.0,0.0,1.3,0.0,-2.5,0.0,0.0,0.0,1.3,0.0,-2.5,0.0,0.0,0.0,1.3,0.0,-2.5,0.0,0.0,0.0,1.3,0.0,-2.5,0.0,-0.056279984444787726,0.05929619169708822,-0.32030124359829504,-0.02760098211515505
1776712957.3102348,0.0,0.0,1.3,0.0,-2.5,0.0,0.0,0.0,1.3,0.0,-2.5,0.0,0.0,0.0,1.3,0.0,-2.5,0.0,0.0,0.0,1.3,0.0,-2.5,0.0,-0.056068383754985816,0.024350677927212683,-0.320371667403062,-0.013770182160511624
1776712957.330279,0.0,0.0,1.3,0.0,-2.5,0.0,0.0,0.0,1.3,0.0,-2.5,0.0,0.0,0.0,1.3,0.0,-2.5,0.0,0.0,0.0,1.3,0.0,-2.5,0.0,-0.05685933688825934,-0.09060630162235972,-0.3203464441981383,0.000414045619431036
1776712957.3502502,0.0,0.0,1.3,0.0,-2.5,0.0,0.0,0.0,1.3,0.0,-2.5,0.0,0.0,0.0,1.3,0.0,-2.5,0.0,0.0,0.0,1.3,0.0,-2.5,0.0,-0.05733807638089552,-0.08941421932176774,-0.3200475176684564,0.03749303172987695
1776712957.3702924,0.0,0.0,1.3,0.0,-2.5,0.0,0.0,0.0,1.3,0.0,-2.5,0.0,0.0,0.0,1.3,0.0,-2.5,0.0,0.0,0.0,1.3,0.0,-2.5,0.0,-0.05655716325230592,0.07642788710345805,-0.3200608241416302,0.0068541405508462105
1776712957.3902035,0.0,0.0,1.3,0.0,-2.5,0.0,0.0,0.0,1.3,0.0,-2.5,0.0,0.0,0.0,1.3,0.0,-2.5,0.0,0.0,0.0,1.3,0.0,-2.5,0.0,-0.05442287896276499,0.2870069209476933,-0.32160527614940093,-0.20448512671010022
1776712957.4104269,0.0,0.0,1.3,0.0,-2.5,0.0,0.0,0.0,1.3,0.0,-2.5,0.0,0.0,0.0,1.3,0.0,-2.5,0.0,0.0,0.0,1.3,0.0,-2.5,0.0,-0.04998238739804791,0.46053818638332644,-0.32469626364386417,-0.3362633297791948
1776712957.4302926,0.0,0.0,1.3,0.0,-2.5,0.0,0.0,0.0,1.3,0.0,-2.5,0.0,0.0,0.0,1.3,0.0,-2.5,0.0,0.0,0.0,1.3,0.0,-2.5,0.0,-0.0518570456857693,-0.16133514082621225,-0.32351335464426234,0.10696463468802087
1776712957.4503758,0.0,0.0,1.3,0.0,-2.5,0.0,0.0,0.0,1.3,0.0,-2.5,0.0,0.0,0.0,1.3,0.0,-2.5,0.0,0.0,0.0,1.3,0.0,-2.5,0.0,-0.05239744778579533,-0.17032749105957024,-0.323376259964816,0.08679763778783212
1776712957.4702487,0.0,0.0,1.3,0.0,-2.5,0.0,0.0,0.0,1.3,0.0,-2.5,0.0,0.0,0.0,1.3,0.0,-2.5,0.0,0.0,0.0,1.3,0.0,-2.5,0.0,-0.05129638905968708,0.0618127440919527,-0.3236513424686964,0.0029401312047561134
1776712957.490243,0.0,0.0,1.3,0.0,-2.5,0.0,0.0,0.0,1.3,0.0,-2.5,0.0,0.0,0.0,1.3,0.0,-2.5,0.0,0.0,0.0,1.3,0.0,-2.5,0.0,-0.051113692421634466,0.02839229764303175,-0.32352604208636176,0.014253971092680118
1776712957.5102077,0.0,0.0,1.3,0.0,-2.5,0.0,0.0,0.0,1.3,0.0,-2.5,0.0,0.0,0.0,1.3,0.0,-2.5,0.0,0.0,0.0,1.3,0.0,-2.5,0.0,-0.05166485319715488,-0.06670535003834188,-0.32350500576436714,0.00605741979800456
1776712957.5302165,0.0,0.0,1.3,0.0,-2.5,0.0,0.0,0.0,1.3,0.0,-2.5,0.0,0.0,0.0,1.3,0.0,-2.5,0.0,0.0,0.0,1.3,0.0,-2.5,0.0,-0.05180450812282435,-0.027667122858050064,-0.32369679454713174,-0.025561547102192606
1776712957.5501935,0.0,0.0,1.3,0.0,-2.5,0.0,0.0,0.0,1.3,0.0,-2.5,0.0,0.0,0.0,1.3,0.0,-2.5,0.0,0.0,0.0,1.3,0.0,-2.5,0.0,-0.05133472191696695,0.04963153046350399,-0.3238076119713089,-0.022257317609998495
1776712957.5702035,0.0,0.0,1.3,0.0,-2.5,0.0,0.0,0.0,1.3,0.0,-2.5,0.0,0.0,0.0,1.3,0.0,-2.5,0.0,0.0,0.0,1.3,0.0,-2.5,0.0,-0.051538682056628524,-0.007906746492846839,-0.32375226135427515,0.0005943381987041363
1776712957.5902848,0.0,0.0,1.3,0.0,-2.5,0.0,0.0,0.0,1.3,0.0,-2.5,0.0,0.0,0.0,1.3,0.0,-2.5,0.0,0.0,0.0,1.3,0.0,-2.5,0.0,-0.05165690389300394,-0.014352714280695844,-0.32353409978606806,0.023832165796417115
1776712957.6102097,0.0,0.0,1.3,0.0,-2.5,0.0,0.0,0.0,1.3,0.0,-2.5,0.0,0.0,0.0,1.3,0.0,-2.5,0.0,0.0,0.0,1.3,0.0,-2.5,0.0,-0.051681876143240324,-0.010497437939450016,-0.3235603363338222,0.0018644658295610128
1776712957.630563,0.0,0.0,1.3,0.0,-2.5,0.0,0.0,0.0,1.3,0.0,-2.5,0.0,0.0,0.0,1.3,0.0,-2.5,0.0,0.0,0.0,1.3,0.0,-2.5,0.0,-0.05150792263857716,0.017044017680052148,-0.32379081094702566,-0.029537215276402407
1776712957.6504462,0.0,0.0,1.3,0.0,-2.5,0.0,0.0,0.0,1.3,0.0,-2.5,0.0,0.0,0.0,1.3,0.0,-2.5,0.0,0.0,0.0,1.3,0.0,-2.5,0.0,-0.051285483874955635,0.019928611434687493,-0.3238105152114811,-0.009935523902260712
1776712957.670202,0.0,0.0,1.3,0.0,-2.5,0.0,0.0,0.0,1.3,0.0,-2.5,0.0,0.0,0.0,1.3,0.0,-2.5,0.0,0.0,0.0,1.3,0.0,-2.5,0.0,-0.051796522746335595,-0.05776814294003518,-0.32362322434056234,0.02231276304121721
1776712957.6902614,0.0,0.0,1.3,0.0,-2.5,0.0,0.0,0.0,1.3,0.0,-2.5,0.0,0.0,0.0,1.3,0.0,-2.5,0.0,0.0,0.0,1.3,0.0,-2.5,0.0,-0.05192973182694777,-0.02033479632872548,-0.3234735039376547,0.02294977313728097
1776712957.7102041,0.0,0.0,1.3,0.0,-2.5,0.0,0.0,0.0,1.3,0.0,-2.5,0.0,0.0,0.0,1.3,0.0,-2.5,0.0,0.0,0.0,1.3,0.0,-2.5,0.0,-0.05140181240744941,0.054291174992798785,-0.32358443048649416,-0.012606508305340824
1776712957.7302408,0.0,0.0,1.3,0.0,-2.5,0.0,0.0,0.0,1.3,0.0,-2.5,0.0,0.0,0.0,1.3,0.0,-2.5,0.0,0.0,0.0,1.3,0.0,-2.5,0.0,-0.0512439390938033,0.026312699652795146,-0.32376731622057253,-0.02339540813004959
1776712957.7502706,0.0,0.0,1.3,0.0,-2.5,0.0,0.0,0.0,1.3,0.0,-2.5,0.0,0.0,0.0,1.3,0.0,-2.5,0.0,0.0,0.0,1.3,0.0,-2.5,0.0,-0.05141225699991403,-0.0165603458271244,-0.32380355919704623,-0.01169269370953252
1776712957.7702494,0.0,0.0,1.3,0.0,-2.5,0.0,0.0,0.0,1.3,0.0,-2.5,0.0,0.0,0.0,1.3,0.0,-2.5,0.0,0.0,0.0,1.3,0.0,-2.5,0.0,-0.051910798789737894,-0.06642381179044587,-0.32357776704627916,0.02852776092149867
1776712957.7902792,0.0,0.0,1.3,0.0,-2.5,0.0,0.0,0.0,1.3,0.0,-2.5,0.0,0.0,0.0,1.3,0.0,-2.5,0.0,0.0,0.0,1.3,0.0,-2.5,0.0,-0.05190421898800661,-0.008579772879832914,-0.323609379966377,0.0022753460789655122
1776712957.8102674,0.0,0.0,1.3,0.0,-2.5,0.0,0.0,0.0,1.3,0.0,-2.5,0.0,0.0,0.0,1.3,0.0,-2.5,0.0,0.0,0.0,1.3,0.0,-2.5,0.0,-0.0511779356829403,0.08799694956779636,-0.32362998004271837,-0.00523585045992192
1776712957.8302016,0.0,0.0,1.3,0.0,-2.5,0.0,0.0,0.0,1.3,0.0,-2.5,0.0,0.0,0.0,1.3,0.0,-2.5,0.0,0.0,0.0,1.3,0.0,-2.5,0.0,-0.05124527212839619,0.008524894474677636,-0.3236756901115091,-0.006836605761010972
1776712957.8502755,0.0,0.0,1.3,0.0,-2.5,0.0,0.0,0.0,1.3,0.0,-2.5,0.0,0.0,0.0,1.3,0.0,-2.5,0.0,0.0,0.0,1.3,0.0,-2.5,0.0,-0.05158179355072656,-0.049579989254721735,-0.32376825792538144,-0.016036016869644953
1776712957.8702054,0.0,0.0,1.3,0.0,-2.5,0.0,0.0,0.0,1.3,0.0,-2.5,0.0,0.0,0.0,1.3,0.0,-2.5,0.0,0.0,0.0,1.3,0.0,-2.5,0.0,-0.05180271528794472,-0.03441387559329856,-0.3234526296714483,0.03194842040835333
1776712957.8902795,0.0,0.0,1.3,0.0,-2.5,0.0,0.0,0.0,1.3,0.0,-2.5,0.0,0.0,0.0,1.3,0.0,-2.5,0.0,0.0,0.0,1.3,0.0,-2.5,0.0,-0.051969617608757714,-0.015611555826605894,-0.32359631343916706,-0.011687688911521832
1776712957.910212,0.0,0.0,1.3,0.0,-2.5,0.0,0.0,0.0,1.3,0.0,-2.5,0.0,0.0,0.0,1.3,0.0,-2.5,0.0,0.0,0.0,1.3,0.0,-2.5,0.0,-0.05107651372704832,0.09660189003903485,-0.3237378160775196,-0.023515791460793523
1776712957.9302251,0.0,0.0,1.3,0.0,-2.5,0.0,0.0,0.0,1.3,0.0,-2.5,0.0,0.0,0.0,1.3,0.0,-2.5,0.0,0.0,0.0,1.3,0.0,-2.5,0.0,-0.051132371418949996,0.011671056421570514,-0.3234721615533097,0.025106362402985027
1776712957.9502048,0.0,0.0,1.3,0.0,-2.5,0.0,0.0,0.0,1.3,0.0,-2.5,0.0,0.0,0.0,1.3,0.0,-2.5,0.0,0.0,0.0,1.3,0.0,-2.5,0.0,-0.051732113059985464,-0.08043406100782668,-0.3234966660350074,0.004683577372848191
1776712957.9702072,0.0,0.0,1.3,0.0,-2.5,0.0,0.0,0.0,1.3,0.0,-2.5,0.0,0.0,0.0,1.3,0.0,-2.5,0.0,0.0,0.0,1.3,0.0,-2.5,0.0,-0.05189391724179284,-0.033295645321216316,-0.3236182936120494,-0.015813142203713326
1776712957.9902601,0.0,0.0,1.3,0.0,-2.5,0.0,0.0,0.0,1.3,0.0,-2.5,0.0,0.0,0.0,1.3,0.0,-2.5,0.0,0.0,0.0,1.3,0.0,-2.5,0.0,-0.05167028078862278,0.02534459547519674,-0.3236765835063609,-0.010646835005584165
1776712958.0102005,0.0,0.0,1.3,0.0,-2.5,0.0,0.0,0.0,1.3,0.0,-2.5,0.0,0.0,0.0,1.3,0.0,-2.5,0.0,0.0,0.0,1.3,0.0,-2.5,0.0,-0.051243005407509326,0.06224034169183845,-0.3236789187789346,0.004559605266541311
1776712958.030201,0.0,0.0,1.3,0.0,-2.5,0.0,0.0,0.0,1.3,0.0,-2.5,0.0,0.0,0.0,1.3,0.0,-2.5,0.0,0.0,0.0,1.3,0.0,-2.5,0.0,-0.051083761248569795,0.023636311454426018,-0.3235357068089069,0.019672476065487388
1776712958.050201,0.0,0.0,1.3,0.0,-2.5,0.0,0.0,0.0,1.3,0.0,-2.5,0.0,0.0,0.0,1.3,0.0,-2.5,0.0,0.0,0.0,1.3,0.0,-2.5,0.0,-0.05176057129421027,-0.07433814203246714,-0.3235520602685963,0.004162594366139416
1776712958.0702002,0.0,0.0,1.3,0.0,-2.5,0.0,0.0,0.0,1.3,0.0,-2.5,0.0,0.0,0.0,1.3,0.0,-2.5,0.0,0.0,0.0,1.3,0.0,-2.5,0.0,-0.051769967625806,-0.020486286161693013,-0.3237421045270866,-0.02196648305039517
1776712958.0902011,0.0,0.0,1.3,0.0,-2.5,0.0,0.0,0.0,1.3,0.0,-2.5,0.0,0.0,0.0,1.3,0.0,-2.5,0.0,0.0,0.0,1.3,0.0,-2.5,0.0,-0.051454492252132875,0.04212705284807594,-0.3235512905938909,0.015068493995853416
1776712958.1104362,0.0,0.0,1.3,0.0,-2.5,0.0,0.0,0.0,1.3,0.0,-2.5,0.0,0.0,0.0,1.3,0.0,-2.5,0.0,0.0,0.0,1.3,0.0,-2.5,0.0,-0.05223711127591775,-0.08666489719114168,-0.3223347565482661,0.16434976965615
1776712958.1302822,0.0,0.0,1.3,0.0,-2.5,0.0,0.0,0.0,1.3,0.0,-2.5,0.0,0.0,0.0,1.3,0.0,-2.5,0.0,0.0,0.0,1.3,0.0,-2.5,0.0,-0.053002169996246226,-0.10334504270008038,-0.32096112939621124,0.1784492886154645
1776712958.150225,0.0,0.0,1.3,0.0,-2.5,0.0,0.0,0.0,1.3,0.0,-2.5,0.0,0.0,0.0,1.3,0.0,-2.5,0.0,0.0,0.0,1.3,0.0,-2.5,0.0,-0.05133000629347597,0.1622731309811285,-0.32394741713695985,-0.3004560454919716
1776712958.1702027,0.0,0.0,1.3,0.0,-2.5,0.0,0.0,0.0,1.3,0.0,-2.5,0.0,0.0,0.0,1.3,0.0,-2.5,0.0,0.0,0.0,1.3,0.0,-2.5,0.0,-0.05159920898745639,2.8204565701184237e-05,-0.3238734917270306,-0.05110558980187285
1776712958.1902037,0.0,0.0,1.3,0.0,-2.5,0.0,0.0,0.0,1.3,0.0,-2.5,0.0,0.0,0.0,1.3,0.0,-2.5,0.0,0.0,0.0,1.3,0.0,-2.5,0.0,-0.051674036035207746,-0.03505899789092615,-0.32339393667110206,0.09568054471042942
1776712958.2102046,0.0,0.0,1.3,0.0,-2.5,0.0,0.0,0.0,1.3,0.0,-2.5,0.0,0.0,0.0,1.3,0.0,-2.5,0.0,0.0,0.0,1.3,0.0,-2.5,0.0,-0.05685953657532528,-0.5698032381425915,-0.32046499966045033,0.37310440357029506
1776712958.2302003,0.0,0.0,1.3,0.0,-2.5,0.0,0.0,0.0,1.3,0.0,-2.5,0.0,0.0,0.0,1.3,0.0,-2.5,0.0,0.0,0.0,1.3,0.0,-2.5,0.0,-0.057729485114434834,-0.19737054916892105,-0.31926484592297155,0.20427439820852378
1776712958.250261,0.0,0.0,1.3,0.0,-2.5,0.0,0.0,0.0,1.3,0.0,-2.5,0.0,0.0,0.0,1.3,0.0,-2.5,0.0,0.0,0.0,1.3,0.0,-2.5,0.0,-0.051385034924385634,0.8302806350083576,-0.32404492154089726,-0.6006148028475096
1776712958.2702763,0.0,0.0,1.3,0.0,-2.5,0.0,0.0,0.0,1.3,0.0,-2.5,0.0,0.0,0.0,1.3,0.0,-2.5,0.0,0.0,0.0,1.3,0.0,-2.5,0.0,-0.04993995674354604,0.33169308622187765,-0.32487039326862177,-0.2170872988706627
1776712958.2901995,0.0,0.0,1.3,0.0,-2.5,0.0,0.0,0.0,1.3,0.0,-2.5,0.0,0.0,0.0,1.3,0.0,-2.5,0.0,0.0,0.0,1.3,0.0,-2.5,0.0,-0.05265924182905782,-0.3699489540292995,-0.3228833273951629,0.2815719906763601
1776712958.3102772,0.0,0.0,1.3,0.0,-2.5,0.0,0.0,0.0,1.3,0.0,-2.5,0.0,0.0,0.0,1.3,0.0,-2.5,0.0,0.0,0.0,1.3,0.0,-2.5,0.0,-0.05832536387981063,-0.5913801743457316,-0.3196368563233266,0.34729248905527754
1776712958.3301535,0.0,0.0,1.3,0.0,-2.5,0.0,0.0,0.0,1.3,0.0,-2.5,0.0,0.0,0.0,1.3,0.0,-2.5,0.0,0.0,0.0,1.3,0.0,-2.5,0.0,-0.05699124598005049,0.007740594593992345,-0.3195776811708666,0.09940657511073958
1776712958.3502052,0.0,0.0,1.3,0.0,-2.5,0.0,0.0,0.0,1.3,0.0,-2.5,0.0,0.0,0.0,1.3,0.0,-2.5,0.0,0.0,0.0,1.3,0.0,-2.5,0.0,-0.048820137686176907,1.0115773156248846,-0.3255999454895909,-0.6966205487264148
1776712958.3702793,0.0,0.0,1.3,0.0,-2.5,0.0,0.0,0.0,1.3,0.0,-2.5,0.0,0.0,0.0,1.3,0.0,-2.5,0.0,0.0,0.0,1.3,0.0,-2.5,0.0,-0.05111807809904946,-0.012574411829050947,-0.3238875041913738,0.012341903089222228
1776712958.3901992,0.0,0.0,1.3,0.0,-2.5,0.0,0.0,0.0,1.3,0.0,-2.5,0.0,0.0,0.0,1.3,0.0,-2.5,0.0,0.0,0.0,1.3,0.0,-2.5,0.0,-0.05290530932276144,-0.3286793023070116,-0.3227833801114889,0.21770451625516252
1776712958.4102008,0.0,0.0,1.3,0.0,-2.5,0.0,0.0,0.0,1.3,0.0,-2.5,0.0,0.0,0.0,1.3,0.0,-2.5,0.0,0.0,0.0,1.3,0.0,-2.5,0.0,-0.05788059988464747,-0.6106743181443632,-0.3195450635397513,0.42961252256922755
1776712958.4301643,0.0,0.0,1.3,0.0,-2.5,0.0,0.0,0.0,1.3,0.0,-2.5,0.0,0.0,0.0,1.3,0.0,-2.5,0.0,0.0,0.0,1.3,0.0,-2.5,0.0,-0.057023670614307236,-0.06613480266633553,-0.31949524487400843,0.12605601755225138
1776712958.4503493,0.0,0.0,1.3,0.0,-2.5,0.0,0.0,0.0,1.3,0.0,-2.5,0.0,0.0,0.0,1.3,0.0,-2.5,0.0,0.0,0.0,1.3,0.0,-2.5,0.0,-0.05150197176997717,0.7514070129659647,-0.32350360532482286,-0.5164115808815097
1776712958.470276,0.0,0.0,1.3,0.0,-2.5,0.0,0.0,0.0,1.3,0.0,-2.5,0.0,0.0,0.0,1.3,0.0,-2.5,0.0,0.0,0.0,1.3,0.0,-2.5,0.0,-0.050120751837699,0.3921944810329896,-0.32482013549642424,-0.31287651455518173
1776712958.4902635,0.0,0.0,1.3,0.0,-2.5,0.0,0.0,0.0,1.3,0.0,-2.5,0.0,0.0,0.0,1.3,0.0,-2.5,0.0,0.0,0.0,1.3,0.0,-2.5,0.0,-0.05207566591702183,-0.23332647959941144,-0.32339014803419436,0.15490528478915166
1776712958.510202,0.0,0.0,1.3,0.0,-2.5,0.0,0.0,0.0,1.3,0.0,-2.5,0.0,0.0,0.0,1.3,0.0,-2.5,0.0,0.0,0.0,1.3,0.0,-2.5,0.0,-0.0517007997533266,-0.017440533169620354,-0.3235175667400758,0.04136767728585333
1776712958.5302155,0.0,0.0,1.3,0.0,-2.5,0.0,0.0,0.0,1.3,0.0,-2.5,0.0,0.0,0.0,1.3,0.0,-2.5,0.0,0.0,0.0,1.3,0.0,-2.5,0.0,-0.05150643755753062,0.011985747727817575,-0.32342920235239747,0.01982813117614768
1776712958.5502794,0.0,0.0,1.3,0.0,-2.5,0.0,0.0,0.0,1.3,0.0,-2.5,0.0,0.0,0.0,1.3,0.0,-2.5,0.0,0.0,0.0,1.3,0.0,-2.5,0.0,-0.05131658328845487,0.026146395522760102,-0.3234284333204596,7.001593864508493e-05
1776712958.5702553,0.0,0.0,1.3,0.0,-2.5,0.0,0.0,0.0,1.3,0.0,-2.5,0.0,0.0,0.0,1.3,0.0,-2.5,0.0,0.0,0.0,1.3,0.0,-2.5,0.0,-0.05149087762502362,-0.015184040364612628,-0.32374269046766796,-0.03134855505726186
1776712958.5902023,0.0,0.0,1.3,0.0,-2.5,0.0,0.0,0.0,1.3,0.0,-2.5,0.0,0.0,0.0,1.3,0.0,-2.5,0.0,0.0,0.0,1.3,0.0,-2.5,0.0,-0.05177495518972319,-0.04006308501173561,-0.32373369025713794,-0.007316784155081635
1776712958.6102002,0.0,0.0,1.3,0.0,-2.5,0.0,0.0,0.0,1.3,0.0,-2.5,0.0,0.0,0.0,1.3,0.0,-2.5,0.0,0.0,0.0,1.3,0.0,-2.5,0.0,-0.05156897371997852,0.013919421112887909,-0.3235396860302707,0.022943607017797518
1776712958.6302001,0.0,0.0,1.3,0.0,-2.5,0.0,0.0,0.0,1.3,0.0,-2.5,0.0,0.0,0.0,1.3,0.0,-2.5,0.0,0.0,0.0,1.3,0.0,-2.5,0.0,-0.05097857040443035,0.0789708419601114,-0.32352918175994216,0.005909578953048111
1776712958.650276,0.0,0.0,1.3,0.0,-2.5,0.0,0.0,0.0,1.3,0.0,-2.5,0.0,0.0,0.0,1.3,0.0,-2.5,0.0,0.0,0.0,1.3,0.0,-2.5,0.0,-0.05141985209218143,-0.028352587417345143,-0.32356613068995593,-0.008588006896486533
1776712958.6702008,0.0,0.0,1.3,0.0,-2.5,0.0,0.0,0.0,1.3,0.0,-2.5,0.0,0.0,0.0,1.3,0.0,-2.5,0.0,0.0,0.0,1.3,0.0,-2.5,0.0,-0.05188727699816818,-0.06383328729755533,-0.3238194277796975,-0.025670576498578512
1776712958.6902015,0.0,0.0,1.3,0.0,-2.5,0.0,0.0,0.0,1.3,0.0,-2.5,0.0,0.0,0.0,1.3,0.0,-2.5,0.0,0.0,0.0,1.3,0.0,-2.5,0.0,-0.05148654586013157,0.03571558226254501,-0.32374075722352524,0.005280468141137362
1776712958.7101996,0.0,0.0,1.3,0.0,-2.5,0.0,0.0,0.0,1.3,0.0,-2.5,0.0,0.0,0.0,1.3,0.0,-2.5,0.0,0.0,0.0,1.3,0.0,-2.5,0.0,-0.0513562914497045,0.01768562358676684,-0.3236203891097795,0.013410196203137659
1776712958.7302291,0.0,0.0,1.3,0.0,-2.5,0.0,0.0,0.0,1.3,0.0,-2.5,0.0,0.0,0.0,1.3,0.0,-2.5,0.0,0.0,0.0,1.3,0.0,-2.5,0.0,-0.05164868667103509,-0.027962136332115195,-0.3236235536970572,0.0010370994767221475
1776712958.750209,0.0,0.0,1.3,0.0,-2.5,0.0,0.0,0.0,1.3,0.0,-2.5,0.0,0.0,0.0,1.3,0.0,-2.5,0.0,0.0,0.0,1.3,0.0,-2.5,0.0,-0.05711568017770012,-0.6182743412345366,-0.3201646743511919,0.40205075225575904
1776712958.7702,0.0,0.0,1.3,0.0,-2.5,0.0,0.0,0.0,1.3,0.0,-2.5,0.0,0.0,0.0,1.3,0.0,-2.5,0.0,0.0,0.0,1.3,0.0,-2.5,0.0,-0.05765621073839313,-0.19923382114434363,-0.31947937962197637,0.1671702798926784
1776712958.790199,0.0,0.0,1.3,0.0,-2.5,0.0,0.0,0.0,1.3,0.0,-2.5,0.0,0.0,0.0,1.3,0.0,-2.5,0.0,0.0,0.0,1.3,0.0,-2.5,0.0,-0.04970796240984098,0.9356222284846409,-0.32484048254987524,-0.622612424126535
1776712958.8101995,0.0,0.0,1.3,0.0,-2.5,0.0,0.0,0.0,1.3,0.0,-2.5,0.0,0.0,0.0,1.3,0.0,-2.5,0.0,0.0,0.0,1.3,0.0,-2.5,0.0,-0.05083396905964209,0.10551505061024136,-0.32393549149382594,-0.05594082216086349
1776712958.8302002,0.0,0.0,1.3,0.0,-2.5,0.0,0.0,0.0,1.3,0.0,-2.5,0.0,0.0,0.0,1.3,0.0,-2.5,0.0,0.0,0.0,1.3,0.0,-2.5,0.0,-0.058873407410891296,-0.957085323151972,-0.31901129722280436,0.598683348795376
1776712958.8502,0.0,0.0,1.3,0.0,-2.5,0.0,0.0,0.0,1.3,0.0,-2.5,0.0,0.0,0.0,1.3,0.0,-2.5,0.0,0.0,0.0,1.3,0.0,-2.5,0.0,-0.058380472841702113,-0.2979790486228677,-0.31925728478322224,0.20173131305534575
1776712958.8702507,0.0,0.0,1.3,0.0,-2.5,0.0,0.0,0.0,1.3,0.0,-2.5,0.0,0.0,0.0,1.3,0.0,-2.5,0.0,0.0,0.0,1.3,0.0,-2.5,0.0,-0.05340494260770201,0.6493114437324317,-0.32228111785231994,-0.40446430438801606
1776712958.8901997,0.0,0.0,1.3,0.0,-2.5,0.0,0.0,0.0,1.3,0.0,-2.5,0.0,0.0,0.0,1.3,0.0,-2.5,0.0,0.0,0.0,1.3,0.0,-2.5,0.0,-0.05013306466956586,0.44658273856603925,-0.32441657414409686,-0.2906915302645494
1776712958.9102044,0.0,0.0,1.3,0.0,-2.5,0.0,0.0,0.0,1.3,0.0,-2.5,0.0,0.0,0.0,1.3,0.0,-2.5,0.0,0.0,0.0,1.3,0.0,-2.5,0.0,-0.052142441373573684,-0.21621865254396333,-0.3233898214062628,0.11545446059254694
1776712958.9303753,0.0,0.0,1.3,0.0,-2.5,0.0,0.0,0.0,1.3,0.0,-2.5,0.0,0.0,0.0,1.3,0.0,-2.5,0.0,0.0,0.0,1.3,0.0,-2.5,0.0,-0.056643555680363444,-0.5275002736067353,-0.32068172120963273,0.30380350522101196
1776712958.9502487,0.0,0.0,1.3,0.0,-2.5,0.0,0.0,0.0,1.3,0.0,-2.5,0.0,0.0,0.0,1.3,0.0,-2.5,0.0,0.0,0.0,1.3,0.0,-2.5,0.0,-0.05863221770640732,-0.4468646607990432,-0.3190047054521528,0.3256057438897333
1776712958.9702647,0.0,0.0,1.3,0.0,-2.5,0.0,0.0,0.0,1.3,0.0,-2.5,0.0,0.0,0.0,1.3,0.0,-2.5,0.0,0.0,0.0,1.3,0.0,-2.5,0.0,-0.05526157487386553,0.3817103540732836,-0.32051641016289434,-0.16644905531084753
1776712958.9902442,0.0,0.0,1.3,0.0,-2.5,0.0,0.0,0.0,1.3,0.0,-2.5,0.0,0.0,0.0,1.3,0.0,-2.5,0.0,0.0,0.0,1.3,0.0,-2.5,0.0,-0.04896494560298216,0.7538755655057119,-0.3262294884270243,-0.6444445683706146
1776712959.010199,0.0,0.0,1.3,0.0,-2.5,0.0,0.0,0.0,1.3,0.0,-2.5,0.0,0.0,0.0,1.3,0.0,-2.5,0.0,0.0,0.0,1.3,0.0,-2.5,0.0,-0.05037417682348884,-0.020910694198441604,-0.32513351898055537,0.00026270814071516213
1776712959.0302002,0.0,0.0,1.3,0.0,-2.5,0.0,0.0,0.0,1.3,0.0,-2.5,0.0,0.0,0.0,1.3,0.0,-2.5,0.0,0.0,0.0,1.3,0.0,-2.5,0.0,-0.05314567733979817,-0.45680182453918583,-0.32225657350336656,0.4425503544021101
1776712959.0504708,0.0,0.0,1.3,0.0,-2.5,0.0,0.0,0.0,1.3,0.0,-2.5,0.0,0.0,0.0,1.3,0.0,-2.5,0.0,0.0,0.0,1.3,0.0,-2.5,0.0,-0.051557124537934776,0.05814681243981501,-0.3238140405228299,-0.06468633247722089
1776712959.0702736,0.0,0.0,1.3,0.0,-2.5,0.0,0.0,0.0,1.3,0.0,-2.5,0.0,0.0,0.0,1.3,0.0,-2.5,0.0,0.0,0.0,1.3,0.0,-2.5,0.0,-0.051253710029625074,0.052249347728124285,-0.3232535357944898,0.051962562659825906
1776712959.090261,0.0,0.0,1.3,0.0,-2.5,0.0,0.0,0.0,1.3,0.0,-2.5,0.0,0.0,0.0,1.3,0.0,-2.5,0.0,0.0,0.0,1.3,0.0,-2.5,0.0,-0.05135509845802344,-0.0004959535836386308,-0.3234122355121023,-0.0030434647346009314
1776712959.1102026,0.0,0.0,1.3,0.0,-2.5,0.0,0.0,0.0,1.3,0.0,-2.5,0.0,0.0,0.0,1.3,0.0,-2.5,0.0,0.0,0.0,1.3,0.0,-2.5,0.0,-0.051882593481520675,-0.06939944788812102,-0.32363520224353026,-0.030424136706418636
1776712959.1302223,0.0,0.0,1.3,0.0,-2.5,0.0,0.0,0.0,1.3,0.0,-2.5,0.0,0.0,0.0,1.3,0.0,-2.5,0.0,0.0,0.0,1.3,0.0,-2.5,0.0,-0.05159949923169817,0.018148808936472527,-0.3237472587605166,-0.01362395477580236
1776712959.150216,0.0,0.0,1.3,0.0,-2.5,0.0,0.0,0.0,1.3,0.0,-2.5,0.0,0.0,0.0,1.3,0.0,-2.5,0.0,0.0,0.0,1.3,0.0,-2.5,0.0,-0.05165266373507868,0.004821753769285841,-0.32355546494509707,0.02244831432022565
1776712959.1702013,0.0,0.0,1.3,0.0,-2.5,0.0,0.0,0.0,1.3,0.0,-2.5,0.0,0.0,0.0,1.3,0.0,-2.5,0.0,0.0,0.0,1.3,0.0,-2.5,0.0,-0.051427997151362474,0.02822099886878693,-0.3234224634112346,0.023373461872607137
1776712959.1902492,0.0,0.0,1.3,0.0,-2.5,0.0,0.0,0.0,1.3,0.0,-2.5,0.0,0.0,0.0,1.3,0.0,-2.5,0.0,0.0,0.0,1.3,0.0,-2.5,0.0,-0.0513150788805717,0.016801343889742082,-0.3235242770639246,-0.008378018036340862
1776712959.2102673,0.0,0.0,1.3,0.0,-2.5,0.0,0.0,0.0,1.3,0.0,-2.5,0.0,0.0,0.0,1.3,0.0,-2.5,0.0,0.0,0.0,1.3,0.0,-2.5,0.0,-0.05184719220835561,-0.05870086586654821,-0.32378254150210073,-0.029745666956195294
1776712959.2301996,0.0,0.0,1.3,0.0,-2.5,0.0,0.0,0.0,1.3,0.0,-2.5,0.0,0.0,0.0,1.3,0.0,-2.5,0.0,0.0,0.0,1.3,0.0,-2.5,0.0,-0.051456588656408564,0.03215494694717935,-0.32361621801304774,0.014510104318430805
1776712959.2502747,0.0,0.0,1.3,0.0,-2.5,0.0,0.0,0.0,1.3,0.0,-2.5,0.0,0.0,0.0,1.3,0.0,-2.5,0.0,0.0,0.0,1.3,0.0,-2.5,0.0,-0.05152862762552636,0.010509270146802141,-0.32343650855020695,0.03164480822897531
1776712959.2702765,0.0,0.0,1.3,0.0,-2.5,0.0,0.0,0.0,1.3,0.0,-2.5,0.0,0.0,0.0,1.3,0.0,-2.5,0.0,0.0,0.0,1.3,0.0,-2.5,0.0,-0.051840805820996955,-0.028830642565302655,-0.3236885926724673,-0.02328363035111991
1776712959.2902572,0.0,0.0,1.3,0.0,-2.5,0.0,0.0,0.0,1.3,0.0,-2.5,0.0,0.0,0.0,1.3,0.0,-2.5,0.0,0.0,0.0,1.3,0.0,-2.5,0.0,-0.051436970217500703,0.04166729958243476,-0.3237091855851053,-0.01214942041307765
1776712959.3102024,0.0,0.0,1.3,0.0,-2.5,0.0,0.0,0.0,1.3,0.0,-2.5,0.0,0.0,0.0,1.3,0.0,-2.5,0.0,0.0,0.0,1.3,0.0,-2.5,0.0,-0.05110795023079763,0.04844869942110819,-0.3234944979064062,0.023950564668592023
1776712959.3302054,0.0,0.0,1.3,0.0,-2.5,0.0,0.0,0.0,1.3,0.0,-2.5,0.0,0.0,0.0,1.3,0.0,-2.5,0.0,0.0,0.0,1.3,0.0,-2.5,0.0,-0.051685758899678476,-0.05091911819435202,-0.32352550699711136,0.0013398380756601824
1776712959.3502746,0.0,0.0,1.3,0.0,-2.5,0.0,0.0,0.0,1.3,0.0,-2.5,0.0,0.0,0.0,1.3,0.0,-2.5,0.0,0.0,0.0,1.3,0.0,-2.5,0.0,-0.051911481384062166,-0.047276628528367004,-0.32374658795369815,-0.02675832544622203
1776712959.370202,0.0,0.0,1.3,0.0,-2.5,0.0,0.0,0.0,1.3,0.0,-2.5,0.0,0.0,0.0,1.3,0.0,-2.5,0.0,0.0,0.0,1.3,0.0,-2.5,0.0,-0.05189878296737439,0.0015282506835427867,-0.3236636654796325,0.006457676079925534
1776712959.3902543,0.0,0.0,1.3,0.0,-2.5,0.0,0.0,0.0,1.3,0.0,-2.5,0.0,0.0,0.0,1.3,0.0,-2.5,0.0,0.0,0.0,1.3,0.0,-2.5,0.0,-0.05141518025472593,0.06038043062961784,-0.32353637928799217,0.016670839064460097
1776712959.410201,0.0,0.0,1.3,0.0,-2.5,0.0,0.0,0.0,1.3,0.0,-2.5,0.0,0.0,0.0,1.3,0.0,-2.5,0.0,0.0,0.0,1.3,0.0,-2.5,0.0,-0.051116876824518265,0.040016531891133855,-0.32348749934201526,0.003976126031774996
1776712959.4302156,0.0,0.0,1.3,0.0,-2.5,0.0,0.0,0.0,1.3,0.0,-2.5,0.0,0.0,0.0,1.3,0.0,-2.5,0.0,0.0,0.0,1.3,0.0,-2.5,0.0,-0.05154045800810815,-0.04997614372860948,-0.3236022747249045,-0.013291505395432779
1776712959.4501476,0.0,0.0,1.3,0.0,-2.5,0.0,0.0,0.0,1.3,0.0,-2.5,0.0,0.0,0.0,1.3,0.0,-2.5,0.0,0.0,0.0,1.3,0.0,-2.5,0.0,-0.05217037634463177,-0.08577575554867867,-0.3237201215950012,-0.01459157898224106
1776712959.4702797,0.0,0.0,1.3,0.0,-2.5,0.0,0.0,0.0,1.3,0.0,-2.5,0.0,0.0,0.0,1.3,0.0,-2.5,0.0,0.0,0.0,1.3,0.0,-2.5,0.0,-0.05196834041985511,0.0013661533157822703,-0.32367697122789413,0.00041717094288706846
1776712959.4902053,0.0,0.0,1.3,0.0,-2.5,0.0,0.0,0.0,1.3,0.0,-2.5,0.0,0.0,0.0,1.3,0.0,-2.5,0.0,0.0,0.0,1.3,0.0,-2.5,0.0,-0.05106413263228075,0.1137678594528524,-0.3235845893557121,0.014040032168304961
1776712959.5102513,0.0,0.0,1.3,0.0,-2.5,0.0,0.0,0.0,1.3,0.0,-2.5,0.0,0.0,0.0,1.3,0.0,-2.5,0.0,0.0,0.0,1.3,0.0,-2.5,0.0,-0.05094165014707101,0.029945915192609363,-0.3234558453859452,0.02117223086932718
1776712959.5303369,0.0,0.0,1.3,0.0,-2.5,0.0,0.0,0.0,1.3,0.0,-2.5,0.0,0.0,0.0,1.3,0.0,-2.5,0.0,0.0,0.0,1.3,0.0,-2.5,0.0,-0.052044099733605444,-0.13274394078128426,-0.3237760070171575,-0.03189614014403119
1776712959.5502763,0.0,0.0,1.3,0.0,-2.5,0.0,0.0,0.0,1.3,0.0,-2.5,0.0,0.0,0.0,1.3,0.0,-2.5,0.0,0.0,0.0,1.3,0.0,-2.5,0.0,-0.05209357597603893,-0.053849139012764,-0.32369537242300306,-0.004549412870570535
1776712959.5702055,0.0,0.0,1.3,0.0,-2.5,0.0,0.0,0.0,1.3,0.0,-2.5,0.0,0.0,0.0,1.3,0.0,-2.5,0.0,0.0,0.0,1.3,0.0,-2.5,0.0,-0.05163497617323068,0.05230023133334383,-0.3235872253905849,0.015412820405368066
1776712959.5902784,0.0,0.0,1.3,0.0,-2.5,0.0,0.0,0.0,1.3,0.0,-2.5,0.0,0.0,0.0,1.3,0.0,-2.5,0.0,0.0,0.0,1.3,0.0,-2.5,0.0,-0.05794600983353029,-0.6136619496082532,-0.3192415260944349,0.437639579915885
1776712959.6102774,0.0,0.0,1.3,0.0,-2.5,0.0,0.0,0.0,1.3,0.0,-2.5,0.0,0.0,0.0,1.3,0.0,-2.5,0.0,0.0,0.0,1.3,0.0,-2.5,0.0,-0.056781460985904114,0.0043085170000187745,-0.3198067685483208,0.023648003653507388
1776712959.630205,0.0,0.0,1.3,0.0,-2.5,0.0,0.0,0.0,1.3,0.0,-2.5,0.0,0.0,0.0,1.3,0.0,-2.5,0.0,0.0,0.0,1.3,0.0,-2.5,0.0,-0.048664836129933206,0.9497424162774326,-0.32653589359372315,-0.7699258944382734
1776712959.650224,0.0,0.0,1.3,0.0,-2.5,0.0,0.0,0.0,1.3,0.0,-2.5,0.0,0.0,0.0,1.3,0.0,-2.5,0.0,0.0,0.0,1.3,0.0,-2.5,0.0,-0.05095281618964974,0.10036978353657133,-0.324338307835334,-0.0552650623434392
1776712959.6702,0.0,0.0,1.3,0.0,-2.5,0.0,0.0,0.0,1.3,0.0,-2.5,0.0,0.0,0.0,1.3,0.0,-2.5,0.0,0.0,0.0,1.3,0.0,-2.5,0.0,-0.053814664944762246,-0.45398461397978673,-0.32119465317581397,0.4815547126241473
1776712959.6902778,0.0,0.0,1.3,0.0,-2.5,0.0,0.0,0.0,1.3,0.0,-2.5,0.0,0.0,0.0,1.3,0.0,-2.5,0.0,0.0,0.0,1.3,0.0,-2.5,0.0,-0.057447408528226766,-0.42052151222201406,-0.3187328504785556,0.3547811814549622
1776712959.7102048,0.0,0.0,1.3,0.0,-2.5,0.0,0.0,0.0,1.3,0.0,-2.5,0.0,0.0,0.0,1.3,0.0,-2.5,0.0,0.0,0.0,1.3,0.0,-2.5,0.0,-0.05712442254204742,0.018770793036770428,-0.31725870779023346,0.13136026480844443
1776712959.7302058,0.0,0.0,1.3,0.0,-2.5,0.0,0.0,0.0,1.3,0.0,-2.5,0.0,0.0,0.0,1.3,0.0,-2.5,0.0,0.0,0.0,1.3,0.0,-2.5,0.0,-0.04817349587182669,0.9163411417170249,-0.32882166128249746,-1.1086622871775322
1776712959.7502363,0.0,0.0,1.3,0.0,-2.5,0.0,0.0,0.0,1.3,0.0,-2.5,0.0,0.0,0.0,1.3,0.0,-2.5,0.0,0.0,0.0,1.3,0.0,-2.5,0.0,-0.050694400735105186,0.07131897393969888,-0.32459187983812254,0.07188143336711228
1776712959.7702422,0.0,0.0,1.3,0.0,-2.5,0.0,0.0,0.0,1.3,0.0,-2.5,0.0,0.0,0.0,1.3,0.0,-2.5,0.0,0.0,0.0,1.3,0.0,-2.5,0.0,-0.059409003532701135,-1.0452764066239277,-0.3177412239415266,0.9416290994227765
1776712959.790262,0.0,0.0,1.3,0.0,-2.5,0.0,0.0,0.0,1.3,0.0,-2.5,0.0,0.0,0.0,1.3,0.0,-2.5,0.0,0.0,0.0,1.3,0.0,-2.5,0.0,-0.057010303967914164,0.02761043052077805,-0.31999253547546397,-0.014800031247673928
1776712959.8102062,0.0,0.0,1.3,0.0,-2.5,0.0,0.0,0.0,1.3,0.0,-2.5,0.0,0.0,0.0,1.3,0.0,-2.5,0.0,0.0,0.0,1.3,0.0,-2.5,0.0,-0.04941527094989953,1.001163380393077,-0.3260270325009757,-0.7966135608493179
1776712959.830201,0.0,0.0,1.3,0.0,-2.5,0.0,0.0,0.0,1.3,0.0,-2.5,0.0,0.0,0.0,1.3,0.0,-2.5,0.0,0.0,0.0,1.3,0.0,-2.5,0.0,-0.04819830629914906,0.3917675150819129,-0.32674841458479725,-0.28378166877510047
1776712959.8502052,0.0,0.0,1.3,0.0,-2.5,0.0,0.0,0.0,1.3,0.0,-2.5,0.0,0.0,0.0,1.3,0.0,-2.5,0.0,0.0,0.0,1.3,0.0,-2.5,0.0,-0.052332197239011904,-0.5062584650909561,-0.3225976176049282,0.5021935599107223
1776712959.8702,0.0,0.0,1.3,0.0,-2.5,0.0,0.0,0.0,1.3,0.0,-2.5,0.0,0.0,0.0,1.3,0.0,-2.5,0.0,0.0,0.0,1.3,0.0,-2.5,0.0,-0.05194322955440048,-0.09230640672444745,-0.3234834739642787,0.027236128906487522
1776712959.8901997,0.0,0.0,1.3,0.0,-2.5,0.0,0.0,0.0,1.3,0.0,-2.5,0.0,0.0,0.0,1.3,0.0,-2.5,0.0,0.0,0.0,1.3,0.0,-2.5,0.0,-0.0514549919509026,0.06705905739276208,-0.3239719760034324,-0.09377224503850456
1776712959.9102082,0.0,0.0,1.3,0.0,-2.5,0.0,0.0,0.0,1.3,0.0,-2.5,0.0,0.0,0.0,1.3,0.0,-2.5,0.0,0.0,0.0,1.3,0.0,-2.5,0.0,-0.051380556442885986,0.045264990897223134,-0.3236543227925154,0.0009115372940300404
1776712959.930201,0.0,0.0,1.3,0.0,-2.5,0.0,0.0,0.0,1.3,0.0,-2.5,0.0,0.0,0.0,1.3,0.0,-2.5,0.0,0.0,0.0,1.3,0.0,-2.5,0.0,-0.05122254757265004,0.030868309947395423,-0.3235103443775622,0.018256699946419985
1776712959.9502075,0.0,0.0,1.3,0.0,-2.5,0.0,0.0,0.0,1.3,0.0,-2.5,0.0,0.0,0.0,1.3,0.0,-2.5,0.0,0.0,0.0,1.3,0.0,-2.5,0.0,-0.05143013117837148,-0.020890496580830087,-0.3234594843088392,0.011886544273032484
1776712959.970206,0.0,0.0,1.3,0.0,-2.5,0.0,0.0,0.0,1.3,0.0,-2.5,0.0,0.0,0.0,1.3,0.0,-2.5,0.0,0.0,0.0,1.3,0.0,-2.5,0.0,-0.05168142916562152,-0.02955538915737499,-0.3237932421607991,-0.033083313208045695
1776712959.9902043,0.0,0.0,1.3,0.0,-2.5,0.0,0.0,0.0,1.3,0.0,-2.5,0.0,0.0,0.0,1.3,0.0,-2.5,0.0,0.0,0.0,1.3,0.0,-2.5,0.0,-0.05156999294602893,0.016383501641401788,-0.32362422331937557,0.011912573615516564
1776712960.0102005,0.0,0.0,1.3,0.0,-2.5,0.0,0.0,0.0,1.3,0.0,-2.5,0.0,0.0,0.0,1.3,0.0,-2.5,0.0,0.0,0.0,1.3,0.0,-2.5,0.0,-0.05159830777612343,-0.0010709548278162728,-0.3237694066329335,-0.011425066757794866
1776712960.0302067,0.0,0.0,1.3,0.0,-2.5,0.0,0.0,0.0,1.3,0.0,-2.5,0.0,0.0,0.0,1.3,0.0,-2.5,0.0,0.0,0.0,1.3,0.0,-2.5,0.0,-0.05129401039179948,0.024929094969885268,-0.32359061012633894,0.016987926751919957
1776712960.050213,0.0,0.0,1.3,0.0,-2.5,0.0,0.0,0.0,1.3,0.0,-2.5,0.0,0.0,0.0,1.3,0.0,-2.5,0.0,0.0,0.0,1.3,0.0,-2.5,0.0,-0.051526430282588326,-0.017284414273658566,-0.32352440746896605,0.01501547013489457
1776712960.0702,0.0,0.0,1.3,0.0,-2.5,0.0,0.0,0.0,1.3,0.0,-2.5,0.0,0.0,0.0,1.3,0.0,-2.5,0.0,0.0,0.0,1.3,0.0,-2.5,0.0,-0.05174801033995176,-0.03179937799764443,-0.3236649176058402,-0.013872393986519072
1776712960.0902805,0.0,0.0,1.3,0.0,-2.5,0.0,0.0,0.0,1.3,0.0,-2.5,0.0,0.0,0.0,1.3,0.0,-2.5,0.0,0.0,0.0,1.3,0.0,-2.5,0.0,-0.05462155720668452,-0.37209381098741146,-0.3215921046150056,0.2579486615568367
1776712960.1102116,0.0,0.0,1.3,0.0,-2.5,0.0,0.0,0.0,1.3,0.0,-2.5,0.0,0.0,0.0,1.3,0.0,-2.5,0.0,0.0,0.0,1.3,0.0,-2.5,0.0,-0.058362146349691967,-0.4584294180406032,-0.31913473736591164,0.3036984833845775
1776712960.1302001,0.0,0.0,1.3,0.0,-2.5,0.0,0.0,0.0,1.3,0.0,-2.5,0.0,0.0,0.0,1.3,0.0,-2.5,0.0,0.0,0.0,1.3,0.0,-2.5,0.0,-0.05009686329184823,0.8919811196352825,-0.32462402685467073,-0.5910630673877488
1776712960.1502745,0.0,0.0,1.3,0.0,-2.5,0.0,0.0,0.0,1.3,0.0,-2.5,0.0,0.0,0.0,1.3,0.0,-2.5,0.0,0.0,0.0,1.3,0.0,-2.5,0.0,-0.050167699719748514,0.25153721131186835,-0.32419296146706333,-0.12286334787546593
1776712960.1702862,0.0,0.0,1.3,0.0,-2.5,0.0,0.0,0.0,1.3,0.0,-2.5,0.0,0.0,0.0,1.3,0.0,-2.5,0.0,0.0,0.0,1.3,0.0,-2.5,0.0,-0.05215655798940454,-0.2952230502234443,-0.32309998656047556,0.18456022121676696
1776712960.1902013,0.0,0.0,1.3,0.0,-2.5,0.0,0.0,0.0,1.3,0.0,-2.5,0.0,0.0,0.0,1.3,0.0,-2.5,0.0,0.0,0.0,1.3,0.0,-2.5,0.0,-0.055209548045306894,-0.4900382844312836,-0.32188147797452266,0.22272302882294248
1776712960.2102437,0.0,0.0,1.3,0.0,-2.5,0.0,0.0,0.0,1.3,0.0,-2.5,0.0,0.0,0.0,1.3,0.0,-2.5,0.0,0.0,0.0,1.3,0.0,-2.5,0.0,-0.058192263751919174,-0.4174836384714118,-0.3191532153395899,0.324250169903582
1776712960.2302108,0.0,0.0,1.3,0.0,-2.5,0.0,0.0,0.0,1.3,0.0,-2.5,0.0,0.0,0.0,1.3,0.0,-2.5,0.0,0.0,0.0,1.3,0.0,-2.5,0.0,-0.05580368607983294,0.2985986488741905,-0.3204274523977708,-0.13383401444443166
1776712960.2502007,0.0,0.0,1.3,0.0,-2.5,0.0,0.0,0.0,1.3,0.0,-2.5,0.0,0.0,0.0,1.3,0.0,-2.5,0.0,0.0,0.0,1.3,0.0,-2.5,0.0,-0.05134946722920339,0.5999520025492395,-0.3235372227548162,-0.41700722149206193
1776712960.2702532,0.0,0.0,1.3,0.0,-2.5,0.0,0.0,0.0,1.3,0.0,-2.5,0.0,0.0,0.0,1.3,0.0,-2.5,0.0,0.0,0.0,1.3,0.0,-2.5,0.0,-0.050220592200097974,0.2563354617078457,-0.32445710672886563,-0.20680344796778982
1776712960.2902014,0.0,0.0,1.3,0.0,-2.5,0.0,0.0,0.0,1.3,0.0,-2.5,0.0,0.0,0.0,1.3,0.0,-2.5,0.0,0.0,0.0,1.3,0.0,-2.5,0.0,-0.05751017641159954,-0.858738891204778,-0.32140807038784036,0.38179073306557854
1776712960.3101997,0.0,0.0,1.3,0.0,-2.5,0.0,0.0,0.0,1.3,0.0,-2.5,0.0,0.0,0.0,1.3,0.0,-2.5,0.0,0.0,0.0,1.3,0.0,-2.5,0.0,-0.053496509863912016,0.2699801115748359,-0.32270386934648626,-0.04795991894153673
1776712960.3302014,0.0,0.0,1.3,0.0,-2.5,0.0,0.0,0.0,1.3,0.0,-2.5,0.0,0.0,0.0,1.3,0.0,-2.5,0.0,0.0,0.0,1.3,0.0,-2.5,0.0,-0.04936470158619284,0.606969461864546,-0.32453813116488456,-0.2469560087237337
1776712960.350213,0.0,0.0,1.3,0.0,-2.5,0.0,0.0,0.0,1.3,0.0,-2.5,0.0,0.0,0.0,1.3,0.0,-2.5,0.0,0.0,0.0,1.3,0.0,-2.5,0.0,-0.05161011531823016,-0.13282390627874818,-0.32358590774579454,0.05432289349349695
1776712960.3702664,0.0,0.0,1.3,0.0,-2.5,0.0,0.0,0.0,1.3,0.0,-2.5,0.0,0.0,0.0,1.3,0.0,-2.5,0.0,0.0,0.0,1.3,0.0,-2.5,0.0,-0.05153612671100301,-0.013950650647769347,-0.3236513727876478,0.0034563910587745994
1776712960.3902812,0.0,0.0,1.3,0.0,-2.5,0.0,0.0,0.0,1.3,0.0,-2.5,0.0,0.0,0.0,1.3,0.0,-2.5,0.0,0.0,0.0,1.3,0.0,-2.5,0.0,-0.05181236586705448,-0.02984249196412403,-0.32383184195080816,-0.01869160735448716
1776712960.4102836,0.0,0.0,1.3,0.0,-2.5,0.0,0.0,0.0,1.3,0.0,-2.5,0.0,0.0,0.0,1.3,0.0,-2.5,0.0,0.0,0.0,1.3,0.0,-2.5,0.0,-0.05604853404790343,-0.5075057669904699,-0.320678771721065,0.37484114851108785
1776712960.430151,0.0,0.0,1.3,0.0,-2.5,0.0,0.0,0.0,1.3,0.0,-2.5,0.0,0.0,0.0,1.3,0.0,-2.5,0.0,0.0,0.0,1.3,0.0,-2.5,0.0,-0.058268556089533144,-0.34442992917747706,-0.3190591030039812,0.2538504758023503
1776712960.4502137,0.0,0.0,1.3,0.0,-2.5,0.0,0.0,0.0,1.3,0.0,-2.5,0.0,0.0,0.0,1.3,0.0,-2.5,0.0,0.0,0.0,1.3,0.0,-2.5,0.0,-0.054350233056360234,0.4830386490697627,-0.32213216615325946,-0.37558683767292855
1776712960.470254,0.0,0.0,1.3,0.0,-2.5,0.0,0.0,0.0,1.3,0.0,-2.5,0.0,0.0,0.0,1.3,0.0,-2.5,0.0,0.0,0.0,1.3,0.0,-2.5,0.0,-0.04791443312483977,0.7009957495652941,-0.3271093723130961,-0.5356773935499373
1776712960.490208,0.0,0.0,1.3,0.0,-2.5,0.0,0.0,0.0,1.3,0.0,-2.5,0.0,0.0,0.0,1.3,0.0,-2.5,0.0,0.0,0.0,1.3,0.0,-2.5,0.0,-0.051576686495115195,-0.35608394869203064,-0.32346906711920986,0.3706262238103122
1776712960.5102131,0.0,0.0,1.3,0.0,-2.5,0.0,0.0,0.0,1.3,0.0,-2.5,0.0,0.0,0.0,1.3,0.0,-2.5,0.0,0.0,0.0,1.3,0.0,-2.5,0.0,-0.05826648285557269,-0.7658022964818949,-0.3188180146584213,0.5426251841326106
1776712960.5302036,0.0,0.0,1.3,0.0,-2.5,0.0,0.0,0.0,1.3,0.0,-2.5,0.0,0.0,0.0,1.3,0.0,-2.5,0.0,0.0,0.0,1.3,0.0,-2.5,0.0,-0.05696987203208363,0.023129764866423264,-0.31996005744445977,-0.062181470793328586
1776712960.5502086,0.0,0.0,1.3,0.0,-2.5,0.0,0.0,0.0,1.3,0.0,-2.5,0.0,0.0,0.0,1.3,0.0,-2.5,0.0,0.0,0.0,1.3,0.0,-2.5,0.0,-0.05552440145051144,0.3376035099481469,-0.32088061303665183,-0.2310728316252586
1776712960.570253,0.0,0.0,1.3,0.0,-2.5,0.0,0.0,0.0,1.3,0.0,-2.5,0.0,0.0,0.0,1.3,0.0,-2.5,0.0,0.0,0.0,1.3,0.0,-2.5,0.0,-0.056429694465325024,0.002632846553437762,-0.32028318512493137,-0.006544472009734292
1776712960.5902007,0.0,0.0,1.3,0.0,-2.5,0.0,0.0,0.0,1.3,0.0,-2.5,0.0,0.0,0.0,1.3,0.0,-2.5,0.0,0.0,0.0,1.3,0.0,-2.5,0.0,-0.05631030500799153,0.01896077582737865,-0.32021292370918064,0.01374574891039515
1776712960.6102111,0.0,0.0,1.3,0.0,-2.5,0.0,0.0,0.0,1.3,0.0,-2.5,0.0,0.0,0.0,1.3,0.0,-2.5,0.0,0.0,0.0,1.3,0.0,-2.5,0.0,-0.056883176406570216,-0.062009752251678485,-0.32033730690626266,-0.014798531842952656
1776712960.630201,0.0,0.0,1.3,0.0,-2.5,0.0,0.0,0.0,1.3,0.0,-2.5,0.0,0.0,0.0,1.3,0.0,-2.5,0.0,0.0,0.0,1.3,0.0,-2.5,0.0,-0.05686984863745534,-0.007699396859729868,-0.320228407401446,0.0018397732555310853
1776712960.6502964,0.0,0.0,1.3,0.0,-2.5,0.0,0.0,0.0,1.3,0.0,-2.5,0.0,0.0,0.0,1.3,0.0,-2.5,0.0,0.0,0.0,1.3,0.0,-2.5,0.0,-0.056592816110863926,0.04161427366696868,-0.3201762697313636,0.003632301883628841
1776712960.6702778,0.0,0.0,1.3,0.0,-2.5,0.0,0.0,0.0,1.3,0.0,-2.5,0.0,0.0,0.0,1.3,0.0,-2.5,0.0,0.0,0.0,1.3,0.0,-2.5,0.0,-0.056607491290554174,0.010854083644665558,-0.320259282202345,-0.011990312977831152
1776712960.6901994,0.0,0.0,1.3,0.0,-2.5,0.0,0.0,0.0,1.3,0.0,-2.5,0.0,0.0,0.0,1.3,0.0,-2.5,0.0,0.0,0.0,1.3,0.0,-2.5,0.0,-0.05620177017099359,0.033297025742757835,-0.32030583496800247,-0.012563725099100864
1776712960.7102044,0.0,0.0,1.3,0.0,-2.5,0.0,0.0,0.0,1.3,0.0,-2.5,0.0,0.0,0.0,1.3,0.0,-2.5,0.0,0.0,0.0,1.3,0.0,-2.5,0.0,-0.05642179975294141,-0.019921994343502947,-0.3205805223885916,-0.035617817680176245
1776712960.7302139,0.0,0.0,1.3,0.0,-2.5,0.0,0.0,0.0,1.3,0.0,-2.5,0.0,0.0,0.0,1.3,0.0,-2.5,0.0,0.0,0.0,1.3,0.0,-2.5,0.0,-0.0571622341441914,-0.07793411522190796,-0.32021146980224785,0.03646356572181375
1776712960.75021,0.0,0.0,1.3,0.0,-2.5,0.0,0.0,0.0,1.3,0.0,-2.5,0.0,0.0,0.0,1.3,0.0,-2.5,0.0,0.0,0.0,1.3,0.0,-2.5,0.0,-0.05708186909197971,-0.01469783838403016,-0.3198416730231669,0.05871730006404974
1776712960.7702053,0.0,0.0,1.3,0.0,-2.5,0.0,0.0,0.0,1.3,0.0,-2.5,0.0,0.0,0.0,1.3,0.0,-2.5,0.0,0.0,0.0,1.3,0.0,-2.5,0.0,-0.05633541495532325,0.08283158016355818,-0.3201692606428941,-0.03087611391599232
1776712960.7902937,0.0,0.0,1.3,0.0,-2.5,0.0,0.0,0.0,1.3,0.0,-2.5,0.0,0.0,0.0,1.3,0.0,-2.5,0.0,0.0,0.0,1.3,0.0,-2.5,0.0,-0.052248933146551095,0.5112402607351743,-0.323513935063912,-0.4094161380192549
1776712960.8102899,0.0,0.0,1.3,0.0,-2.5,0.0,0.0,0.0,1.3,0.0,-2.5,0.0,0.0,0.0,1.3,0.0,-2.5,0.0,0.0,0.0,1.3,0.0,-2.5,0.0,-0.05004262575406418,0.3468503589326415,-0.32443401336706656,-0.20038185885952053
1776712960.83031,0.0,0.0,1.3,0.0,-2.5,0.0,0.0,0.0,1.3,0.0,-2.5,0.0,0.0,0.0,1.3,0.0,-2.5,0.0,0.0,0.0,1.3,0.0,-2.5,0.0,-0.05288938927976286,-0.34946496198091115,-0.323251341458903,0.17256075450575104
1776712960.850403,0.0,0.0,1.3,0.0,-2.5,0.0,0.0,0.0,1.3,0.0,-2.5,0.0,0.0,0.0,1.3,0.0,-2.5,0.0,0.0,0.0,1.3,0.0,-2.5,0.0,-0.05574088572139601,-0.42802816873429217,-0.3216814603139265,0.2109365387914366
1776712960.870264,0.0,0.0,1.3,0.0,-2.5,0.0,0.0,0.0,1.3,0.0,-2.5,0.0,0.0,0.0,1.3,0.0,-2.5,0.0,0.0,0.0,1.3,0.0,-2.5,0.0,-0.057426465389787906,-0.25250055885194267,-0.3190494950676214,0.31201540788442017
1776712960.890257,0.0,0.0,1.3,0.0,-2.5,0.0,0.0,0.0,1.3,0.0,-2.5,0.0,0.0,0.0,1.3,0.0,-2.5,0.0,0.0,0.0,1.3,0.0,-2.5,0.0,-0.04983642748260421,0.868516550401081,-0.32452983996616513,-0.595446461453168
1776712960.9105556,0.0,0.0,1.3,0.0,-2.5,0.0,0.0,0.0,1.3,0.0,-2.5,0.0,0.0,0.0,1.3,0.0,-2.5,0.0,0.0,0.0,1.3,0.0,-2.5,0.0,-0.05121119998899851,0.04340308042398178,-0.3241730975528654,-0.09058276767190421
1776712960.9302378,0.0,0.0,1.3,0.0,-2.5,0.0,0.0,0.0,1.3,0.0,-2.5,0.0,0.0,0.0,1.3,0.0,-2.5,0.0,0.0,0.0,1.3,0.0,-2.5,0.0,-0.052759138246974244,-0.27515764108769214,-0.32301118331176143,0.1867924197200317
1776712960.9504838,0.0,0.0,1.3,0.0,-2.5,0.0,0.0,0.0,1.3,0.0,-2.5,0.0,0.0,0.0,1.3,0.0,-2.5,0.0,0.0,0.0,1.3,0.0,-2.5,0.0,-0.053781484516174365,-0.19891680794879907,-0.3219298440118089,0.19240040863073027
1776712960.9702983,0.0,0.0,1.3,0.0,-2.5,0.0,0.0,0.0,1.3,0.0,-2.5,0.0,0.0,0.0,1.3,0.0,-2.5,0.0,0.0,0.0,1.3,0.0,-2.5,0.0,-0.05432101506504952,-0.09929999804403011,-0.32186297802429886,0.07803936944740286
1776712960.9902158,0.0,0.0,1.3,0.0,-2.5,0.0,0.0,0.0,1.3,0.0,-2.5,0.0,0.0,0.0,1.3,0.0,-2.5,0.0,0.0,0.0,1.3,0.0,-2.5,0.0,-0.05126729174084663,0.359951286990444,-0.3233214056225632,-0.1984922448579134
1776712961.0103009,0.0,0.0,1.3,0.0,-2.5,0.0,0.0,0.0,1.3,0.0,-2.5,0.0,0.0,0.0,1.3,0.0,-2.5,0.0,0.0,0.0,1.3,0.0,-2.5,0.0,-0.05125395893399468,0.06495455982148135,-0.3239298867892298,-0.11357719030026558
1776712961.0302022,0.0,0.0,1.3,0.0,-2.5,0.0,0.0,0.0,1.3,0.0,-2.5,0.0,0.0,0.0,1.3,0.0,-2.5,0.0,0.0,0.0,1.3,0.0,-2.5,0.0,-0.05188651675342208,-0.1140637453754727,-0.3235347820240908,0.05035994862874382
1776712961.0502124,0.0,0.0,1.3,0.0,-2.5,0.0,0.0,0.0,1.3,0.0,-2.5,0.0,0.0,0.0,1.3,0.0,-2.5,0.0,0.0,0.0,1.3,0.0,-2.5,0.0,-0.05646037956308343,-0.5414275732154366,-0.32121470297262306,0.2885411281120316
1776712961.0702958,0.0,0.0,1.3,0.0,-2.5,0.0,0.0,0.0,1.3,0.0,-2.5,0.0,0.0,0.0,1.3,0.0,-2.5,0.0,0.0,0.0,1.3,0.0,-2.5,0.0,-0.057804959269778605,-0.2929293131770634,-0.3191065372750185,0.3169185120575815
1776712961.090291,0.0,0.0,1.3,0.0,-2.5,0.0,0.0,0.0,1.3,0.0,-2.5,0.0,0.0,0.0,1.3,0.0,-2.5,0.0,0.0,0.0,1.3,0.0,-2.5,0.0,-0.04973730951897955,0.9006898402444747,-0.3243478332665706,-0.559084816240162
1776712961.110297,0.0,0.0,1.3,0.0,-2.5,0.0,0.0,0.0,1.3,0.0,-2.5,0.0,0.0,0.0,1.3,0.0,-2.5,0.0,0.0,0.0,1.3,0.0,-2.5,0.0,-0.05133189698687332,0.02534251626168338,-0.32430021032197875,-0.1217999031936774
1776712961.1302004,0.0,0.0,1.3,0.0,-2.5,0.0,0.0,0.0,1.3,0.0,-2.5,0.0,0.0,0.0,1.3,0.0,-2.5,0.0,0.0,0.0,1.3,0.0,-2.5,0.0,-0.052140675191669913,-0.2042710671805441,-0.32320490977206695,0.17833271801401374
1776712961.1502957,0.0,0.0,1.3,0.0,-2.5,0.0,0.0,0.0,1.3,0.0,-2.5,0.0,0.0,0.0,1.3,0.0,-2.5,0.0,0.0,0.0,1.3,0.0,-2.5,0.0,-0.0511640490266753,0.049216192929899094,-0.3238056568616794,0.000933724402953473
1776712961.1702657,0.0,0.0,1.3,0.0,-2.5,0.0,0.0,0.0,1.3,0.0,-2.5,0.0,0.0,0.0,1.3,0.0,-2.5,0.0,0.0,0.0,1.3,0.0,-2.5,0.0,-0.05192015842447762,-0.07773005410896272,-0.32361917352796,0.02240675052222585
1776712961.1902943,0.0,0.0,1.3,0.0,-2.5,0.0,0.0,0.0,1.3,0.0,-2.5,0.0,0.0,0.0,1.3,0.0,-2.5,0.0,0.0,0.0,1.3,0.0,-2.5,0.0,-0.05136123056297752,0.0464585837504814,-0.32342339810972687,0.02688091974705742
1776712961.210204,0.0,0.0,1.3,0.0,-2.5,0.0,0.0,0.0,1.3,0.0,-2.5,0.0,0.0,0.0,1.3,0.0,-2.5,0.0,0.0,0.0,1.3,0.0,-2.5,0.0,-0.05141748528761511,0.007230213994922963,-0.32367993709412635,-0.026357796846598447
1776712961.2305372,0.0,0.0,1.3,0.0,-2.5,0.0,0.0,0.0,1.3,0.0,-2.5,0.0,0.0,0.0,1.3,0.0,-2.5,0.0,0.0,0.0,1.3,0.0,-2.5,0.0,-0.05155461674745776,-0.016488859345140883,-0.3237134056744405,-0.009076484747403413
1776712961.2502797,0.0,0.0,1.3,0.0,-2.5,0.0,0.0,0.0,1.3,0.0,-2.5,0.0,0.0,0.0,1.3,0.0,-2.5,0.0,0.0,0.0,1.3,0.0,-2.5,0.0,-0.051606736368691855,-0.00757648243015141,-0.3237010346931809,0.007589441173454503
1776712961.2703073,0.0,0.0,1.3,0.0,-2.5,0.0,0.0,0.0,1.3,0.0,-2.5,0.0,0.0,0.0,1.3,0.0,-2.5,0.0,0.0,0.0,1.3,0.0,-2.5,0.0,-0.051907848180299795,-0.03153888981203168,-0.3237040547547445,0.003662372959006177
1776712961.2902372,0.0,0.0,1.3,0.0,-2.5,0.0,0.0,0.0,1.3,0.0,-2.5,0.0,0.0,0.0,1.3,0.0,-2.5,0.0,0.0,0.0,1.3,0.0,-2.5,0.0,-0.05755851925061088,-0.5544214090044002,-0.31920667918017653,0.4514062481180101
1776712961.310299,0.0,0.0,1.3,0.0,-2.5,0.0,0.0,0.0,1.3,0.0,-2.5,0.0,0.0,0.0,1.3,0.0,-2.5,0.0,0.0,0.0,1.3,0.0,-2.5,0.0,-0.054829159080223275,0.22833249767910502,-0.3212392712380142,-0.16352742048008828
1776712961.3306513,0.0,0.0,1.3,0.0,-2.5,0.0,0.0,0.0,1.3,0.0,-2.5,0.0,0.0,0.0,1.3,0.0,-2.5,0.0,0.0,0.0,1.3,0.0,-2.5,0.0,-0.04769830787081815,0.8213332008650687,-0.327979427716736,-0.7587750988815589
1776712961.3503766,0.0,0.0,1.3,0.0,-2.5,0.0,0.0,0.0,1.3,0.0,-2.5,0.0,0.0,0.0,1.3,0.0,-2.5,0.0,0.0,0.0,1.3,0.0,-2.5,0.0,-0.050384478562835726,-0.17625298129922173,-0.32532359729916005,0.17848962248590539
1776712961.3702397,0.0,0.0,1.3,0.0,-2.5,0.0,0.0,0.0,1.3,0.0,-2.5,0.0,0.0,0.0,1.3,0.0,-2.5,0.0,0.0,0.0,1.3,0.0,-2.5,0.0,-0.05095937433318828,-0.22820871210827787,-0.32504227020891824,0.18775275039220674
1776712961.3902044,0.0,0.0,1.3,0.0,-2.5,0.0,0.0,0.0,1.3,0.0,-2.5,0.0,0.0,0.0,1.3,0.0,-2.5,0.0,0.0,0.0,1.3,0.0,-2.5,0.0,-0.05175238301042463,-0.15953823217717944,-0.32347363181269373,0.23578692531278378
1776712961.4102132,0.0,0.0,1.3,0.0,-2.5,0.0,0.0,0.0,1.3,0.0,-2.5,0.0,0.0,0.0,1.3,0.0,-2.5,0.0,0.0,0.0,1.3,0.0,-2.5,0.0,-0.05126233778441029,0.021323373038251603,-0.3231921767561886,0.08312138201216968
1776712961.4302094,0.0,0.0,1.3,0.0,-2.5,0.0,0.0,0.0,1.3,0.0,-2.5,0.0,0.0,0.0,1.3,0.0,-2.5,0.0,0.0,0.0,1.3,0.0,-2.5,0.0,-0.051494056816124546,0.0010986957986944823,-0.32409142888568887,-0.12367786316248441
1776712961.4502394,0.0,0.0,1.3,0.0,-2.5,0.0,0.0,0.0,1.3,0.0,-2.5,0.0,0.0,0.0,1.3,0.0,-2.5,0.0,0.0,0.0,1.3,0.0,-2.5,0.0,-0.05184589912529273,-0.022459651424743488,-0.3238511995562616,-0.016819754741643322
1776712961.4702456,0.0,0.0,1.3,0.0,-2.5,0.0,0.0,0.0,1.3,0.0,-2.5,0.0,0.0,0.0,1.3,0.0,-2.5,0.0,0.0,0.0,1.3,0.0,-2.5,0.0,-0.05148636955003906,0.04378377655447663,-0.3236748804813371,0.018168809798716268
1776712961.4902549,0.0,0.0,1.3,0.0,-2.5,0.0,0.0,0.0,1.3,0.0,-2.5,0.0,0.0,0.0,1.3,0.0,-2.5,0.0,0.0,0.0,1.3,0.0,-2.5,0.0,-0.05160169348639437,0.003765759034842997,-0.3236331130981513,0.009008380663006577
1776712961.5102034,0.0,0.0,1.3,0.0,-2.5,0.0,0.0,0.0,1.3,0.0,-2.5,0.0,0.0,0.0,1.3,0.0,-2.5,0.0,0.0,0.0,1.3,0.0,-2.5,0.0,-0.05113238599878279,0.05422131126998142,-0.3235617862371917,0.00862310983023562
1776712961.5302052,0.0,0.0,1.3,0.0,-2.5,0.0,0.0,0.0,1.3,0.0,-2.5,0.0,0.0,0.0,1.3,0.0,-2.5,0.0,0.0,0.0,1.3,0.0,-2.5,0.0,-0.05131812058577387,-0.01201279896396601,-0.323677003571638,-0.014715788858483236
1776712961.5502803,0.0,0.0,1.3,0.0,-2.5,0.0,0.0,0.0,1.3,0.0,-2.5,0.0,0.0,0.0,1.3,0.0,-2.5,0.0,0.0,0.0,1.3,0.0,-2.5,0.0,-0.05170318475031124,-0.056404835176806056,-0.32382101113187134,-0.02115823352119328
1776712961.5702035,0.0,0.0,1.3,0.0,-2.5,0.0,0.0,0.0,1.3,0.0,-2.5,0.0,0.0,0.0,1.3,0.0,-2.5,0.0,0.0,0.0,1.3,0.0,-2.5,0.0,-0.051603610748911274,0.0010160498451943223,-0.3236164317702839,0.02478239525893855
1776712961.5902069,0.0,0.0,1.3,0.0,-2.5,0.0,0.0,0.0,1.3,0.0,-2.5,0.0,0.0,0.0,1.3,0.0,-2.5,0.0,0.0,0.0,1.3,0.0,-2.5,0.0,-0.05172871737092192,-0.009765840442200524,-0.3235391887873462,0.014822938555621334
1776712961.610276,0.0,0.0,1.3,0.0,-2.5,0.0,0.0,0.0,1.3,0.0,-2.5,0.0,0.0,0.0,1.3,0.0,-2.5,0.0,0.0,0.0,1.3,0.0,-2.5,0.0,-0.05118495041504238,0.05459964237918191,-0.3236751697713013,-0.01617793118870381
1776712961.6302047,0.0,0.0,1.3,0.0,-2.5,0.0,0.0,0.0,1.3,0.0,-2.5,0.0,0.0,0.0,1.3,0.0,-2.5,0.0,0.0,0.0,1.3,0.0,-2.5,0.0,-0.05076558893437014,0.054207985533927916,-0.32342405209546143,0.020549332122353547
1776712961.6502001,0.0,0.0,1.3,0.0,-2.5,0.0,0.0,0.0,1.3,0.0,-2.5,0.0,0.0,0.0,1.3,0.0,-2.5,0.0,0.0,0.0,1.3,0.0,-2.5,0.0,-0.051939598759253455,-0.12779136747980546,-0.32355059791159413,-0.007080148326762625
1776712961.6701994,0.0,0.0,1.3,0.0,-2.5,0.0,0.0,0.0,1.3,0.0,-2.5,0.0,0.0,0.0,1.3,0.0,-2.5,0.0,0.0,0.0,1.3,0.0,-2.5,0.0,-0.05207888888992314,-0.06205691380130851,-0.32351526589825713,-0.0026760762487896272
1776712961.6902027,0.0,0.0,1.3,0.0,-2.5,0.0,0.0,0.0,1.3,0.0,-2.5,0.0,0.0,0.0,1.3,0.0,-2.5,0.0,0.0,0.0,1.3,0.0,-2.5,0.0,-0.0514808964348351,0.060695493918540455,-0.32347993604292846,-0.0030310513599349775
1776712961.7101998,0.0,0.0,1.3,0.0,-2.5,0.0,0.0,0.0,1.3,0.0,-2.5,0.0,0.0,0.0,1.3,0.0,-2.5,0.0,0.0,0.0,1.3,0.0,-2.5,0.0,-0.05134040255742943,0.031944795329520215,-0.3237747037754741,-0.032072664569062326
1776712961.7302024,0.0,0.0,1.3,0.0,-2.5,0.0,0.0,0.0,1.3,0.0,-2.5,0.0,0.0,0.0,1.3,0.0,-2.5,0.0,0.0,0.0,1.3,0.0,-2.5,0.0,-0.050977963624917855,0.0436864815346627,-0.3233058280331931,0.04989946671517487
1776712961.750265,0.0,0.0,1.3,0.0,-2.5,0.0,0.0,0.0,1.3,0.0,-2.5,0.0,0.0,0.0,1.3,0.0,-2.5,0.0,0.0,0.0,1.3,0.0,-2.5,0.0,-0.05166669673596151,-0.06987703544925039,-0.323377938069105,0.006655996975680978
1776712961.7702007,0.0,0.0,1.3,0.0,-2.5,0.0,0.0,0.0,1.3,0.0,-2.5,0.0,0.0,0.0,1.3,0.0,-2.5,0.0,0.0,0.0,1.3,0.0,-2.5,0.0,-0.05202347312670484,-0.07089858544612637,-0.3237034738017812,-0.043627478713805345
1776712961.790267,0.0,0.0,1.3,0.0,-2.5,0.0,0.0,0.0,1.3,0.0,-2.5,0.0,0.0,0.0,1.3,0.0,-2.5,0.0,0.0,0.0,1.3,0.0,-2.5,0.0,-0.057914889552694394,-0.578230564277874,-0.31964964172977517,0.4179464125027845
1776712961.8102775,0.0,0.0,1.3,0.0,-2.5,0.0,0.0,0.0,1.3,0.0,-2.5,0.0,0.0,0.0,1.3,0.0,-2.5,0.0,0.0,0.0,1.3,0.0,-2.5,0.0,-0.057235046165070316,-0.018538681908928822,-0.31952271202228155,0.10736386524155961
1776712961.8302052,0.0,0.0,1.3,0.0,-2.5,0.0,0.0,0.0,1.3,0.0,-2.5,0.0,0.0,0.0,1.3,0.0,-2.5,0.0,0.0,0.0,1.3,0.0,-2.5,0.0,-0.04830833948491063,1.0324080222813452,-0.3267861341710069,-0.8226101492363327
1776712961.8502781,0.0,0.0,1.3,0.0,-2.5,0.0,0.0,0.0,1.3,0.0,-2.5,0.0,0.0,0.0,1.3,0.0,-2.5,0.0,0.0,0.0,1.3,0.0,-2.5,0.0,-0.04977794136631231,0.23445159975812047,-0.32432636856087566,-0.04291023261245286
1776712961.8702564,0.0,0.0,1.3,0.0,-2.5,0.0,0.0,0.0,1.3,0.0,-2.5,0.0,0.0,0.0,1.3,0.0,-2.5,0.0,0.0,0.0,1.3,0.0,-2.5,0.0,-0.05293173248219862,-0.4642818048980777,-0.3225293976399894,0.3259398699283622
1776712961.8902001,0.0,0.0,1.3,0.0,-2.5,0.0,0.0,0.0,1.3,0.0,-2.5,0.0,0.0,0.0,1.3,0.0,-2.5,0.0,0.0,0.0,1.3,0.0,-2.5,0.0,-0.05784202431399238,-0.5964698105492534,-0.3202239992809871,0.29859973347793556
1776712961.9102018,0.0,0.0,1.3,0.0,-2.5,0.0,0.0,0.0,1.3,0.0,-2.5,0.0,0.0,0.0,1.3,0.0,-2.5,0.0,0.0,0.0,1.3,0.0,-2.5,0.0,-0.049202983152680034,0.7267327266412349,-0.3262225108418392,-0.5001947667814228
1776712961.930201,0.0,0.0,1.3,0.0,-2.5,0.0,0.0,0.0,1.3,0.0,-2.5,0.0,0.0,0.0,1.3,0.0,-2.5,0.0,0.0,0.0,1.3,0.0,-2.5,0.0,-0.048681324278804824,0.29339199107793923,-0.32621449095032684,-0.159775196842034
1776712961.9502132,0.0,0.0,1.3,0.0,-2.5,0.0,0.0,0.0,1.3,0.0,-2.5,0.0,0.0,0.0,1.3,0.0,-2.5,0.0,0.0,0.0,1.3,0.0,-2.5,0.0,-0.056327562538469135,-0.9363879858682767,-0.3183541034703614,0.9654058961049437
1776712961.9702454,0.0,0.0,1.3,0.0,-2.5,0.0,0.0,0.0,1.3,0.0,-2.5,0.0,0.0,0.0,1.3,0.0,-2.5,0.0,0.0,0.0,1.3,0.0,-2.5,0.0,-0.057297758527199066,-0.36608169250426026,-0.31801072261730473,0.28555716893769656
1776712961.9902,0.0,0.0,1.3,0.0,-2.5,0.0,0.0,0.0,1.3,0.0,-2.5,0.0,0.0,0.0,1.3,0.0,-2.5,0.0,0.0,0.0,1.3,0.0,-2.5,0.0,-0.04994967499728336,0.9222501294652385,-0.3269738839448554,-1.0871726575008616
1776712962.010277,0.0,0.0,1.3,0.0,-2.5,0.0,0.0,0.0,1.3,0.0,-2.5,0.0,0.0,0.0,1.3,0.0,-2.5,0.0,0.0,0.0,1.3,0.0,-2.5,0.0,-0.05024598175117867,0.20922201817459918,-0.3248229344824708,-0.018505250650102667
1776712962.0302017,0.0,0.0,1.3,0.0,-2.5,0.0,0.0,0.0,1.3,0.0,-2.5,0.0,0.0,0.0,1.3,0.0,-2.5,0.0,0.0,0.0,1.3,0.0,-2.5,0.0,-0.057580614133772134,-0.9164189613806863,-0.3175379532579349,0.9731615997773844
1776712962.050207,0.0,0.0,1.3,0.0,-2.5,0.0,0.0,0.0,1.3,0.0,-2.5,0.0,0.0,0.0,1.3,0.0,-2.5,0.0,0.0,0.0,1.3,0.0,-2.5,0.0,-0.056199774790287454,-0.05428645115861719,-0.3186883541837455,0.06938779017895058
1776712962.0701988,0.0,0.0,1.3,0.0,-2.5,0.0,0.0,0.0,1.3,0.0,-2.5,0.0,0.0,0.0,1.3,0.0,-2.5,0.0,0.0,0.0,1.3,0.0,-2.5,0.0,-0.05152026679965628,0.6855884896832756,-0.3260176048139704,-0.9746358075941828
1776712962.090236,0.0,0.0,1.3,0.0,-2.5,0.0,0.0,0.0,1.3,0.0,-2.5,0.0,0.0,0.0,1.3,0.0,-2.5,0.0,0.0,0.0,1.3,0.0,-2.5,0.0,-0.0489450277052184,0.4203515256607826,-0.32737209278601875,-0.3431769451316189
1776712962.110221,0.0,0.0,1.3,0.0,-2.5,0.0,0.0,0.0,1.3,0.0,-2.5,0.0,0.0,0.0,1.3,0.0,-2.5,0.0,0.0,0.0,1.3,0.0,-2.5,0.0,-0.05160566056203646,-0.31286818702440455,-0.3232331960905098,0.5663498796054274
1776712962.1302016,0.0,0.0,1.3,0.0,-2.5,0.0,0.0,0.0,1.3,0.0,-2.5,0.0,0.0,0.0,1.3,0.0,-2.5,0.0,0.0,0.0,1.3,0.0,-2.5,0.0,-0.05859208327895242,-0.7142418385697324,-0.3187310586109817,0.4980573070403249
1776712962.1502025,0.0,0.0,1.3,0.0,-2.5,0.0,0.0,0.0,1.3,0.0,-2.5,0.0,0.0,0.0,1.3,0.0,-2.5,0.0,0.0,0.0,1.3,0.0,-2.5,0.0,-0.05450660251136928,0.36686476008279145,-0.32184522399856774,-0.3361274798733209
1776712962.170239,0.0,0.0,1.3,0.0,-2.5,0.0,0.0,0.0,1.3,0.0,-2.5,0.0,0.0,0.0,1.3,0.0,-2.5,0.0,0.0,0.0,1.3,0.0,-2.5,0.0,-0.047133436308507345,1.0768639003645695,-0.3277571921631315,-0.8634972985762381
1776712962.1902,0.0,0.0,1.3,0.0,-2.5,0.0,0.0,0.0,1.3,0.0,-2.5,0.0,0.0,0.0,1.3,0.0,-2.5,0.0,0.0,0.0,1.3,0.0,-2.5,0.0,-0.05090664543943543,-0.20249278725179876,-0.32455994371837915,0.18802056970871384
1776712962.2102048,0.0,0.0,1.3,0.0,-2.5,0.0,0.0,0.0,1.3,0.0,-2.5,0.0,0.0,0.0,1.3,0.0,-2.5,0.0,0.0,0.0,1.3,0.0,-2.5,0.0,-0.05897667861289782,-1.0098796080609556,-0.3181850204404184,0.8043830689504468
1776712962.2302058,0.0,0.0,1.3,0.0,-2.5,0.0,0.0,0.0,1.3,0.0,-2.5,0.0,0.0,0.0,1.3,0.0,-2.5,0.0,0.0,0.0,1.3,0.0,-2.5,0.0,-0.0530420650149082,0.49024933074070653,-0.3235316955216757,-0.4721021050966421
1776712962.2503653,0.0,0.0,1.3,0.0,-2.5,0.0,0.0,0.0,1.3,0.0,-2.5,0.0,0.0,0.0,1.3,0.0,-2.5,0.0,0.0,0.0,1.3,0.0,-2.5,0.0,-0.04695022911361986,0.9754755937098878,-0.32798484507558745,-0.7368533054629758
1776712962.2702005,0.0,0.0,1.3,0.0,-2.5,0.0,0.0,0.0,1.3,0.0,-2.5,0.0,0.0,0.0,1.3,0.0,-2.5,0.0,0.0,0.0,1.3,0.0,-2.5,0.0,-0.05160391252029885,-0.35726647960711677,-0.3228160509477484,0.4771539291746745
