Abanesjo/go2_pendulum_ros2/src/go2_pendulum/go2_bridge/data/20260426_202610.csv
timestamp,pendulum_joint1_pos,pendulum_joint1_vel,pendulum_joint2_pos,pendulum_joint2_vel
1777235170.9057078,0.0,0.0,0.0,0.0
1777235170.9125443,-4.67728532615607e-06,1.5423583875878382e-08,-0.34944871274315686,-2.3043981824043996e-09
1777235170.9322953,-4.675450123465382e-06,2.3790865565908692e-08,-0.349448712752681,-2.464135464335135e-11
1777235170.9523714,-4.6736888001175214e-06,1.9392964698073553e-08,-0.3494487127849747,-1.3912708308948978e-09
1777235170.9722548,-4.6718349909288775e-06,2.3771483841364444e-08,-0.3494487127817943,-2.4360690262726306e-11
1777235170.9922538,-4.669938146528102e-06,2.3393952641723072e-08,-0.3494487127888095,1.345440915214779e-09
1777235171.0122657,-4.667948998210206e-06,2.1357521687511286e-08,-0.34944871276043,-9.343581010212048e-10
1777235171.0323002,-4.666243373288219e-06,2.0943742361136645e-08,-0.34944871279258904,-1.3893887808235533e-09
1777235171.0522506,-4.664341922623101e-06,3.0871365341267417e-08,-0.3494487127818774,8.79556695123695e-10
1777235171.0722814,-4.662551629434445e-06,2.0926452983057214e-08,-0.3494487127963647,-1.3876292993741273e-09
1777235171.092308,-4.660726919686614e-06,3.161759558495545e-08,-0.3494487128108706,-3.2390267266025405e-11
1777235171.1122944,-4.658954985881415e-06,3.4766021650162736e-08,-0.34944871279498957,-3.561435492953677e-11
1777235171.1322618,-4.6570502942395834e-06,2.527349511624921e-08,-0.3494487127969411,-2.590256799932575e-11
1777235171.1526554,-4.6552867630172164e-06,3.000019778920314e-08,-0.3494487127987478,-3.074047585143233e-11
1777235171.1722565,-4.653489271912577e-06,2.4002176038948006e-08,-0.34944871282076345,-3.2020814434629457e-09
1777235171.1922581,-4.651477020469197e-06,1.614202028915111e-08,-0.3494487128076921,-1.3775342634558157e-09
1777235171.2122657,-4.649763753030164e-06,2.996331928521585e-08,-0.3494487128044066,-3.070272826859509e-11
1777235171.2323735,-4.647831983092714e-06,2.8778168836801053e-08,-0.349448712791285,4.2353036731286266e-10
1777235171.2524848,-4.64618384623474e-06,3.547423281227478e-08,-0.349448712800529,8.69148576312439e-10
1777235171.2726245,-4.644116274581934e-06,2.6776100461106767e-08,-0.34944871281019374,-2.744000484382669e-11
1777235171.2922616,-4.642399955782002e-06,2.6766314404288088e-08,-0.34944871283958606,-2.6996359723186518e-11
1777235171.312248,-4.64053862743967e-06,2.7963512732757606e-08,-0.3494487128038163,1.3267976060960635e-09
1777235171.332487,-4.638537078798362e-06,1.8877185598765784e-08,-0.3494487128159105,-1.9344702637469907e-11
1777235171.3522887,-4.636854957528135e-06,2.0806661904917925e-08,-0.34944871281262,-1.3751659356996853e-09
1777235171.3722541,-4.635007763497698e-06,2.3577342911835702e-08,-0.34944871281952716,-2.4159517850664292e-11
1777235171.3921878,-4.6332242358602804e-06,2.8645221460311463e-08,-0.34944871280883427,-1.381825053401387e-09
1777235171.4124975,-4.631477624375811e-06,2.432468909077593e-08,-0.3494487128581822,-9.256353007613301e-10
1777235171.4323702,-4.629577866725133e-06,2.5923805156814732e-08,-0.3494487128526034,8.741596789563871e-10
1777235171.4523325,-4.62778151721631e-06,2.036168352063908e-08,-0.34944871285442664,-1.8202943143007973e-09
1777235171.47241,-4.625865462865367e-06,2.1961074726872255e-08,-0.3494487128288966,-2.251549959579938e-11
1777235171.492266,-4.623856642276866e-06,2.5890814613181772e-08,-0.3494487128059945,8.720120635375523e-10
1777235171.512343,-4.622158590292461e-06,3.2551838864678073e-08,-0.3494487128177288,1.313719622955189e-09
1777235171.532286,-4.620280190388543e-06,3.326333302033672e-08,-0.3494487128121818,-1.3805007793776141e-09
1777235171.5524392,-4.618578128791649e-06,3.091999672228061e-08,-0.3494487128762278,-4.80048622095653e-10
1777235171.5722725,-4.616637473766528e-06,2.6612035721143392e-08,-0.3494487128383542,-2.7273915479342814e-11
1777235171.5923042,-4.6149854184742505e-06,2.5036908802544744e-08,-0.3494487128400477,-2.5667200718105294e-11
1777235171.6122954,-4.613149472116225e-06,2.5788681132513237e-08,-0.3494487128493893,-9.216185138582362e-10
1777235171.6322207,-4.6113096126527625e-06,2.1889231801186888e-08,-0.34944871284381507,-2.2445333500643096e-11
1777235171.6522653,-4.609320901859991e-06,2.1880206236230293e-08,-0.3494487128458537,-2.2430234467508197e-11
1777235171.6727479,-4.607541370805847e-06,3.124408345566901e-08,-0.34944871284767787,-3.2027002292368053e-11
1777235171.6922653,-4.605710494793331e-06,2.1861720004181035e-08,-0.34944871284955453,-2.241202680990435e-11
1777235171.7122695,-4.604071156621328e-06,2.1853666641503246e-08,-0.3494487128512349,-2.2409806363855104e-11
1777235171.7322648,-4.602051005677316e-06,1.7163225440442526e-08,-0.3494487128533058,-1.7596323418290278e-11
1777235171.7524447,-4.600269710712612e-06,2.8473760855977407e-08,-0.3494487128402786,4.164067322976577e-10
1777235171.7724798,-4.598429168824503e-06,2.1825947618855853e-08,-0.34944871285701873,-2.238227283284441e-11
1777235171.792345,-4.596655762952648e-06,3.1167811734423643e-08,-0.3494487128415286,-3.194484578854572e-11
1777235171.8122754,-4.594844898387913e-06,2.0250376184711962e-08,-0.3494487128606932,-2.0760459038471987e-11
1777235171.8322077,-4.5929234196678415e-06,2.6510516947023072e-08,-0.34944871283303097,1.7505817250041515e-09
1777235171.8526094,-4.5911597557940044e-06,2.1790243633487593e-08,-0.34944871286447116,-2.2345857517636717e-11
1777235171.8725,-4.589452865470839e-06,2.7646447084634144e-08,-0.34944871289088253,1.3035619704582883e-09
1777235171.892219,-4.587550770033229e-06,2.4484194899077075e-08,-0.3494487128533829,-4.687492162402281e-10
1777235171.9122832,-4.585767318405659e-06,2.020897903987175e-08,-0.3494487128699994,-2.072448781247415e-11
1777235171.9322503,-4.583908877462203e-06,2.0957382907416642e-08,-0.3494487128792888,-9.0753866545994e-10
1777235171.9522521,-4.582087041389446e-06,3.2220971639980556e-08,-0.3494487128516334,-4.75914151551949e-10
1777235171.9723763,-4.5803469319405175e-06,2.173744387974201e-08,-0.3494487128755568,-2.2285461385097128e-11
1777235171.9922996,-4.57847130731414e-06,2.0533257396968147e-08,-0.3494487128823942,-1.3478420147960309e-09
1777235172.0122662,-4.576663214775983e-06,2.092296480349067e-08,-0.34944871288669904,-9.052516060292122e-10
1777235172.0322685,-4.574825366614585e-06,2.75564663598587e-08,-0.34944871287631085,1.296839347999578e-09
1777235172.05266,-4.573055423083315e-06,2.3251981553104007e-08,-0.3494487128830335,-2.384554677930041e-11
1777235172.0722141,-4.571316198304377e-06,2.6341177670995967e-08,-0.3494487128848168,-2.700968239948211e-11
1777235172.0924263,-4.5694055668745724e-06,1.703726928862301e-08,-0.349448712886776,-1.7463540744545168e-11
1777235172.1124482,-4.567676382146749e-06,3.096443358682843e-08,-0.3494487128885492,-3.1749890625421685e-11
1777235172.1327226,-4.565829252295216e-06,2.7856423885520983e-08,-0.34944871287332196,-2.8559997831068598e-11
1777235172.1522622,-4.564095534167558e-06,2.74891893140605e-08,-0.3494487128971092,1.291587993093101e-09
1777235172.1724048,-4.5622131045109525e-06,2.2756379790709297e-08,-0.3494487128697233,-2.2220556052032112e-09
1777235172.1925898,-4.56041918622182e-06,2.084575482128821e-08,-0.34944871292040147,-9.001099411575683e-10
1777235172.2122254,-4.5585942322763455e-06,2.16303802769196e-08,-0.3494487128978627,-2.2181988599202102e-11
1777235172.2325275,-4.556846433637029e-06,2.6651109196725146e-08,-0.34944871293134977,4.1152796823824476e-10
1777235172.2522576,-4.554980069014791e-06,2.545173256761816e-08,-0.3494487129088781,-9.031621662968677e-10
1777235172.2725093,-4.553089241537471e-06,3.130072591292742e-08,-0.349448712905943,2.1594848585793738e-09
1777235172.2922063,-4.551372809510725e-06,2.6222890758714563e-08,-0.3494487129052686,-2.689199875887188e-11
1777235172.3122013,-4.549640150870817e-06,2.700451021600265e-08,-0.3494487129143419,8.478380673993639e-10
1777235172.3322115,-4.5478864140387655e-06,2.466073129867767e-08,-0.34944871290884433,-2.5291057157362413e-11
1777235172.3522625,-4.5460458194908205e-06,2.310923211746636e-08,-0.34944871291073215,-2.3718537265283342e-11
1777235172.372239,-4.544381498957899e-06,3.1987181623845935e-08,-0.34944871291729307,1.2777377388162973e-09
1777235172.3922842,-4.542495221755619e-06,2.463051149237894e-08,-0.34944871291437385,-2.5263523626351716e-11
1777235172.4127266,-4.5405987719676065e-06,3.077473986991059e-08,-0.34944871289935,-3.156914631701267e-11
1777235172.432576,-4.538817350267773e-06,2.0743306400054744e-08,-0.34944871292541313,-8.933171526037016e-10
1777235172.452204,-4.537046455168451e-06,2.885954605900245e-08,-0.3494487129151203,1.2778500933863894e-09
1777235172.4722576,-4.535223319626286e-06,2.151574095492466e-08,-0.3494487129218328,-2.207585127804798e-11
1777235172.4924462,-4.533393660125938e-06,3.41923556620845e-08,-0.34944871289227686,4.0013041866744305e-10
1777235172.5122573,-4.531666357058006e-06,3.4572203962277837e-08,-0.3494487129182331,8.343448608472795e-10
1777235172.5323064,-4.529943637929244e-06,1.6448597057985293e-08,-0.34944871292966345,-2.190053204473786e-09
1777235172.5526547,-4.528035785775904e-06,2.726653428286166e-08,-0.34944871292437873,1.2753094590168372e-09
1777235172.572339,-4.5263831384077795e-06,2.3358070687610983e-08,-0.3494487129550186,-1.326137154664609e-09
1777235172.5927398,-4.524557158767969e-06,2.685046489509699e-08,-0.34944871292554386,8.400900429551098e-10
1777235172.6122792,-4.522780301827388e-06,2.263624173763915e-08,-0.34944871295868285,1.2775951861799355e-09
1777235172.6322653,-4.520924678856731e-06,2.065836230961048e-08,-0.34944871296057034,-8.876727787465075e-10
1777235172.6523187,-4.519158808531557e-06,2.913588848691312e-08,-0.34944871294793434,1.702257713545107e-09
1777235172.6722639,-4.517466284030217e-06,1.9855432861929018e-08,-0.3494487129496645,-1.7511367457400569e-09
1777235172.692258,-4.515549045568375e-06,2.2598735662441804e-08,-0.34944871294681995,1.2740398079658759e-09
1777235172.7122703,-4.513845053190635e-06,2.5998898884038014e-08,-0.3494487129437637,-2.6677947759724217e-11
1777235172.7323844,-4.512150457611143e-06,3.022452625915397e-08,-0.34944871295030067,1.264552730175849e-09
1777235172.7522604,-4.510154781450606e-06,2.257191623813592e-08,-0.34944871294275337,1.2718317964145014e-09
1777235172.7724314,-4.508499922486245e-06,2.7144825597312424e-08,-0.3494487129540397,1.2660564162404013e-09
1777235172.7922635,-4.50671797667441e-06,2.3252749583850817e-08,-0.34944871294628665,-1.3169485048236016e-09
1777235172.8122785,-4.5049498311809126e-06,3.510384647876008e-08,-0.34944871295289,-3.6023361091808954e-11
1777235172.8323803,-4.503284355373314e-06,2.6328040145545435e-08,-0.3494487129689508,4.035401356206717e-10
1777235172.8523374,-4.501288369726913e-06,2.1349407661608044e-08,-0.3494487129566469,-2.190576511067547e-11
1777235172.872272,-4.49946701658504e-06,3.2839138218778305e-08,-0.3494487129489596,2.546435774333288e-09
1777235172.8924026,-4.497878369828971e-06,2.2812862821330513e-08,-0.3494487129911788,-1.7420728849670173e-09
1777235172.9124582,-4.496079479078087e-06,2.3630104122201093e-08,-0.34944871297869107,8.347534229203416e-10
1777235172.932354,-4.494065529501848e-06,1.9356889118145463e-08,-0.34944871296167446,-2.1657331029855573e-09
1777235172.9522643,-4.49256243815088e-06,2.587281958843408e-08,-0.34944871296560054,-2.6550050067287438e-11
1777235172.972334,-4.490672778439233e-06,3.0816351447389216e-08,-0.34944871295325364,3.9696273033358235e-10
1777235172.9923787,-4.488852241718614e-06,2.128848824037391e-08,-0.3494487129694078,-2.1855138940752582e-11
1777235173.0122535,-4.487078550940039e-06,2.1279801238199726e-08,-0.34944871297122804,-2.1846701245765438e-11
1777235173.0325556,-4.485271819795335e-06,2.1271675726075417e-08,-0.3494487129730821,-2.1839595818407837e-11
1777235173.0522692,-4.4835164662451785e-06,1.670641466095213e-08,-0.34944871297488345,-1.7149569673181332e-11
1777235173.0722592,-4.48186785350691e-06,2.6980063996058856e-08,-0.34944871300030966,1.2541357295803959e-09
1777235173.0922318,-4.479997527559305e-06,2.0464459202301615e-08,-0.34944871298561,-8.748332715113224e-10
1777235173.1122649,-4.4782209470986756e-06,2.123642418729972e-08,-0.349448712980318,-2.178186422112734e-11
1777235173.1322572,-4.476482391804498e-06,3.0716047816048846e-08,-0.3494487129513061,3.9487462286886746e-10
1777235173.152262,-4.474733486249662e-06,2.2734804004358774e-08,-0.3494487129838971,-2.3343281882960168e-11
1777235173.1722648,-4.472910233411034e-06,2.194649904553952e-08,-0.3494487129621083,-8.743332270610312e-10
1777235173.192213,-4.471215172760709e-06,2.120241116408041e-08,-0.34944871298750824,-2.1766765187992452e-11
1777235173.2127569,-4.469500811237923e-06,2.5735187388140118e-08,-0.34944871297272695,-2.6420820107221024e-11
1777235173.2327387,-4.467766724320511e-06,2.416786798506695e-08,-0.34944871298160174,-1.7253134022764858e-09
1777235173.2523034,-4.46606744203079e-06,2.57145074917394e-08,-0.34944871300931124,-2.6399947914358252e-11
1777235173.2722747,-4.464086314986965e-06,2.1167225894180944e-08,-0.34944871299482494,-2.173701121093251e-11
1777235173.292817,-4.462692182738326e-06,3.022823623956992e-08,-0.34944871299625585,-3.103934788966178e-11
1777235173.3122678,-4.460563188525658e-06,2.4171741212374152e-08,-0.3494487129654646,-2.4812773078353877e-11
1777235173.3326218,-4.458935765395844e-06,3.3223184407834405e-08,-0.34944871298598773,-3.426387964238309e-11
1777235173.352441,-4.456960062269063e-06,2.1520913701744982e-08,-0.34944871297391267,4.0119978548476175e-10
1777235173.3724556,-4.455441313155094e-06,3.134313081375992e-08,-0.3494487130107524,1.2372701095687102e-09
1777235173.3922868,-4.453574226192564e-06,3.0165610095614186e-08,-0.3494487130056152,-3.096562908082668e-11
1777235173.4122694,-4.4517792670125435e-06,2.524151036189984e-08,-0.34944871300511104,-4.4872612194650864e-10
1777235173.4323108,-4.4499955765330325e-06,1.8770610575864006e-08,-0.34944871300694175,-2.5533301685398033e-09
1777235173.4522583,-4.4483451224219616e-06,2.6772768650456442e-08,-0.3494487130344304,1.2388515112449863e-09
1777235173.4722605,-4.446571224198154e-06,1.9918791955799847e-08,-0.3494487130362376,-1.285681959914898e-09
1777235173.4925604,-4.444936407947321e-06,3.6513360314093693e-08,-0.34944871305195224,3.841827310525171e-10
1777235173.5124376,-4.4430962910327e-06,1.990273985408793e-08,-0.34944871302573344,-1.283964222851198e-09
1777235173.5323386,-4.441299232154663e-06,2.5567562726769337e-08,-0.34944871301821623,-2.6250289850638743e-11
1777235173.5522633,-4.4395115267845136e-06,1.954339727674675e-08,-0.34944871302005154,-2.006590351426677e-11
1777235173.5722682,-4.437757960133105e-06,2.2540924430220487e-08,-0.3494487130218518,-2.314388582773756e-11
1777235173.5922072,-4.4359066144204526e-06,2.553582224932192e-08,-0.349448713007413,-2.621565089227036e-11
1777235173.6123116,-4.434186230255795e-06,2.552584372378162e-08,-0.3494487130255188,-2.62063250188636e-11
1777235173.6323512,-4.432336419097589e-06,2.8517077532259825e-08,-0.3494487130110992,-2.927586963734715e-11
1777235173.652268,-4.430700818379652e-06,2.1003872901081825e-08,-0.34944871302909725,-2.15642605083009e-11
1777235173.6722445,-4.4290341553226185e-06,2.5494711530583723e-08,-0.3494487130308085,-2.61743505957544e-11
1777235173.692227,-4.427297726801751e-06,2.5098213305394267e-08,-0.3494487130465518,-4.445827696186076e-10
1777235173.712588,-4.425514573721608e-06,3.2966904664225796e-08,-0.349448713001865,-3.3857982104580017e-11
1777235173.7322106,-4.423709470715006e-06,2.2127104943662473e-08,-0.34944871304092273,1.2320382945874666e-09
1777235173.7522907,-4.422034807033894e-06,2.4681749107190648e-08,-0.34944871303102704,-8.614817294171805e-10
1777235173.772618,-4.420258625667279e-06,2.80514194530318e-08,-0.34944871300964536,-4.4661003686157304e-10
1777235173.7922716,-4.418515296826533e-06,1.901741906853398e-08,-0.34944871302305325,-2.1072785284714133e-09
1777235173.8122642,-4.416928643828239e-06,2.69185698423025e-08,-0.34944871304323805,-2.764384179114828e-11
1777235173.8322449,-4.415044472317595e-06,3.3656592658129423e-08,-0.3494487130196897,7.991938676200174e-10
1777235173.8522563,-4.413428294556403e-06,2.424652666852913e-08,-0.34944871305146324,-1.2751752532990555e-09
1777235173.872324,-4.411550195762139e-06,2.0140783740787118e-08,-0.34944871304182,-8.536275676517723e-10
1777235173.8923042,-4.409739527978793e-06,1.936247182226475e-08,-0.3494487130413724,-1.6846512619549845e-09
1777235173.9122806,-4.4080213362092505e-06,2.758610338159115e-08,-0.3494487130593156,-8.600282254333412e-10
1777235173.9323692,-4.406434557006744e-06,2.4975588816557065e-08,-0.3494487130840317,-4.412729727375952e-10
1777235173.9523458,-4.404547228613582e-06,2.010733022146772e-08,-0.3494487130790268,-8.512876616050724e-10
1777235173.9722595,-4.4028362501879486e-06,2.2357967357307607e-08,-0.3494487130577095,-2.2964917876168047e-11
1777235173.9922557,-4.401153945210758e-06,2.6818962963838878e-08,-0.34944871307556985,-2.7552359413919284e-11
1777235174.0122147,-4.3992660445216194e-06,2.4980485638728734e-08,-0.3494487130406492,1.217935797639468e-09
1777235174.0323951,-4.397560591433979e-06,1.5224697453715966e-08,-0.3494487130677313,-1.2586418120163376e-09
1777235174.0522728,-4.396120386089601e-06,3.086842814900331e-08,-0.34944871309451203,-4.454487435778153e-10
1777235174.0722497,-4.394208039838881e-06,2.8263036683125502e-08,-0.34944871306657055,-2.903650555323812e-11
1777235174.0922656,-4.392448659447832e-06,2.0817201428951608e-08,-0.3494487130867553,-2.1121503566080457e-11
1777235174.1122544,-4.390796839106245e-06,2.3398297200676883e-08,-0.3494487130884417,-4.370732210800432e-10
1777235174.132594,-4.389067113630169e-06,3.009739113107256e-08,-0.34944871308561753,3.8208796224965435e-10
1777235174.152287,-4.3874203367353286e-06,2.5247692345576548e-08,-0.34944871307354214,-2.5930989708756644e-11
1777235174.1723342,-4.385614793320204e-06,3.304229723927558e-08,-0.3494487131120587,3.785872070084062e-10
1777235174.1923685,-4.383684290281267e-06,2.5226051274615477e-08,-0.34944871307737924,-2.591677885404145e-11
1777235174.2124667,-4.382007416996346e-06,2.5597860845987216e-08,-0.34944871309283254,3.8563268232267755e-10
1777235174.232268,-4.380223336536079e-06,2.520551875770564e-08,-0.3494487130809343,-2.5894574393548952e-11
1777235174.2524018,-4.378518618900181e-06,2.8159592237787365e-08,-0.34944871308268527,-2.8932588678133234e-11
1777235174.2722597,-4.3769791968437245e-06,2.518560729271175e-08,-0.34944871308426656,-2.5879919449623907e-11
1777235174.2924762,-4.375111232838442e-06,2.961757270016777e-08,-0.34944871308618536,-3.0422063887970354e-11
1777235174.3123422,-4.373326063995095e-06,2.8171773645003578e-08,-0.3494487130788938,1.61333373425394e-09
1777235174.3326278,-4.371599712403854e-06,2.0715002894058874e-08,-0.34944871308979253,-2.1277822967947717e-11
1777235174.3524668,-4.369873801724584e-06,2.070657319687201e-08,-0.34944871309156544,-2.128359612767577e-11
1777235174.3722756,-4.368214302762977e-06,2.0698748075061996e-08,-0.3494487130932701,-2.125739486429462e-11
1777235174.3922315,-4.3665681621053075e-06,2.8842954775513807e-08,-0.34944871310861336,7.898475661095128e-10
1777235174.412289,-4.364842444060663e-06,2.0300928445162713e-08,-0.34944871311719794,-4.29894519002817e-10
1777235174.4324532,-4.362997295165549e-06,2.696078182571623e-08,-0.3494487130849958,3.8130059208059014e-10
1777235174.4522538,-4.361254777356223e-06,2.0664478112719385e-08,-0.3494487131004196,-2.1229417244074077e-11
1777235174.4726763,-4.359508486779082e-06,2.3606800721569643e-08,-0.3494487131022135,-2.425766156604166e-11
1777235174.4923742,-4.35781207548881e-06,2.0647666892158687e-08,-0.3494487131039563,-2.121565047856873e-11
1777235174.5123131,-4.356096527148542e-06,2.4301503105878975e-08,-0.34944871312838255,-8.40830692980733e-10
1777235174.5322917,-4.3545422537983254e-06,2.876025852873827e-08,-0.34944871311411135,7.859435778657209e-10
1777235174.5523086,-4.352706600156104e-06,2.0955069045336327e-08,-0.3494487131137291,-1.2439850917344464e-09
1777235174.5728085,-4.351048540403274e-06,2.4271828961660757e-08,-0.3494487131448366,-8.392031060266325e-10
1777235174.5923665,-4.34932677178992e-06,2.5401588708813207e-08,-0.34944871314206194,3.810443526065066e-10
1777235174.612398,-4.347498654385228e-06,1.831891133535294e-08,-0.3494487131122925,-2.458851521411832e-09
1777235174.6325006,-4.345889295423266e-06,2.647188312297834e-08,-0.349448713132011,-2.7205525741026482e-11
1777235174.6525826,-4.344068986615659e-06,3.091881170901195e-08,-0.3494487131090508,1.5926653783383082e-09
1777235174.672328,-4.342358755127873e-06,1.9434182488363413e-08,-0.34944871312434356,-1.2377389769979052e-09
1777235174.6927266,-4.340665011129142e-06,2.497028011316304e-08,-0.34944871312157366,-2.565787484469894e-11
1777235174.7122598,-4.3389151105819625e-06,1.5013739434013492e-08,-0.3494487131278762,-1.2316283094703684e-09
1777235174.7322602,-4.337204599261045e-06,2.419262332868909e-08,-0.3494487131318804,-8.34986923068316e-10
1777235174.7522671,-4.33553106342102e-06,2.7543716434435417e-08,-0.3494487131223503,1.186335297644957e-09
1777235174.772345,-4.333881863090763e-06,2.0531010702384734e-08,-0.3494487131555158,-2.1065992414849305e-11
1777235174.7923558,-4.332043597577728e-06,2.6055371797501405e-08,-0.34944871310796966,1.1860475278369742e-09
1777235174.8122766,-4.330371078851376e-06,2.0513707887144034e-08,-0.3494487131321512,-2.1089973232181215e-11
1777235174.8322346,-4.328751714722234e-06,2.6412709975022646e-08,-0.3494487131427887,1.5881991731548462e-09
1777235174.8522704,-4.327043770709736e-06,2.0497638891380313e-08,-0.34944871316247333,-2.1043343865146965e-11
1777235174.872331,-4.325288496522363e-06,3.5550980971467724e-08,-0.34944871313961445,1.980165632444807e-09
1777235174.892272,-4.323522433031751e-06,2.486934654196968e-08,-0.34944871313918896,-2.5559287040112258e-11
1777235174.912271,-4.321856968371896e-06,2.3445664775186828e-08,-0.34944871314985093,1.5870973878252082e-09
1777235174.9323008,-4.320126658831909e-06,2.046371595336755e-08,-0.3494487131426787,-2.1036682526999227e-11
1777235174.9525018,-4.318340513469805e-06,2.3377461867082954e-08,-0.3494487131445142,-2.401829748193255e-11
1777235174.9723396,-4.31671740265462e-06,2.0447082963006274e-08,-0.34944871314618225,-2.101003717440823e-11
1777235174.9925022,-4.314965150403962e-06,2.0438533985440383e-08,-0.3494487131479832,-2.1014922155716584e-11
1777235175.0123374,-4.313294701701415e-06,2.4808750241538116e-08,-0.34944871314969994,-2.549311774784462e-11
1777235175.0324419,-4.311717987369027e-06,2.955179317165589e-08,-0.34944871314686304,3.7052387922515856e-10
1777235175.0522668,-4.3098052674101464e-06,2.4083374441578093e-08,-0.3494487131310117,7.77093324002619e-10
1777235175.0724168,-4.308435210420641e-06,2.7269781046363276e-08,-0.34944871315692055,-2.0314183214664063e-09
1777235175.092328,-4.3065749169294175e-06,2.6554068985992616e-08,-0.3494487131521572,-1.2285267904287755e-09
1777235175.112282,-4.304891633942731e-06,2.21736533455619e-08,-0.3494487131538903,-1.223253231061806e-09
1777235175.1322625,-4.303076989102765e-06,3.574037675837681e-08,-0.3494487131357614,2.3629763044952887e-09
1777235175.1522782,-4.3013938375003724e-06,2.4738257007471792e-08,-0.3494487131619314,-2.5424728009527728e-11
1777235175.1726353,-4.2996696038609044e-06,2.4400793634565676e-08,-0.34944871314373355,1.1730987746561659e-09
1777235175.192265,-4.298070147125823e-06,1.8477677603938007e-08,-0.3494487131542594,-2.014776522416485e-09
1777235175.2122843,-4.296319974005937e-06,2.0347585968094034e-08,-0.34944871316714643,-2.0921219332438253e-11
1777235175.232443,-4.29468117529411e-06,2.9056767482284296e-08,-0.34944871316883097,-2.986695237565792e-11
1777235175.2523465,-4.292822278768826e-06,2.2859998226996545e-08,-0.34944871314196885,-4.2190402184998477e-10
1777235175.2722607,-4.2913555743275215e-06,2.252533320378394e-08,-0.3494487131877324,7.73275044976328e-10
1777235175.292305,-4.289537206421026e-06,1.4836451858429391e-08,-0.3494487131851706,-1.2087959068351375e-09
1777235175.3124313,-4.287890928718508e-06,2.7608289680999522e-08,-0.3494487131846471,1.56227191281617e-09
1777235175.3322997,-4.286242672512159e-06,3.372266925322576e-08,-0.3494487131642597,3.6270213597206936e-10
1777235175.3526165,-4.284579072878285e-06,2.38887006506492e-08,-0.3494487132123079,-8.186919576912878e-10
1777235175.3723211,-4.282756592613803e-06,2.5751579126706444e-08,-0.34944871317667864,1.1642338658491391e-09
1777235175.3925917,-4.281183320842058e-06,2.8263091063935184e-08,-0.34944871317389076,7.640180053970035e-10
1777235175.412239,-4.279530221296297e-06,3.147193792209765e-08,-0.34944871317119225,-4.287496570198236e-10
1777235175.4322689,-4.277821081705824e-06,2.3849779972784263e-08,-0.3494487132191703,-8.166225019733865e-10
1777235175.4522283,-4.276096730303053e-06,3.004920420957197e-08,-0.34944871320772863,1.1567389722544994e-09
1777235175.4722648,-4.27443969750733e-06,2.6397689869901867e-08,-0.34944871320721993,3.686387205293449e-10
1777235175.4923508,-4.272797033879707e-06,2.2002021681562114e-08,-0.3494487131957208,-1.2088309898827156e-09
1777235175.5122998,-4.270978729962638e-06,2.1669095674771424e-08,-0.3494487131931968,-2.2285017295887844e-11
1777235175.5322535,-4.269407833374879e-06,2.3801127742997065e-08,-0.3494487131882304,-8.142102093854809e-10
1777235175.5522878,-4.267594331919256e-06,2.5981440764236215e-08,-0.34944871316379406,-2.679474322191521e-11
1777235175.5725129,-4.2659916900392825e-06,2.233931710358962e-08,-0.34944871319175075,-8.117477347168623e-10
1777235175.5922093,-4.264239909866909e-06,3.3545251398011204e-08,-0.34944871317166415,3.5956242525842947e-10
1777235175.6122627,-4.26262254574631e-06,2.4881019047603555e-08,-0.3494487131995989,3.6804319689893606e-10
1777235175.6322472,-4.260900629118834e-06,2.049744793487689e-08,-0.34944871319262577,-1.201880549659352e-09
1777235175.6523073,-4.259230065623277e-06,1.8726071599353527e-08,-0.3494487132052756,-1.9258993419969536e-11
1777235175.672281,-4.257505975194867e-06,1.9040775966303236e-08,-0.34944871321141624,-1.1988776184223462e-09
1777235175.692775,-4.255776117702989e-06,2.8091524011147815e-08,-0.349448713202281,7.566558944761092e-10
1777235175.7125878,-4.25419554883888e-06,2.0463981966273813e-08,-0.3494487132148144,-1.1988269922524233e-09
1777235175.732341,-4.2524413178488075e-06,2.3009919584300883e-08,-0.3494487132122561,-2.365902931116397e-11
1777235175.7522538,-4.250835716269695e-06,1.8688086666629093e-08,-0.34944871321390714,-1.9223910372391398e-11
1777235175.7722096,-4.249190823573056e-06,2.4428719272469214e-08,-0.3494487132155984,-2.5120970989990382e-11
1777235175.7922611,-4.247434866763404e-06,2.0109286740866807e-08,-0.349448713217404,-2.068318751595871e-11
1777235175.812266,-4.245715129260311e-06,1.9730084393630126e-08,-0.3494487132061286,-4.1160559307356197e-10
1777235175.8322554,-4.244068708812906e-06,2.439892279856013e-08,-0.3494487132208653,-2.5094769726609238e-11
1777235175.8522756,-4.242479020878015e-06,2.077695180505303e-08,-0.3494487132442097,-8.028832699990453e-10
1777235175.8725486,-4.2407690344331144e-06,2.5813215872042538e-08,-0.3494487132242585,-2.65464973536091e-11
1777235175.8922698,-4.2393525472514e-06,2.1132195776492665e-08,-0.3494487132690821,-4.1186760570737366e-10
1777235175.9124851,-4.237432476731122e-06,2.7275866154326166e-08,-0.34944871323635707,1.532235050929541e-09
1777235175.932278,-4.235678331318591e-06,2.4720080701606752e-08,-0.34944871320134097,3.6414897861776076e-10
1777235175.952324,-4.234078029832072e-06,2.4019754957419635e-08,-0.34944871322681037,1.1440326917822694e-09
1777235175.972223,-4.232567874286933e-06,1.929581127764069e-08,-0.3494487132543197,-7.983993012471894e-10
1777235175.992313,-4.2308858391086426e-06,2.8612563374624113e-08,-0.34944871323442195,-2.942641587948677e-11
1777235176.012267,-4.2291582319321275e-06,1.784988817789628e-08,-0.34944871325779836,-7.959199511885965e-10
1777235176.0324259,-4.227274945224357e-06,2.7528647999769615e-08,-0.349448713233819,3.5991947298314876e-10
1777235176.0523314,-4.2258143512945535e-06,2.82578905939368e-08,-0.34944871324395155,1.135696249134964e-09
1777235176.07228,-4.224058061879293e-06,2.2163014233913623e-08,-0.34944871323497717,7.531964395313771e-10
1777235176.0922213,-4.222312789321546e-06,1.998708997331709e-08,-0.3494487132367762,-2.079110119395224e-11
1777235176.1122134,-4.220766463080006e-06,1.9240559943391563e-08,-0.34944871323836957,-7.949482839974444e-10
1777235176.132351,-4.219187818890817e-06,2.673547665017207e-08,-0.3494487132636673,-4.1460763613214855e-10
1777235176.1522498,-4.2175220706060644e-06,1.8486449002591403e-08,-0.34944871327181937,-1.5670746468442922e-09
1777235176.1722603,-4.21570802665276e-06,2.2805343716878445e-08,-0.34944871326507354,-2.346762686171874e-11
1777235176.192332,-4.214189416128006e-06,2.4221367511992404e-08,-0.3494487132515939,-2.4915357685829868e-11
1777235176.212258,-4.212436899254889e-06,2.600459505054523e-08,-0.3494487132662735,3.595606489015899e-10
1777235176.2323098,-4.210715910817751e-06,2.4201661249837283e-08,-0.3494487132551666,-2.488738006560932e-11
1777235176.2523086,-4.209150236764339e-06,2.4191901141703537e-08,-0.34944871325677695,-2.488560370876992e-11
1777235176.2722511,-4.20750232414389e-06,3.2400408940977196e-08,-0.34944871326275545,1.1232195627842265e-09
1777235176.292261,-4.205953966753767e-06,2.0960544816912937e-08,-0.34944871327290855,-4.0688092796996726e-10
1777235176.3122172,-4.204130142832399e-06,2.8426811648896396e-08,-0.34944871323412985,-2.934603573250388e-11
1777235176.3324003,-4.2025620037835806e-06,2.983656934095644e-08,-0.3494487132635535,-3.069429057360875e-11
1777235176.352393,-4.200666924843061e-06,2.309010488145773e-08,-0.34944871323132,3.6072904761270543e-10
1777235176.3725302,-4.19929666772628e-06,2.3081770395199038e-08,-0.3494487133010745,3.606526642686111e-10
1777235176.3923047,-4.1975549308348145e-06,1.5190268920524376e-08,-0.3494487132708381,-1.9358489912390433e-09
1777235176.4122655,-4.195795239901406e-06,2.411345293522915e-08,-0.3494487132705141,-2.4806555829416635e-11
1777235176.4323354,-4.1942098890435224e-06,2.053295213555779e-08,-0.34944871327853755,-7.882025688998221e-10
1777235176.4527013,-4.192400317780173e-06,1.9841539971544658e-08,-0.34944871327400656,-2.0419398525307873e-11
1777235176.4727278,-4.190853020922564e-06,3.0118574096421085e-08,-0.3494487132628294,3.5208174251850496e-10
1777235176.49227,-4.189181298614942e-06,1.5577517014372614e-08,-0.3494487132773182,-1.602113899095286e-11
1777235176.5123115,-4.187491336179328e-06,2.831178065316102e-08,-0.3494487132556744,-2.9036505553238533e-11
1777235176.5323036,-4.185977332481891e-06,2.091045519905505e-08,-0.34944871330185523,1.125652727564995e-09
1777235176.5525541,-4.184356508632073e-06,2.2264666227878446e-08,-0.3494487133098788,-4.0479859366498037e-10
1777235176.5722537,-4.182624918362009e-06,2.330275058390942e-08,-0.34944871327557847,-7.878814924011005e-10
1777235176.5922592,-4.180968491848016e-06,2.2664740220998087e-08,-0.3494487132942474,1.5032244792068759e-09
1777235176.6125205,-4.179296757307758e-06,1.517352598665538e-08,-0.34944871330443683,-3.96835630043159e-10
1777235176.6323128,-4.177529831401943e-06,2.8660557352902294e-08,-0.34944871326389776,1.876131073699282e-09
1777235176.652427,-4.176142400292445e-06,2.258531021854643e-08,-0.34944871329073246,-2.323980909706565e-11
1777235176.6722398,-4.17449210533535e-06,2.2889708630588036e-08,-0.34944871329666005,-1.165622886121144e-09
1777235176.6923666,-4.172590866386608e-06,1.7916781073470222e-08,-0.3494487132774811,-1.920483504578231e-09
1777235176.7123895,-4.171150004320879e-06,1.6918388419465328e-08,-0.3494487132958687,-1.7407585504104787e-11
1777235176.7323174,-4.169403726676037e-06,1.55018928841982e-08,-0.34944871329766547,-1.5958522412364036e-11
1777235176.7525017,-4.1676674708326426e-06,2.676499200403756e-08,-0.3494487132846884,-2.7542589451302845e-11
1777235176.7722578,-4.166195039392579e-06,1.971401120362366e-08,-0.349448713300967,-2.0287504029982453e-11
1777235176.7922602,-4.164420768272178e-06,2.7473589381738456e-08,-0.34944871327962135,7.299186154186663e-10
1777235176.8122342,-4.162868462617501e-06,1.8967750050741163e-08,-0.3494487133254397,-7.772810829619796e-10
1777235176.8323123,-4.161230206977624e-06,2.677431588820449e-08,-0.3494487132976606,1.4870285457236439e-09
1777235176.8522348,-4.159550969049829e-06,2.3899277956932868e-08,-0.34944871330780336,-2.459472527631822e-11
1777235176.872305,-4.1579146373414035e-06,2.5660047688699055e-08,-0.3494487132968812,3.517659950903015e-10
1777235176.8929667,-4.15636568625722e-06,2.3879966295647197e-08,-0.3494487133110808,-2.4571632637406023e-11
1777235176.9122732,-4.1547514611056034e-06,2.3870300009090752e-08,-0.34944871333792205,-2.4546763641654426e-11
1777235176.93223,-4.153101474047707e-06,2.3496537652644534e-08,-0.34944871332702127,-4.016282407958608e-10
1777235176.9523427,-4.1515289632051346e-06,2.4578908378311296e-08,-0.3494487133391096,7.292604752096683e-10
1777235176.9723537,-4.149732258069869e-06,1.4335268896117535e-08,-0.3494487133283781,-1.1455580474416986e-09
1777235176.992271,-4.148148641325544e-06,1.8223899533033505e-08,-0.3494487133195364,-1.875850488046872e-11
1777235177.0122643,-4.146541154369782e-06,1.9254797463286835e-08,-0.34944871333373995,-3.962925089395123e-10
1777235177.0323536,-4.144824186082283e-06,1.81560751421884e-08,-0.34944871331459665,-1.5237901597386265e-09
1777235177.052234,-4.143289460913301e-06,2.7692943630126802e-08,-0.34944871331409155,1.0993937325865608e-09
1777235177.0722234,-4.14162372372923e-06,2.7681428353377896e-08,-0.3494487133304256,1.0986854102968498e-09
1777235177.092257,-4.140050763102597e-06,2.4509329331177233e-08,-0.34944871331326494,7.256402599709707e-10
1777235177.1125605,-4.138360450549611e-06,2.413659422643323e-08,-0.34944871331084454,3.503724431497919e-10
1777235177.1322494,-4.136793680846183e-06,2.2675661628466877e-08,-0.34944871332288785,-1.1487195185266212e-09
1777235177.1526444,-4.135044056155879e-06,2.5514388461716353e-08,-0.34944871330595395,3.485316933749635e-10
1777235177.172344,-4.133436341504018e-06,2.6229130556971307e-08,-0.34944871333051497,1.0967700535347665e-09
1777235177.1923673,-4.131764612579956e-06,2.3735172105595206e-08,-0.34944871333639743,-2.443574133919195e-11
1777235177.2128148,-4.130194674387687e-06,3.10659399855136e-08,-0.34944871335048294,3.4210305797317395e-10
1777235177.2322528,-4.1285305622682884e-06,1.5292270184425412e-08,-0.34944871331480476,-1.5110661156980025e-09
1777235177.2526336,-4.1269507060632625e-06,2.7890012008540882e-08,-0.3494487133413521,-2.870255046743136e-11
1777235177.2723699,-4.125258442541753e-06,1.4247588316733916e-08,-0.3494487133472425,-1.134829296220931e-09
1777235177.2925537,-4.123635964479638e-06,1.8059888915642975e-08,-0.34944871333647237,-1.5111553776291824e-09
1777235177.3122919,-4.122064885226775e-06,2.9302383175528126e-08,-0.3494487133380947,1.4611914354945672e-09
1777235177.3324995,-4.120464667805159e-06,1.773740054184219e-08,-0.349448713372869,-3.907760327747549e-10
1777235177.3522015,-4.11871521961454e-06,1.9483594028707075e-08,-0.3494487133250023,-2.007345303083481e-11
1777235177.372263,-4.1171469595673746e-06,1.9475208914326897e-08,-0.3494487133514426,-2.0044587232194556e-11
1777235177.3922007,-4.115677438755071e-06,3.059256641962266e-08,-0.3494487133674188,-3.148876617003075e-11
1777235177.4124217,-4.113937282589598e-06,2.6102345555847037e-08,-0.3494487133588757,1.0880348187770157e-09
1777235177.4323647,-4.112303940244476e-06,1.245093688954605e-08,-0.3494487133481735,-1.4986609277100509e-09
1777235177.4522686,-4.110620959653869e-06,2.3610479353100062e-08,-0.34944871333341354,-2.4328271750408272e-11
1777235177.472292,-4.1090873221847e-06,2.4268099297175406e-08,-0.3494487133762264,-7.670577052620213e-10
1777235177.4926682,-4.107479893489647e-06,3.366657346774544e-08,-0.349448713334619,3.360492338644979e-10
1777235177.5122542,-4.10584126852074e-06,2.6410151297232187e-08,-0.3494487133713127,1.4548427361505507e-09
1777235177.5325346,-4.104240639556886e-06,1.899812903801055e-08,-0.3494487133750118,-1.870785925193121e-09
1777235177.552286,-4.1026517502747404e-06,1.6632868209329477e-08,-0.34944871336636313,-1.7121147963751622e-11
1777235177.5726092,-4.100974327552599e-06,1.7597085967334793e-08,-0.34944871339274,-1.8669698666128793e-09
1777235177.5922122,-4.099361057698485e-06,2.6007890221545913e-08,-0.34944871336564454,1.0819019467889864e-09
1777235177.6123805,-4.0977234714914645e-06,2.281492469294651e-08,-0.34944871339195127,-7.619919796452617e-10
1777235177.6322968,-4.096367516554894e-06,2.5934115405659056e-08,-0.3494487133748839,-3.9552423460647176e-10
1777235177.6522646,-4.094613289419783e-06,1.7928299501371566e-08,-0.3494487133828339,-1.4935885407551434e-09
1777235177.6723473,-4.093078314035144e-06,2.314780067976505e-08,-0.34944871337826716,-3.922486325946177e-10
1777235177.6922762,-4.0913792796457705e-06,2.872050863757529e-08,-0.3494487133861525,1.0757002409734302e-09
1777235177.7124393,-4.089797800951693e-06,3.326667626453043e-08,-0.3494487133877752,2.9105822650721907e-09
1777235177.7322464,-4.088086220039752e-06,2.0714773423936732e-08,-0.3494487133813576,-2.1330225494710542e-11
1777235177.7527006,-4.086647295131265e-06,3.2827104424062314e-08,-0.3494487134175597,1.0692991391026512e-09
1777235177.7724712,-4.084823162128795e-06,1.8242322300915693e-08,-0.3494487133887995,-1.1210518725745426e-09
1777235177.7924182,-4.0832436823466414e-06,2.10480599399641e-08,-0.3494487133741052,3.4546614555936837e-10
1777235177.812265,-4.081662055672931e-06,1.9303014836577648e-08,-0.3494487133879717,-1.987450106482205e-11
1777235177.8324022,-4.0799925538244115e-06,1.9294643526794854e-08,-0.3494487133896905,-1.98589579424773e-11
1777235177.8523078,-4.078430904095002e-06,2.0664511778464505e-08,-0.3494487133912981,-2.1287592930564952e-11
1777235177.8728127,-4.0768664950080765e-06,2.3768537816925747e-08,-0.3494487134051162,3.4173757255346724e-10
1777235177.8922758,-4.075236335523405e-06,2.3401083268393224e-08,-0.3494487133823879,-2.4189271827725268e-11
1777235177.9123006,-4.0735336074317925e-06,2.3748884258183824e-08,-0.34944871339430944,3.4128993062993843e-10
1777235177.93266,-4.072007043251705e-06,1.7880231120586796e-08,-0.3494487133979122,-1.841255938599566e-11
1777235177.952729,-4.070333962259948e-06,2.199739514141078e-08,-0.34944871339963485,-2.264917044796526e-11
1777235177.9722354,-4.0687990142745165e-06,2.0614378566165395e-08,-0.3494487134012154,-2.1229861333284463e-11
1777235177.992382,-4.06713491502597e-06,2.335376279389584e-08,-0.34944871340292893,-2.4048051458992964e-11
1777235178.0122898,-4.065436427219939e-06,2.6804519642043208e-08,-0.3494487133844254,7.014564938701658e-10
1777235178.032275,-4.063999461344009e-06,2.7452981647035913e-08,-0.3494487134061573,-2.8272672112296613e-11
1777235178.052774,-4.0625375543854425e-06,2.291484830749528e-08,-0.34944871340968553,-1.8439194161756118e-09
1777235178.0722933,-4.0607902904660675e-06,2.057269948282404e-08,-0.3494487134094619,-2.117701471731232e-11
1777235178.09235,-4.059232534296395e-06,2.0866468777765544e-08,-0.34944871341510675,-1.1125289124591002e-09
1777235178.1122496,-4.057526467319933e-06,2.4366261980120493e-08,-0.3494487134087846,1.0651660008265769e-09
1777235178.1323333,-4.0559200708609266e-06,2.293144922526573e-08,-0.34944871340237144,-3.8678899984872113e-10
1777235178.1522572,-4.0542991174941475e-06,2.3990046622906547e-08,-0.3494487133959849,7.010519285999924e-10
1777235178.1722822,-4.052850986974142e-06,2.6006582507666863e-08,-0.34944871341763717,-2.6775647385892074e-11
1777235178.1924386,-4.0512315940998875e-06,2.325948624346909e-08,-0.34944871341930483,-2.396278633070178e-11
1777235178.2122645,-4.049582783447238e-06,2.1937924484150576e-08,-0.34944871342905204,1.4263881641186176e-09
1777235178.2324328,-4.047956523296136e-06,1.771666442076336e-08,-0.3494487134146333,-1.466293929739339e-09
1777235178.2523315,-4.046539426884522e-06,2.632002150323008e-08,-0.3494487134422243,3.347209630378362e-10
1777235178.2722676,-4.044825330636899e-06,1.9423566000071074e-08,-0.34944871342991923,-1.1046525462331997e-09
1777235178.29229,-4.043241549536151e-06,2.8019360331548108e-08,-0.3494487134335549,6.937821882347467e-10
1777235178.3122373,-4.041635346379461e-06,1.7743263387417832e-08,-0.34944871342918715,-1.8274003552522498e-11
1777235178.3323097,-4.039969166154277e-06,2.2538735785698685e-08,-0.34944871342489,6.9836341252356e-10
1777235178.3522537,-4.038432794700273e-06,2.5612559638992518e-08,-0.3494487134284784,1.0554813033381665e-09
1777235178.3722363,-4.03680447960218e-06,2.423886854003783e-08,-0.3494487134381658,1.0559977790892221e-09
1777235178.392387,-4.035140651768262e-06,2.6599815585379583e-08,-0.349448713441878,6.928646999271965e-10
1777235178.412254,-4.033681533742958e-06,2.0431658184310707e-08,-0.34944871343737854,-2.10433438651475e-11
1777235178.4323194,-4.032029175893763e-06,2.657835938307942e-08,-0.34944871345906114,6.919618665635712e-10
1777235178.452352,-4.030538688624804e-06,2.41999046656e-08,-0.34944871344460854,1.0532448700773616e-09
1777235178.4725895,-4.029000101879203e-06,2.3128101305817493e-08,-0.34944871344219997,-2.382556276485815e-11
1777235178.4924586,-4.027293938243038e-06,3.4706311159895286e-08,-0.34944871343797523,6.820990893020113e-10
1777235178.5122638,-4.025698479264499e-06,1.9030969599464484e-08,-0.3494487134456008,-1.9608047538912112e-11
1777235178.5323005,-4.024089917576625e-06,2.3453551734359862e-08,-0.3494487134392913,3.341676278823629e-10
1777235178.5524008,-4.022603371131932e-06,2.3090707087541438e-08,-0.3494487134487885,-2.3781597933083007e-11
1777235178.57241,-4.020963223055271e-06,1.8301134574163863e-08,-0.34944871347036766,-7.348652343507806e-10
1777235178.592248,-4.019460820490747e-06,2.3425411075306392e-08,-0.3494487134778659,3.3387053220097323e-10
1777235178.612264,-4.017852858443765e-06,1.899319572733342e-08,-0.34944871346957374,-1.933715312090359e-11
1777235178.6322105,-4.016238328991739e-06,2.1697374118967265e-08,-0.3494487134692399,-2.2169554101327325e-11
1777235178.6527274,-4.014688637166675e-06,1.897783712187341e-08,-0.3494487134728124,-1.9326494979867195e-11
1777235178.6724408,-4.013143789157743e-06,2.2385724263002828e-08,-0.3494487134882729,6.908036819042823e-10
1777235178.6924844,-4.0115963437767985e-06,3.0856146381556594e-08,-0.34944871347003276,1.0383483416221511e-09
1777235178.71241,-4.009871887109874e-06,1.4540305553332837e-08,-0.34944871347774337,-3.712756314810291e-10
1777235178.7326393,-4.008329963737084e-06,2.576966073215406e-08,-0.34944871347140605,1.398344374605796e-09
1777235178.7527301,-4.006877815199671e-06,2.4055249763814256e-08,-0.3494487134867401,1.0433825369050114e-09
1777235178.7722278,-4.0051120929234356e-06,1.8931152939095213e-08,-0.3494487134430895,-1.952633512429974e-11
1777235178.7922466,-4.00352988527403e-06,2.2330678094444987e-08,-0.34944871346251044,6.879339774302311e-10
1777235178.8128598,-4.002072328051226e-06,2.367328202034174e-08,-0.34944871348572587,6.860847899604155e-10
1777235178.8322527,-4.000405301233699e-06,2.7068507656448007e-08,-0.3494487134637638,1.392187077711225e-09
1777235178.852246,-3.998942743225122e-06,1.890111424866775e-08,-0.3494487134731605,-1.9471268062278344e-11
1777235178.8723714,-3.997412946854729e-06,3.508829795387746e-08,-0.3494487134747364,-3.6141044732420145e-11
1777235178.892261,-3.995718551743306e-06,1.6130898418658208e-08,-0.3494487134686072,-1.4341876121348091e-09
1777235178.9123833,-3.994126186101554e-06,2.4622831659129452e-08,-0.34944871346631823,3.287484072545626e-10
1777235178.9325066,-3.992702487999641e-06,2.6957734066677385e-08,-0.3494487134520621,-2.796980327117889e-11
1777235178.9522624,-3.991150036029286e-06,2.4252980950930573e-08,-0.34944871348118844,-2.4988188316245685e-11
1777235178.9722605,-3.9894872913635536e-06,1.4758525742830277e-08,-0.3494487134966471,-1.4288589857058182e-09
1777235178.992608,-3.9879293395607275e-06,2.522813096571081e-08,-0.34944871349628004,-3.7920040343080337e-10
1777235179.0124292,-3.986227704507942e-06,2.1530766876872483e-08,-0.3494487134862596,-2.2184653134462246e-11
1777235179.0322776,-3.984710371584677e-06,1.614187414401881e-08,-0.3494487134878226,-1.663220574370692e-11
1777235179.052298,-3.983092624050581e-06,2.3909418537108337e-08,-0.34944871348557194,1.0330730058983422e-09
1777235179.0726273,-3.981548908760655e-06,1.8116335177682173e-08,-0.34944871349695117,-7.232118893951051e-10
1777235179.0922775,-3.980012956485739e-06,2.5583809966644976e-08,-0.34944871350048623,1.3820773868489882e-09
1777235179.1123533,-3.978549648055861e-06,2.691658431420121e-08,-0.3494487134863501,1.379595816344346e-09
1777235179.1322713,-3.976962678140019e-06,3.0290150096275595e-08,-0.3494487134899457,2.0785371655863232e-09
1777235179.1526146,-3.9753510491607515e-06,1.8786961262193006e-08,-0.34944871351308315,-1.913642479805144e-11
1777235179.1722586,-3.97369185991768e-06,2.3851752833678548e-08,-0.3494487134952726,1.0290468931218415e-09
1777235179.1926618,-3.972220551715661e-06,2.279384791115416e-08,-0.34944871350069073,-2.349516039272981e-11
1777235179.212372,-3.970673084833865e-06,2.4766662037672086e-08,-0.3494487134964389,-7.27083459126578e-10
1777235179.2322798,-3.969023340787334e-06,2.446430640039331e-08,-0.34944871347867157,3.2527163283064646e-10
1777235179.252267,-3.967562513350694e-06,2.719001355772901e-08,-0.3494487135152202,1.7232968839509626e-09
1777235179.2722626,-3.965934468513912e-06,2.7122020292630944e-08,-0.3494487134955001,3.220790755010343e-10
1777235179.2926502,-3.964410508429497e-06,3.048542151388903e-08,-0.34944871350485074,1.0182093400446606e-09
1777235179.3123178,-3.96277181602157e-06,1.8725643957748657e-08,-0.34944871351042656,-1.9292744199918684e-11
1777235179.3327167,-3.961196793752977e-06,2.2729395171771054e-08,-0.34944871351204954,-2.342010931626517e-11
1777235179.3523123,-3.959720240850748e-06,2.138418589698819e-08,-0.34944871349999274,-2.2035439159952606e-11
1777235179.3722649,-3.958093210368605e-06,1.8702953360395688e-08,-0.34944871351524776,-1.927631289915424e-11
1777235179.3923576,-3.95664751849741e-06,3.0714983541316706e-08,-0.34944871350317647,-3.165529962372466e-11
1777235179.4122624,-3.9550121165947515e-06,1.7700911780760288e-08,-0.3494487135087426,3.299843075255752e-10
1777235179.4322722,-3.953447992419049e-06,2.57573610045183e-08,-0.3494487135180993,1.7145390006435095e-09
1777235179.4522588,-3.95183167598493e-06,2.1630946581363525e-08,-0.34944871350429796,-1.0664200179787881e-09
1777235179.4725065,-3.950333891089496e-06,2.2375003866068128e-08,-0.34944871351937845,1.020412022525517e-09
1777235179.4922588,-3.948790337202533e-06,2.537896426980954e-08,-0.3494487135325575,1.3642267769698551e-09
1777235179.5122712,-3.947291805718906e-06,2.368922349703008e-08,-0.3494487135456745,1.0177301677872324e-09
1777235179.5323582,-3.945668426916483e-06,2.3274791071525756e-08,-0.34944871352226503,-7.182913809499665e-10
1777235179.552532,-3.944168225517715e-06,2.7373838738487255e-08,-0.34944871351032364,2.0530202436775485e-09
1777235179.57225,-3.942564471199189e-06,2.49911674815774e-08,-0.34944871352739737,1.0143586425060507e-09
1777235179.592228,-3.941061298079229e-06,1.8620669844348934e-08,-0.3494487135481964,-1.8974776325666078e-11
1777235179.6122909,-3.939413247362871e-06,2.12712876431729e-08,-0.34944871353449725,-2.1929745928008398e-11
1777235179.6325111,-3.9378846665745536e-06,1.8604965301315903e-08,-0.3494487135360726,-1.9178613272987263e-11
1777235179.6525764,-3.936316268672986e-06,1.6865345351006602e-08,-0.34944871354153173,-1.746116761311913e-09
1777235179.6725996,-3.934785070592011e-06,1.8589938525343012e-08,-0.3494487135392671,-1.9165290596691768e-11
1777235179.6923587,-3.933342336748106e-06,2.089163524141892e-08,-0.34944871356569523,-3.6667042637488395e-10
1777235179.7123365,-3.931744384147883e-06,2.4574782499622966e-08,-0.3494487135692414,6.650660476582118e-10
1777235179.7322254,-3.93024704820445e-06,1.752995791929437e-08,-0.34944871354011214,-1.0526199457826976e-09
1777235179.7522538,-3.928744854674774e-06,2.184663624513169e-08,-0.34944871355698087,-7.115616530638988e-10
1777235179.7723486,-3.927114564313699e-06,2.9154824686859767e-08,-0.34944871353377704,-3.004014716750004e-11
1777235179.7923913,-3.925396981228969e-06,2.1539687075070845e-08,-0.3494487135183462,3.219285292588951e-10
1777235179.81226,-3.92400032297521e-06,1.9861594738006727e-08,-0.349448713550382,-2.047135696286082e-11
1777235179.8323896,-3.9223381688083685e-06,2.1176974868270852e-08,-0.34944871355209506,-2.1836487193939917e-11
1777235179.8524554,-3.920922157354698e-06,2.1801362712778898e-08,-0.34944871353446744,-7.096454081233957e-10
1777235179.8723297,-3.919337699261574e-06,2.5818305688354316e-08,-0.34944871356091023,6.601113443439148e-10
1777235179.8923147,-3.917831800695984e-06,1.9139541298255922e-08,-0.34944871356245766,-7.058702057504603e-10
1777235179.9123058,-3.9162655248528605e-06,2.4820834826912495e-08,-0.349448713554544,1.0031720353099274e-09
1777235179.9322658,-3.9147601921427155e-06,2.0790272647448245e-08,-0.34944871354086804,-3.642203862041412e-10
1777235179.9522185,-3.913067291220331e-06,2.2159582250063962e-08,-0.3494487135445295,1.0043950569938545e-09
1777235179.972202,-3.911617749769246e-06,1.8477644166506727e-08,-0.3494487135631448,-1.9057821007908094e-11
1777235179.992243,-3.910129554740433e-06,2.6386516829497583e-08,-0.3494487135646789,-2.7193535332361245e-11
1777235180.0122354,-3.908502732519284e-06,2.505673221946114e-08,-0.34944871356635576,-2.5830625547331403e-11
1777235180.0322654,-3.907011605441952e-06,2.670998051395093e-08,-0.34944871355650775,3.14008642290429e-10
1777235180.0524416,-3.905362565366741e-06,1.775957352552688e-08,-0.3494487135639034,-7.009976589399855e-10
1777235180.0722656,-3.903911811199636e-06,2.239217523353877e-08,-0.3494487135710881,-2.3080825159939825e-11
1777235180.092443,-3.90242313085678e-06,2.9997666549582274e-08,-0.3494487135764097,9.916745656669093e-10
1777235180.112505,-3.9008396479440135e-06,2.2374097581025003e-08,-0.3494487135742547,-2.306750248364433e-11
1777235180.1342287,-3.899386477293169e-06,2.167806170555042e-08,-0.34944871357007795,-7.033246863995998e-10
1777235180.1523662,-3.897892906685996e-06,2.0412860426811608e-08,-0.34944871359052365,6.595522360287134e-10
1777235180.17288,-3.896294478073767e-06,1.9717735421843924e-08,-0.34944871357894014,-2.0324807523610352e-11
1777235180.1923556,-3.894806541035652e-06,2.165237293987414e-08,-0.34944871357481005,-7.01985313342692e-10
1777235180.212406,-3.893078062019225e-06,2.5641735337071226e-08,-0.34944871356339124,6.526604155810504e-10
1777235180.2322602,-3.891629483622005e-06,2.4945680109841473e-08,-0.34944871359694596,-2.571960324486899e-11
1777235180.2522755,-3.8901649248035826e-06,1.9685915310302597e-08,-0.3494487135852589,-2.0284395405514006e-11
1777235180.2723067,-3.888661330174661e-06,2.4015100980184104e-08,-0.3494487135849257,1.6697224057638607e-09
1777235180.292382,-3.886968267671393e-06,2.1666173903745217e-08,-0.3494487135697385,6.549932162003928e-10
1777235180.3122718,-3.8855159915663936e-06,2.228393988472754e-08,-0.34944871359005136,-2.2976020106415245e-11
1777235180.3322692,-3.884041133548252e-06,2.5863729043657725e-08,-0.3494487135802955,-3.649589065601219e-10
1777235180.3522654,-3.882441570276678e-06,2.123950232556318e-08,-0.34944871357631785,-1.0361069326036329e-09
1777235180.3722913,-3.881012527921847e-06,2.1572959603717308e-08,-0.34944871358906343,-6.97972079153277e-10
1777235180.3922617,-3.879403832996329e-06,1.4395744989062512e-08,-0.3494487135963529,-1.484829938773941e-11
1777235180.4123669,-3.877920939549327e-06,2.3547209527706823e-08,-0.3494487135978817,-2.4281642383374442e-11
1777235180.4329257,-3.876351450316613e-06,2.2230029356640526e-08,-0.34944871359949986,-2.2925393936492354e-11
1777235180.4523947,-3.874768092588736e-06,2.0913539823388095e-08,-0.3494487136011321,-2.1566480954351166e-11
1777235180.4723299,-3.873348879688685e-06,2.4542824689926712e-08,-0.34944871360633645,9.8480095287685e-10
1777235180.4923923,-3.871766121169055e-06,2.1861854330062022e-08,-0.34944871359300966,-3.590756127080283e-10
1777235180.5125222,-3.870312100205135e-06,1.6971792865587278e-08,-0.3494487136057265,-1.75083937547413e-11
1777235180.5323946,-3.868673272772074e-06,2.087980144541131e-08,-0.34944871360741614,-2.1534062442032124e-11
1777235180.5523984,-3.867415792681073e-06,1.8486564736464435e-08,-0.3494487136124454,-2.370009698624489e-09
1777235180.572261,-3.865712365469685e-06,2.6420770056481793e-08,-0.34944871359928087,3.083931342318749e-10
1777235180.5922632,-3.864257218592036e-06,2.318029427687289e-08,-0.34944871361569596,9.823020628930237e-10
1777235180.6122677,-3.862711336334333e-06,2.6058333524929946e-08,-0.3494487136135631,-2.6871126566010187e-11
1777235180.6322637,-3.861126452701163e-06,2.2140485133001425e-08,-0.34944871361519714,-2.282547386427612e-11
1777235180.652192,-3.859655739971215e-06,1.850675337589382e-08,-0.34944871360741414,-1.0235374316080367e-09
1777235180.672253,-3.858173685784418e-06,2.3823347795293322e-08,-0.34944871361638274,1.648133008827e-09
1777235180.692477,-3.856657642700197e-06,2.1433684974459793e-08,-0.34944871361980356,-6.908231310531108e-10
1777235180.712256,-3.855111428559102e-06,1.758309774941618e-08,-0.3494487136213988,6.498959602497336e-10
1777235180.7322032,-3.8536716191441766e-06,2.7635728714745353e-08,-0.3494487136061871,3.0536577808832695e-10
1777235180.7526898,-3.851949956914513e-06,2.0787309470347478e-08,-0.3494487136116824,-2.1440359618753722e-11
1777235180.7722993,-3.850541203333403e-06,2.473481693016158e-08,-0.34944871361870117,1.3083314885720768e-09
1777235180.7926896,-3.849005045106508e-06,1.8174328440889205e-08,-0.3494487136276958,-1.8744738114963913e-11
1777235180.8124654,-3.847502683622888e-06,1.9744690240314314e-08,-0.34944871361259167,-1.0196014689411358e-09
1777235180.8322687,-3.846034842549901e-06,1.816019016802068e-08,-0.3494487136307588,-1.8730527260248718e-11
1777235180.8522096,-3.8444081082498165e-06,1.815223028732774e-08,-0.349448713626893,-1.8908162944188678e-11
1777235180.8723545,-3.842951781296121e-06,1.814501884330036e-08,-0.349448713633938,-1.8712763691854722e-11
1777235180.892256,-3.841421830679795e-06,2.30410594187938e-08,-0.34944871363182417,9.729149051752131e-10
1777235180.9123888,-3.839977622548244e-06,1.615806985758544e-08,-0.3494487136425373,-6.805615616811054e-10
1777235180.9322574,-3.838443245961822e-06,2.4317103194714007e-08,-0.3494487136349006,9.703085456026031e-10
1777235180.9523225,-3.836929848196669e-06,2.199763202711756e-08,-0.34944871364014785,-2.2690470744481746e-11
1777235180.9723496,-3.8355727195093395e-06,2.4914630143363138e-08,-0.34944871367100006,3.0570728269070154e-10
1777235180.9924164,-3.833929193741683e-06,2.55211202095868e-08,-0.349448713632204,-3.5747600337414846e-10
1777235181.0123682,-3.832360509664173e-06,2.0678561089231624e-08,-0.3494487136448601,-2.132578460261251e-11
1777235181.0324655,-3.830996536866382e-06,2.1962577059752265e-08,-0.34944871364626684,-2.265227907243465e-11
1777235181.052223,-3.829410649833589e-06,1.6787883133485355e-08,-0.3494487136479021,-1.73178794837157e-11
1777235181.0722466,-3.82780855251717e-06,2.4188679360159054e-08,-0.3494487136330411,-3.552888640156369e-10
1777235181.092446,-3.826398601587897e-06,1.6774344317732725e-08,-0.34944871365100827,-1.7305889075049753e-11
1777235181.1122499,-3.824879157908018e-06,2.3216971770983652e-08,-0.3494487136525754,-2.3953016368085493e-11
1777235181.1325538,-3.823331681492195e-06,1.4182400974705687e-08,-0.3494487136541715,-1.462048162308643e-11
1777235181.1523454,-3.821874509375326e-06,1.9609010644805575e-08,-0.34944871365933494,-1.0086133696218157e-09
1777235181.1722634,-3.820381790595008e-06,1.674729946377333e-08,-0.3494487136572139,-1.7282796436137562e-11
1777235181.1922178,-3.818914877209934e-06,2.0604451598192884e-08,-0.34944871365872665,-2.1253842150616825e-11
1777235181.212509,-3.81742147053578e-06,2.513123227128663e-08,-0.3494487136547876,6.315999288931208e-10
1777235181.2322896,-3.815857177843596e-06,3.1951865906584506e-08,-0.3494487136509277,2.2670090703358992e-09
1777235181.2526317,-3.814392377682499e-06,2.3428843351261364e-08,-0.34944871365974317,-1.0091094172692182e-09
1777235181.2724574,-3.8128531836449585e-06,2.504099014633639e-08,-0.3494487136303389,-6.821864840999468e-10
1777235181.2925365,-3.8114796530672206e-06,2.4815339650685647e-08,-0.34944871365728575,1.6141441970619153e-09
1777235181.3123362,-3.809935197469115e-06,1.7864893947622236e-08,-0.3494487136424969,-2.6402926057910635e-09
1777235181.3327231,-3.8083089777529973e-06,2.1493953245465194e-08,-0.3494487136587485,-3.4968445818732917e-10
1777235181.352258,-3.806968046420168e-06,2.4724621662937344e-08,-0.3494487136601387,3.017961890195521e-10
1777235181.3723052,-3.805382165465536e-06,1.6679889104516665e-08,-0.3494487136726845,-1.7207301270463077e-11
1777235181.392272,-3.8038997791479693e-06,1.7956223616920155e-08,-0.34944871367421326,-1.8508926744533614e-11
1777235181.412342,-3.8024675057895937e-06,2.921235931896141e-08,-0.3494487136684308,9.495922280523073e-10
1777235181.4323213,-3.8008101561874027e-06,2.5019887206031906e-08,-0.3494487136719602,6.270107109985303e-10
1777235181.4522998,-3.7993143532603763e-06,2.110653745770105e-08,-0.3494487136517568,-6.743172233014038e-10
1777235181.4722724,-3.79787808225321e-06,2.243855882884749e-08,-0.3494487136749914,6.288323649373352e-10
1777235181.4922767,-3.7964398286141677e-06,2.175977849505431e-08,-0.349448713681908,-2.2448886214323383e-11
1777235181.5122736,-3.7948899325108483e-06,1.919227351759052e-08,-0.3494487136835067,-1.9804779058876113e-11
1777235181.5323966,-3.7933526981707107e-06,1.9458074702960033e-08,-0.3494487136760557,-9.965599002880653e-10
1777235181.5522652,-3.7920731326546565e-06,2.9739474269092823e-08,-0.3494487136972525,2.945197873161588e-10
1777235181.5724611,-3.7904981863752936e-06,2.494997801377978e-08,-0.34944871369345354,6.242458115780037e-10
1777235181.5922635,-3.7889381034602003e-06,2.299333307534097e-08,-0.34944871368964614,-2.3714096373186224e-11
1777235181.6126053,-3.7875357537604274e-06,3.0980681720378604e-08,-0.34944871370732045,2.926954688420947e-10
1777235181.6325653,-3.785985197255098e-06,2.036237806733531e-08,-0.34944871369089137,-1.3181488779578276e-09
1777235181.652674,-3.7844918200643994e-06,2.0414036153902907e-08,-0.3494487137086383,-2.085815866464048e-11
1777235181.67227,-3.7829354516683977e-06,1.3026847940322038e-08,-0.3494487136922396,-9.850855232839594e-10
1777235181.6922555,-3.7815856324354722e-06,2.4889860386784554e-08,-0.3494487137242065,6.218130908864451e-10
1777235181.7122848,-3.7799843028242556e-06,1.7172747958932782e-08,-0.34944871370427383,-6.646356344374626e-10
1777235181.732256,-3.7785169431259628e-06,2.392951134237661e-08,-0.34944871369680397,9.452588055425904e-10
1777235181.752475,-3.777012104362621e-06,1.7158855473131447e-08,-0.34944871370733294,-6.637869799574391e-10
1777235181.7724636,-3.775563772377521e-06,1.654591835377745e-08,-0.349448713703443,-1.7068745436989913e-11
1777235181.7925832,-3.7740899288203005e-06,2.4445587139910874e-08,-0.3494487137085491,-9.933491353008494e-10
1777235181.8121927,-3.7726932149013155e-06,2.2286230032731973e-08,-0.3494487137261092,6.220027169790509e-10
1777235181.8322196,-3.7711049922119913e-06,2.421455762519837e-08,-0.3494487137152036,1.264077554721308e-09
1777235181.8523042,-3.769592084132612e-06,1.712417470773765e-08,-0.34944871371497044,-6.616646776235657e-10
1777235181.8722641,-3.7681043277415033e-06,1.7782793815597743e-08,-0.34944871371113834,-1.8345501915308856e-11
1777235181.892392,-3.766592316259815e-06,1.865134944867338e-08,-0.34944871370376585,-1.6276231019828801e-09
1777235181.9124491,-3.7651269232553204e-06,1.776834286267159e-08,-0.34944871369992553,-1.854489797053154e-11
1777235181.9322898,-3.7637087783205375e-06,2.7035877439147218e-08,-0.34944871371388847,1.5779673577598997e-09
1777235181.9522533,-3.7622705321881106e-06,1.7422320671763823e-08,-0.34944871370110675,-3.3902409670487846e-10
1777235181.9722776,-3.7607267194576446e-06,2.1279175976761712e-08,-0.3494487137151853,9.404879551611712e-10
1777235181.9924433,-3.759261336897649e-06,1.9338942983842407e-08,-0.34944871373629016,3.006504388581389e-10
1777235182.0125868,-3.7577878043832757e-06,1.8999355599350912e-08,-0.349448713721782,-1.9610267984961853e-11
1777235182.0322633,-3.7562356417332135e-06,2.2187694828308554e-08,-0.3494487137055958,6.172318665976318e-10
1777235182.0524335,-3.754977464821254e-06,1.5458426606692393e-08,-0.3494487137211268,-9.75706359171926e-10
1777235182.0725439,-3.753357229841809e-06,1.8976397634333748e-08,-0.3494487137263532,-1.958673125683981e-11
1777235182.0922706,-3.7518435710450825e-06,2.3094228874150464e-08,-0.3494487137048374,2.9569529145463193e-10
