Abanesjo/go2_pendulum_ros2/src/go2_pendulum/go2_bridge/data/20260426_222209.csv
timestamp,pendulum_joint1_pos,pendulum_joint1_vel,pendulum_joint2_pos,pendulum_joint2_vel
1777242130.2249434,0.0,0.0,0.0,0.0
1777242130.2446113,-0.46913092075393326,0.02061375065382448,-0.0035557202296486656,0.008906120597511526
1777242130.2642188,-0.46872240773501633,0.07637918309058206,-0.003033194958180821,0.015321413357372691
1777242130.2840436,-0.4661898622277209,0.11333614128028918,-0.0029471705707012678,-0.000181940195700803
1777242130.3040905,-0.46434626711351956,0.11124012710009407,-0.0029647981058632585,-0.011047676232691263
1777242130.3239675,-0.46137110140222837,0.09257344363334903,-0.003400178172918107,-0.010559948097730565
1777242130.344438,-0.46038960072366886,0.04449873359901886,-0.003425958563223614,0.012520739216929824
1777242130.3641407,-0.45914195631911614,0.118696235470599,-0.0029835069762694545,0.009414820260040797
1777242130.3841496,-0.4570133949685494,0.0623527426534097,-0.0029471613091431037,-0.0018960037718760408
1777242130.4039948,-0.4566186823529921,0.0063672551801113525,-0.0029992852138290577,-0.004461459158347192
1777242130.4240057,-0.45659438755744286,0.0024809395448102895,-0.0030680936075780647,-0.005328733626430554
1777242130.444032,-0.4564748283049715,0.008754753013661432,-0.003129789900124147,0.002087177050485696
1777242130.464431,-0.45612187539001575,0.01722396338320261,-0.0029766358391082994,0.0064921760431644795
1777242130.4843078,-0.4561244595222739,-0.06290109687988635,-0.0030088622070392236,-0.004401554824187625
1777242130.5041575,-0.4586548832208953,-0.09652002528020047,-0.003098983821748415,-0.010092872033054317
1777242130.5239732,-0.4604054784998006,-0.0824175477571764,-0.003178837405876523,0.006979301460382807
1777242130.5439935,-0.46174345029029684,-0.07441964820576345,-0.0029807009697666222,0.006125160257435954
1777242130.5640817,-0.46330481342217095,-0.07258028922573427,-0.002997418673535376,-0.0008836655602933747
1777242130.5840786,-0.46523033406097436,-0.10930970815234747,-0.0030000382021794277,-0.00708330451094801
1777242130.6039932,-0.4676766256048003,-0.11397806124588333,-0.0031785719092516417,-0.002492747532524124
1777242130.6239684,-0.46951891922885497,-0.010191298616698265,-0.002991293517763399,0.0020130161590794973
1777242130.644173,-0.4695231574723332,-0.0401920434990774,-0.0031121779775724126,-0.00430400955112663
1777242130.6641788,-0.47081156645196587,-0.057916780396034484,-0.003129153283578998,-0.0012677274007275989
1777242130.6840105,-0.47159921115286096,-0.019208192398191444,-0.003085822526439062,0.004786956490027501
1777242130.7040992,-0.4716704643162979,0.024942921774275865,-0.0030546608160923316,-0.0029790555811194056
1777242130.724619,-0.4710659670383177,0.05048309822271163,-0.003031742335330617,0.002450864992828544
1777242130.744025,-0.46921758383820933,0.13741422108510998,-0.003177307163719,-0.014363566462896287
1777242130.7644074,-0.46861334303337304,-0.013770584420237542,-0.003069519882273366,0.005445656865477629
1777242130.7840161,-0.46734673063849,0.08373868532543588,-0.0031576499247772958,0.000357007244366219
1777242130.804113,-0.46568237115930255,0.11329337921894306,-0.0031428010567174434,0.0063229703669001585
1777242130.8240278,-0.463352333762728,0.10556836149196387,-0.0030662469952450777,0.00023324965083359474
1777242130.8440268,-0.46122899031662645,0.08446440048202504,-0.003042848509292281,-0.0031951429819155903
1777242130.8640957,-0.45989286698164306,0.04949926312989257,-0.003110415970873425,-0.005618618669574667
1777242130.8839986,-0.4590441930390388,0.06839067614319745,-0.0031623353380998186,0.006100826839950864
1777242130.9040039,-0.4570283234006759,0.14843826672251134,-0.0030663723759939408,-0.007698628441037329
1777242130.9244556,-0.45587293486817104,-0.05432089332238679,-0.002976147595140333,0.01620017878897178
1777242130.944013,-0.45612318884850594,-0.021206087383853246,-0.0029390648907525723,-0.004878459723822082
1777242130.964099,-0.4570832665058996,-0.04616211673780805,-0.003069470731203284,-0.007673363638764757
1777242130.9839978,-0.4577233136632093,-0.02659983593142671,-0.0031740962391259703,0.008907662323014704
1777242131.0039923,-0.4575030640849219,-0.026450360528749085,-0.003058973977069674,0.00683950525905763
1777242131.0240834,-0.4589184915714998,-0.0805394611416163,-0.0029142211895852085,-0.001967526010456874
1777242131.0440018,-0.4614656841670121,-0.12291207762998628,-0.002980514902703942,-0.005805967057029666
1777242131.0640054,-0.46375918389450355,-0.09687517002056449,-0.0031268669642070717,-0.002496832599745437
1777242131.0839999,-0.465342308452481,-0.033979935218378214,-0.002955142185673527,0.0015800395829176622
1777242131.103993,-0.4662652192671599,-0.0737859603881294,-0.0030021123384209774,0.002069434756744629
1777242131.124125,-0.4681002894244074,-0.0976324575343232,-0.003014281267001706,-0.0024601977346322777
1777242131.1440105,-0.46977044511759136,-0.09915707985826921,-0.0030341516177520072,-0.0026067819129305895
1777242131.1640918,-0.4712588737262322,-0.019562752252517638,-0.0029847274747563783,0.0053024020214937125
1777242131.1839948,-0.470951699783231,0.030760536373099664,-0.0029591170934253003,-0.0018459839373970357
1777242131.2039933,-0.4704895909550353,0.0033619332259454096,-0.00297779492419613,-0.0030423121816692354
1777242131.2239804,-0.47068891734347074,-0.015971582465587223,-0.003047530925295423,-0.0005584457959786195
1777242131.2440064,-0.47050904983555786,0.03573425910045375,-0.0032089564183741754,-0.002824327955750042
1777242131.2640903,-0.4690191967852093,0.11006682344637314,-0.0031011226029421255,-7.705629288144939e-05
1777242131.2840056,-0.4667162969538349,0.09853980460331263,-0.0030632131717028867,-0.0022716442467975977
1777242131.3039908,-0.46513419214882423,0.04536324316618729,-0.003144864124846374,0.0036477229010612676
1777242131.3242629,-0.4639127701351688,0.14252127811211063,-0.003255814056073478,-0.018081879668802134
1777242131.3440936,-0.4613798692968082,0.06291130576321187,-0.0034133079847401986,0.013710538773944098
1777242131.3640919,-0.4600297485675664,0.11109796594030204,-0.0030608935869419,0.0021786719140646834
1777242131.384087,-0.4582856911014942,0.05741193702966825,-0.003040211771907112,-0.004836120702467495
1777242131.4039898,-0.4572847091250277,0.08658038108055974,-0.003281502531641647,-0.018514237058527963
1777242131.4239902,-0.4571932566754928,-0.012947367033247316,-0.0032817115654366737,0.008188310604955187
1777242131.4440014,-0.456637035448852,0.015101482192067271,-0.0031048552959396037,0.014884728485209506
1777242131.4640856,-0.4561467539992122,0.007162961553147074,-0.0029551584319669616,-0.0015430581521152977
1777242131.4839928,-0.45691340280606463,-0.07527298293732212,-0.003041078114525679,-0.005626407541698698
1777242131.5040028,-0.4588329713405278,-0.03086036497286752,-0.0031269704202170965,-0.01150931960050034
1777242131.5239887,-0.4601685092077815,-0.10362226419727298,-0.003072046575759135,0.019387951705078538
1777242131.5440238,-0.4608198204565476,-0.03676116991869398,-0.0029373356980940553,0.004676456401221789
1777242131.5640497,-0.46211894838410406,-0.09517396991857645,-0.00292156389215166,-0.0015793772989675468
1777242131.583992,-0.4644174356109911,-0.1206857332366415,-0.0029885985595704623,-0.009587779297811379
1777242131.6039958,-0.46694439312559954,-0.10528839972947729,-0.003114627707124609,0.0004960371699910967
1777242131.62394,-0.46843121991204967,-0.02713504395789984,-0.0029778172976732365,0.007838318993019263
1777242131.6439924,-0.4687183535601839,-0.020049666735444782,-0.002854310693353115,0.0011479853497437886
1777242131.6640043,-0.4692481494313322,-0.054765456679566726,-0.003036410591665094,-0.006592778160474438
1777242131.6840894,-0.47079359500085616,-0.06106245138025462,-0.003028159618724433,-0.003895445202332407
1777242131.7039897,-0.47153595753678207,0.06031499165831017,-0.003158832147450952,-0.01070902003799023
1777242131.7241857,-0.46985002092694367,0.03264007491093951,-0.0032678424889897124,0.011184435491444007
1777242131.7440367,-0.4691699090431777,0.0775476546022667,-0.0030878927790233147,-0.002124362038915343
1777242131.764094,-0.4681610514932268,0.021489924129405813,-0.003128773770117153,-0.00676444571204282
1777242131.7840936,-0.46796675126590814,0.040920037560029654,-0.0032622711992416993,-0.0015511113570246284
1777242131.8039978,-0.4662080837449911,0.11544208024139918,-0.00318203440086897,0.004626884191433223
1777242131.8240087,-0.4639854443870484,0.12501998531240727,-0.0030726839796598737,0.002152639757341748
1777242131.8440294,-0.4618594728954279,0.07489109808692136,-0.0030950683517624628,-0.0044093688366043365
1777242131.8640091,-0.4606364294965756,0.10157276672322009,-0.003265069009755019,-0.013683563775823759
1777242131.8840926,-0.4585454041942202,-0.002067554686309518,-0.003479124605980871,0.019355523707037976
1777242131.9039989,-0.45805793670507416,0.09780737993738427,-0.0030717305960306857,0.003958304840940794
1777242131.9240282,-0.4566573095705348,0.02350350332017522,-0.003101844458778456,-0.005897532316087336
1777242131.944033,-0.4567665097317931,-0.028793750559927757,-0.003179357730212029,-0.00451586173424569
1777242131.9639943,-0.4564930558329251,-0.0030681792775325892,-0.003347558854619313,0.002225896921078098
1777242131.9840074,-0.45759668906244705,-0.0026834382068367324,-0.0030457768439477234,0.008676197772370995
1777242132.0039928,-0.45792297490663814,-0.04697083126816396,-0.002872599887726272,0.004664361516957026
1777242132.0239978,-0.4588381051545497,-0.022295784422918723,-0.003089809096500981,-0.019777931342004867
1777242132.0440006,-0.46065929798189253,-0.17641233580635912,-0.0031559716410641493,0.008352449260392502
1777242132.0640013,-0.4628476438508346,-0.052440968847894995,-0.002994903723646112,0.007728094166765053
1777242132.0840428,-0.4638496657316288,-0.06601449245017837,-0.002860338750642922,0.0030336855300510234
1777242132.1040032,-0.46562109288451925,-0.10313437117441143,-0.0028621679120912178,-0.00437795885403248
1777242132.1240354,-0.46773826625292636,-0.08462302927601856,-0.003017324132099983,-0.004389282013347132
1777242132.143947,-0.4689654122026996,-0.0628106895100417,-0.0031132090126898835,-0.00011123651845784536
1777242132.1640067,-0.4697195138711867,-0.013793414651328053,-0.003034075535801737,0.00719921203151506
1777242132.184088,-0.46971666254113753,0.054323187409960616,-0.0029103299390774422,-0.01706398657184916
1777242132.2040935,-0.4689856170075321,-0.09505770138630426,-0.0032829033559540043,0.008491642723137308
1777242132.2240052,-0.47078367747585825,0.0121835906517847,-0.003129147301438827,-0.0059644156368548005
1777242132.2441247,-0.47012265070659764,0.05204395620646102,-0.003186795922681602,0.005028864341320384
1777242132.263998,-0.46876339925211485,0.07392192055019026,-0.003045102964727021,0.0030563918828027305
1777242132.2840853,-0.4666250769093394,0.07447409414782152,-0.00319266120071108,-0.004719871418005335
1777242132.3040273,-0.46585951808369946,0.05211808966590465,-0.0031949904441907306,-0.004316248890055776
1777242132.323992,-0.4646442918081264,0.07663110768240694,-0.003236585732424045,-0.006862213247471135
1777242132.3440053,-0.46306287316868266,0.09561419101040032,-0.0033108623031121824,0.007858869090311893
1777242132.3640046,-0.45961609037762385,0.11397867979203465,-0.003419184853291738,-0.0021045399282565566
1777242132.383996,-0.45965085652979676,0.030830668347557728,-0.0031630738907142664,0.0027166636730380305
1777242132.4039989,-0.45835627864061546,0.03364899063050516,-0.0032735664953144387,-0.0019660715950230814
1777242132.4242148,-0.45811859081668915,0.010097932548230734,-0.003208430502740463,0.0016845681235658195
1777242132.4440892,-0.45782178139971536,0.07452269528267148,-0.003159821598124687,0.002967599701512139
1777242132.464088,-0.45522751141041595,0.013910453000279679,-0.003319116558126864,0.00296896444390904
1777242132.483994,-0.4574378075992862,-0.08119365403031012,-0.003067613098783761,0.002190647117611443
1777242132.5040324,-0.4586188802109096,-0.02720016861956546,-0.003072614092029053,-0.00398279896769259
1777242132.5239978,-0.4581889915322714,0.0005530221458488107,-0.003315549997253223,-0.009892732367519634
1777242132.5441122,-0.45913636099299654,-0.07944627794212249,-0.0032470777357179624,0.007395102160750175
1777242132.5640085,-0.46181976245906275,-0.11352776106610289,-0.0028664743739143916,0.008842693023441575
1777242132.584322,-0.4639779014423018,-0.12403696377764278,-0.002916987523014658,-0.0006138227823247206
1777242132.6042197,-0.46630477683972726,-0.024819461701374328,-0.0029017457357744247,-0.007426047579030511
1777242132.6239963,-0.4654626254050684,-0.0007346920757415557,-0.0031473604735492732,-0.004145706977284202
1777242132.644095,-0.4666398462490059,-0.13229390882225672,-0.0031398070136440122,0.007627183703498787
1777242132.664092,-0.469176004143824,-0.0712284574919177,-0.0029603721110857736,-0.0029229551135085564
1777242132.6841278,-0.46888000419153897,-0.020466301341734494,-0.0033297288750604014,-0.004877368934902311
1777242132.7039936,-0.47094985635713016,-0.006521976908788699,-0.002972757119171855,0.009816079181695135
1777242132.7239482,-0.46957724344235857,0.04832822097185657,-0.0029773879019708432,-0.006112645731034117
1777242132.743991,-0.46911038769359104,0.002237164713276895,-0.0030846504029144774,-0.0031572329687972107
1777242132.763995,-0.4693053201710026,0.014310116128505135,-0.003281120793920069,-0.009632661124624086
1777242132.7839935,-0.4666889296063524,0.10868792591023807,-0.0035908531798729253,0.0035542214765583594
1777242132.8040135,-0.4661471705268028,0.07126575919721262,-0.0031287975357380694,0.011941452309693895
1777242132.824162,-0.4639113798015818,0.08528047466438121,-0.0030753520371238734,-0.005184052137976217
1777242132.8439949,-0.461878304537951,0.10997376732210469,-0.0033609862895048817,-0.021802670573904715
1777242132.8640983,-0.4609822700613542,0.04776270040544757,-0.0035935553826316646,-0.0046075031744015026
1777242132.8840399,-0.46054742828026907,0.04516708882788796,-0.0032541358521506495,0.022010281329290747
1777242132.903994,-0.45845780181705725,0.0730468504151572,-0.0030547578862886076,0.001971432429139301
1777242132.9242454,-0.45776652096574877,0.019167044509521856,-0.0031266709798593367,-0.0019879105236671733
1777242132.9440024,-0.45672461051294355,0.06625040715179206,-0.003390792335338526,-0.019823106033097008
1777242132.9639974,-0.4566824993065771,-0.07339349438010237,-0.0034749975620882254,0.014141271650721252
1777242132.9840884,-0.4579889452089223,0.017827342133270273,-0.003041934773479708,0.009517772198574673
1777242133.0039947,-0.45768587387677795,0.03309509427146037,-0.002961192662175589,-0.009286421484183812
1777242133.0242238,-0.4587481686057893,-0.16704423629299153,-0.0030763573455172308,0.006626388016115875
1777242133.0439923,-0.46068561055044166,-0.07491674482791082,-0.003069255907604133,0.002915221044715447
1777242133.0640407,-0.46216095190559964,-0.06350995610021386,-0.0029684177502987998,0.001269025238767452
1777242133.084085,-0.4635000690116923,-0.06491715492682852,-0.002951027897005212,0.0016903109878010272
1777242133.1039946,-0.46382994598104443,-0.0013479317838886356,-0.003087985166699622,-0.01274074842523119
1777242133.1239903,-0.46632019739171937,-0.17061354514336852,-0.003022759640569965,0.012550325492757758
1777242133.1439972,-0.4681633277537283,-0.05840967186517426,-0.0029473272027425697,-0.0004991822678164694
1777242133.1640475,-0.4686475518031926,0.042838374257800516,-0.002913752885361022,-0.008976705349007614
1777242133.1839917,-0.4684816905022847,-0.11499010511691837,-0.0031162770405829612,0.005517387637971579
1777242133.2039952,-0.4701792520796804,-0.01743778665428403,-0.0030280149433721012,-0.002523742281983465
1777242133.2239904,-0.470118384611966,0.011348663841218406,-0.0031387922840907727,-0.003635991364167294
1777242133.2439952,-0.46972079510507414,0.03820371051954924,-0.003125604423687367,0.005390135369857352
1777242133.264004,-0.4686111875757907,0.10289195468927931,-0.003084807945405132,-0.010587335036668028
1777242133.2840388,-0.46596831116507353,0.00323718893112274,-0.0035169375287554504,0.00027208359767252974
1777242133.304,-0.4669353725736812,0.05859153454733962,-0.003290870888948753,-0.0002210719157764742
1777242133.3239682,-0.46544751109938404,0.09480807528016305,-0.003217773461896706,-0.0006039546274498516
1777242133.3440094,-0.46348743246793306,0.10311358001098954,-0.003258539970444056,0.0023882999717149286
1777242133.3639913,-0.4616589628664365,0.0800672945491235,-0.0032001987272449414,-0.0012849881072195834
1777242133.3840156,-0.46038400711872274,0.02603709936755612,-0.003236933100576351,-0.0027378657046906543
1777242133.4040422,-0.4599302153406102,0.027767559946066347,-0.0033408932466895344,0.0011363500613088284
1777242133.4239902,-0.458675263306369,0.14544662990927346,-0.0032503392286187443,-0.0038059130197029543
1777242133.4439921,-0.45600006031113616,0.07945323393572554,-0.003342796043962288,0.0005842822922707939
1777242133.4640834,-0.45673166600917253,-0.08450745994103262,-0.0031981082579402263,0.01421147064761462
1777242133.483997,-0.45793365126483077,-0.05417016040872761,-0.00305622984028858,-0.0015369387199578191
1777242133.50399,-0.45920950955509454,-0.05010083604328612,-0.003098600079709221,0.0007275366353029932
1777242133.5240307,-0.45972564959275264,0.000819671021732376,-0.002984008418715858,0.010403903586438999
1777242133.5440924,-0.45853938919966286,0.008529922904150295,-0.0031059198731031327,-0.007333505662750996
1777242133.5640013,-0.46135331304854743,-0.14191121762048636,-0.002838606986735604,0.005257787513920665
1777242133.584091,-0.46372483214304216,-0.06528927021427881,-0.002879358734233936,-0.005885745327844664
1777242133.6040378,-0.46389566543721245,-0.028904167683513053,-0.0032361246404317345,-0.008625214749753888
1777242133.624016,-0.4661780378766272,-0.0916269665916784,-0.0029064687943023697,0.016048976031555785
1777242133.644033,-0.46675868730853587,-0.036826403846085876,-0.0028856298521990234,-0.001296415468098026
1777242133.6640067,-0.4680988380360216,-0.09104935249108065,-0.0028733793242982962,-0.0030350241557607124
1777242133.6839912,-0.4698708820060305,-0.05550244589211667,-0.0029343322091179474,-0.004039851737340441
1777242133.7039897,-0.46869522889576937,0.07919362961206661,-0.0032397200611230395,-0.01093966925164815
1777242133.723998,-0.4693641476608583,-0.023858922848105146,-0.0030643501336231295,0.009413443075702908
1777242133.7440035,-0.46891569270643396,0.020692774643780665,-0.0029949451851666413,0.0011044290324806836
1777242133.7640076,-0.46859529644511627,0.010460182044266964,-0.003122686438220901,-0.005691226916496544
1777242133.7840927,-0.4683276716498926,0.035259706633904264,-0.0032772503864407104,-0.002116179232251747
1777242133.8039932,-0.46566923376277447,0.18525352414717317,-0.0033987630028550204,-0.017815153188127725
1777242133.823999,-0.46455133953042094,0.01960620566176858,-0.003297086024062617,0.010315910127577797
1777242133.8441017,-0.4634805728392133,0.058682987847276616,-0.003313306683289437,-0.0049072491061622125
1777242133.8639898,-0.46273519849011124,0.07341454383193609,-0.0032641519916541736,-0.0008168641711998661
1777242133.8839905,-0.4612440145978823,0.049931991675649615,-0.003249745860306587,0.00721934804899193
1777242133.9039924,-0.4595059325101863,0.09337547040810763,-0.0032164824318707983,-0.004501875917698707
1777242133.9239962,-0.4581622311968267,0.022987236741717952,-0.00322843478403821,-0.000511006700039419
1777242133.9440136,-0.4582689228663964,-0.022486398454019268,-0.0032778722281367476,0.0031371900950248202
1777242133.9640944,-0.4577268970426607,0.07539689066285246,-0.0032474934574217114,-0.005360627624460253
1777242133.9840875,-0.4576626696976772,-0.04487766092235727,-0.003081891200022023,0.015484231676467038
1777242134.0039926,-0.45807126941958864,-0.022743654729703,-0.002992477461965462,0.0006007054179888083
1777242134.023989,-0.4592493092202884,-0.04684850977654602,-0.003054487426215096,-0.011837942968986674
1777242134.0440898,-0.4593120019248696,-0.06404031735413655,-0.003315595190517868,0.0015175254536211754
1777242134.0640962,-0.4622636405644788,-0.07559185000330342,-0.002788908965560435,0.013079717450208717
1777242134.0840971,-0.46265739686906276,-0.038879678291099326,-0.0028058756128676197,-0.0025277661545091267
1777242134.1039922,-0.46398916435661275,-0.08098594007381482,-0.002879568757477748,-0.00710526166097355
1777242134.1240125,-0.46550331070663953,-0.02043406690146637,-0.0031321729797885284,-0.01633345345354798
1777242134.1440349,-0.46611571296242876,-0.0820222807659578,-0.003239371449138634,0.007578101723978501
1777242134.1640115,-0.4683991184437253,-0.07285095332682973,-0.0028394175657029943,0.0196339196780298
1777242134.1841025,-0.46835399243935893,-0.007243509854987395,-0.0028295611482490493,-0.006267747068752756
1777242134.2039986,-0.4690589424833445,-0.04600129990855878,-0.0029568242306945557,-0.009807335798925116
1777242134.2240105,-0.4701172303965006,0.013390897539330256,-0.0030764473863349765,-0.007130603560234745
1777242134.2442906,-0.468363931954229,0.05431405412296547,-0.0033721231672738912,-0.0028256675177845544
1777242134.2640202,-0.46884005578086496,0.03673845741513576,-0.003027446568274673,0.003911991990358096
1777242134.284045,-0.4672648788432991,0.052169226321729545,-0.003210638369391187,-0.004331887168578095
1777242134.3040032,-0.4665856440722006,0.025118094487728785,-0.0032546125491768837,-0.002001182338589226
1777242134.3242247,-0.4657497369015762,0.061292111118879396,-0.00335986217614572,-0.006573842921141152
1777242134.344101,-0.46341405760676624,0.11510498826636713,-0.0035182178505129436,-0.0004554839374510708
1777242134.3639963,-0.4623828766087352,0.07830664222353263,-0.0032411373748236732,0.0030988190154694908
1777242134.3839915,-0.46107673696976237,0.04700780365329267,-0.0032479007186356516,-0.0013470797901076735
1777242134.404005,-0.4601563082434239,0.11080482673923349,-0.003313044502651123,-0.015571818034191286
1777242134.4241126,-0.45930065850738366,-0.019668510929570376,-0.0032956077218910984,0.0169027413569783
1777242134.4443007,-0.4582103947192465,0.06524416351956894,-0.0033024302401131007,-0.0031555224839751343
1777242134.4644947,-0.45773277844922033,-0.05108430825216052,-0.003249646100729739,0.013456486756623883
1777242134.4841242,-0.45840967546315026,-0.024035155673002,-0.0031313908897197523,0.0036997273338604613
1777242134.504102,-0.45884187837603396,-0.024164449893159395,-0.00307287587991367,0.00410918665064843
1777242134.5240679,-0.4592605151417526,-0.021740932807740625,-0.0030187606191402288,0.0012193595998224189
1777242134.5439992,-0.4589030684433117,0.024176181181551813,-0.0031694256837031943,-0.014011965802013065
1777242134.5640073,-0.46130041796512,-0.15896481036446136,-0.0029587887304533622,0.019204587714556465
1777242134.5840046,-0.4632041413939676,-0.0685301995716067,-0.002838872783273218,0.0022370590560135215
1777242134.603995,-0.4643261156013653,-0.03754962044021009,-0.002805299430791905,0.0010526157721871632
1777242134.624238,-0.46371424437342607,0.008110025397897022,-0.0030848192827457543,-0.01430872602113053
1777242134.644105,-0.4658395924363792,-0.15747906934149153,-0.0029291582451319025,0.011006137283140411
1777242134.6641076,-0.4679700062681307,-0.07726005051747892,-0.0028853413983121806,-0.004774621442236183
1777242134.6839964,-0.46913080736787144,-0.01969939393932746,-0.0029941167529075816,0.0012317094138401073
1777242134.7039962,-0.468619852604946,0.020549840155650815,-0.002911587471595237,0.004166265446233318
1777242134.7240644,-0.4681843317172858,0.07732222776776881,-0.00305050647789483,-0.020390309974999972
1777242134.7440414,-0.4679661988812074,-0.09803735545904407,-0.0032059521250068085,0.005869599461384462
1777242134.7640963,-0.46920265589122223,0.008983989442221285,-0.0032081643991542013,-0.0019483104516148154
1777242134.783992,-0.46835212490707323,0.07026103881806917,-0.0032217150239569657,0.002762736222828606
1777242134.8039978,-0.4665374787783827,0.13781754860654877,-0.0031222860506149464,-0.008231332117808124
1777242134.8239918,-0.46342661395374696,0.04856951374399638,-0.0034724531522074146,-0.0038684405437687066
1777242134.8439918,-0.46425703497732584,-0.04329847190164975,-0.003230658141170885,0.008253769345551247
1777242134.864022,-0.4635760179369699,0.05827698779428398,-0.0033549926767922453,-0.002459316847452801
1777242134.8839924,-0.4617975152918905,0.10333920054653063,-0.0033131060806814005,0.004512039327042407
1777242134.9039974,-0.4599324127392447,0.11110163577245798,-0.0032058831128431013,-0.003755768517682333
1777242134.924031,-0.45855844899748466,0.008269559718838766,-0.0033171611685709414,-0.0026998437602085167
1777242134.9439955,-0.45916913236651447,-0.010669622995375699,-0.0032616913464649524,0.003218542647500861
1777242134.964098,-0.4590200784224926,0.025574297677140995,-0.0031815997392404655,0.005166767269499569
1777242134.9839933,-0.4582459863622993,0.024694178660445838,-0.0030987703856196276,0.003333689944551398
1777242135.0039954,-0.4575634472976643,-0.0038866525229019136,-0.0031256357300775495,-0.002044149250265799
1777242135.024003,-0.4582914423357952,-0.10944281394803737,-0.0032699202835467386,0.0053296572310931505
1777242135.044002,-0.46069723147442176,-0.05927703490643747,-0.0029452917762332973,0.007224416042914067
1777242135.0641077,-0.4615094484225978,-0.034993704991351945,-0.002807403989333154,0.00717188242623488
1777242135.0839925,-0.46236355810165686,-0.011696845596044824,-0.002795578745010037,-0.011961791232497783
1777242135.1039894,-0.46215626850827407,-0.09341594673556834,-0.003190683356682146,0.0008970922058798998
1777242135.123991,-0.4658696982735775,-0.10983947233962071,-0.0028894099901322122,0.004947955831420122
1777242135.1440964,-0.4665983075145237,-0.033468418427124946,-0.0029350503035513653,0.0014221576068493298
1777242135.1639922,-0.4671374409533016,-0.03537716215079273,-0.0028653036779284196,0.000853779464490499
1777242135.1839895,-0.4681241310257821,-0.05562681936047026,-0.0029162801276650073,-0.006367645126990893
1777242135.2040951,-0.4693358768601542,-0.04150159356177946,-0.0029812636677599424,0.00014392361375076772
1777242135.2239947,-0.46952696580646963,0.018789527532043826,-0.0030212964401035367,-0.0033768118263931123
1777242135.2440329,-0.46881485008332935,0.048069168623333935,-0.0030998252558077934,-0.00491790723351934
1777242135.2639923,-0.4681329873353207,0.01999213875668998,-0.003044235492615902,-0.0005780425876331498
1777242135.2840023,-0.46787736740106445,0.011215713546668895,-0.0031904652973302455,-0.005636878939820957
1777242135.3039958,-0.4673448893915232,0.05731101023089208,-0.0032780435466000617,-0.0055984405405148496
1777242135.3239985,-0.4656951777902465,0.08357467333822616,-0.0032805678455078025,0.00550367693598497
1777242135.3439925,-0.4642480850973215,0.08453814475009441,-0.003150258644775304,0.005977786446815668
1777242135.3640044,-0.4614325289068225,0.05222577339226271,-0.0034452848233761796,-0.0025278804831056967
1777242135.3840086,-0.46204678198369653,0.02526163059839799,-0.0032411028068520353,-0.007406393741388186
1777242135.4039981,-0.46121896508184723,0.057019420647343624,-0.003362891201041208,-0.0006433933359619194
1777242135.4239945,-0.4592001979310776,0.10595009424267195,-0.0033796152872483227,0.0009140504791296045
1777242135.4439976,-0.45755772045059034,0.027468905868473024,-0.0033571019322704326,0.01109954793626778
1777242135.4639935,-0.458294268012261,-0.042915736747637746,-0.0030613254409461795,0.004135239891527595
1777242135.483993,-0.45890159117047113,-0.0529194461214008,-0.0031398157644962317,0.002894149561661873
1777242135.503989,-0.4597441657420708,-0.006364655330393472,-0.003032161972861775,0.0032331061475072403
1777242135.523988,-0.45911341864922345,0.038774482534265145,-0.00302459892229607,0.001920240233620073
1777242135.5439897,-0.45912050438467356,-0.052582200096511864,-0.0029437045963002437,0.0060872737257026115
1777242135.5639887,-0.46093920722201,-0.10155211603255758,-0.002806109766815716,0.0008092912937309514
1777242135.5839932,-0.4630816309001324,-0.08623973182143889,-0.002821486155123074,0.00017687257555553358
1777242135.6039906,-0.46426980226490966,-0.029499976107130114,-0.0027771845218875334,0.003411249382940211
1777242135.623939,-0.46444121023717677,-0.024251196232018594,-0.002780808757494015,-0.0011448582662130344
1777242135.6440518,-0.4653954086046781,-0.0840938511814428,-0.0028140221142891656,-0.0038939374536538836
1777242135.663989,-0.4675001703153094,-0.09249600922013718,-0.0028979503455135915,-0.005254696826882102
1777242135.6839924,-0.46876612227982667,-0.01888027459026892,-0.002959449386053396,0.006243638517357283
1777242135.7039895,-0.46846214929944585,0.019894980608614665,-0.0028415345044384534,-0.003947427169494271
1777242135.7240014,-0.46825686122039817,-0.00736100545971835,-0.0030261194243112037,-0.008004862475736165
1777242135.743989,-0.4677110182776286,0.04146914100551152,-0.00334560627726349,-0.01939428859038791
1777242135.7639995,-0.46912957874182154,-0.05293596845222387,-0.003161090891164107,0.010211876665116996
1777242135.7839901,-0.4680892874095648,0.08278650638002821,-0.003196144148536764,0.00508636702870474
1777242135.8039916,-0.4662790350198579,0.06885655178627076,-0.0031554108586448176,-0.006885000514680285
1777242135.824155,-0.465378964824461,0.02611401061535152,-0.0033050474395047587,-0.00755703577505324
1777242135.8440974,-0.46375140124804987,0.09256117899070443,-0.003625124630347458,-0.01043401459066523
1777242135.8640056,-0.46351621208525184,0.005775316619027368,-0.0034946964750457205,0.016030103037289557
1777242135.8840067,-0.4619072300570944,0.09956718415588124,-0.003189942032681125,0.010347332925089653
1777242135.9040015,-0.4602635706763828,0.08025024060474813,-0.003188085397711456,-0.011840952495037355
1777242135.924102,-0.45868360728939517,0.0548756679123988,-0.0035491322262551457,-0.019938448865760496
1777242135.944002,-0.45865019829200887,-0.021655789036253575,-0.0037328468737646697,0.011393917458579754
1777242135.9640238,-0.4593634178327495,0.015786820709760525,-0.0031326545850401937,0.020369706392761505
1777242135.9841022,-0.45816311452800346,0.024798448014324924,-0.0029075642911494384,0.0037295150758742558
1777242136.0040085,-0.4581210287304307,0.02663863876313462,-0.0030262709034061417,-0.01808583751856121
1777242136.024005,-0.4584556137123922,-0.10714768830317604,-0.003438140908734462,0.001460496427721573
1777242136.043993,-0.4608261604050983,-0.09091548583228708,-0.003131742408895937,0.01507107016139926
1777242136.0640051,-0.4609788398830985,-0.00450287382975649,-0.0028387851401484093,0.01863995741111947
1777242136.0841043,-0.4617503693391724,-0.019043786925072956,-0.0026747054091413574,-0.010425640129958695
1777242136.10401,-0.4618999030306882,-0.07101717360371744,-0.003174326465861515,-0.013785015480860382
1777242136.1239753,-0.46493484150047926,-0.1464983756332518,-0.0030282971707220902,0.010198112128133938
1777242136.1439736,-0.4663091733513396,-0.030153334174258747,-0.0029333865772039375,0.0022241999886196007
1777242136.164009,-0.4665248903947082,-0.011050423902701775,-0.0027727423719239377,0.006023482637411653
1777242136.1841023,-0.4663079691665367,0.016335172923877712,-0.00295329129440006,-0.019224269431309705
1777242136.204098,-0.4672674181491763,-0.11513091654644997,-0.0032666687498416618,0.002395676045467148
1777242136.2242615,-0.4690734008056627,0.0020488265338123863,-0.003101856752263421,0.001049003817006002
1777242136.2439997,-0.4687391230667474,0.03315516728331863,-0.0030960265369058774,0.003956378759385827
1777242136.263994,-0.46759642713802463,0.10049830293951084,-0.003074135257966888,-0.018583154024297097
1777242136.2840059,-0.46595013486593273,-0.02160714661106094,-0.003524972671196754,-0.0003190560552072978
1777242136.30399,-0.4674458994256949,-0.0029864966010126302,-0.0033048487315594276,0.004366882359033372
1777242136.3240829,-0.465926043619865,0.08357660296796526,-0.0032783456727750976,0.003324340964153045
1777242136.3441021,-0.4645711814910673,0.073144751995399,-0.0032270063540706505,-0.0026098977589105684
1777242136.3639903,-0.46287634561375035,0.11982331876021896,-0.003447790449269319,-0.016443101349349704
1777242136.3839917,-0.4624849893470313,-0.016668902375293216,-0.0033770575438373304,0.008899339555809325
1777242136.403993,-0.46158802408246097,0.05309859729315709,-0.0033675317868981825,0.00031107689173015627
1777242136.4239917,-0.4591702196035867,0.14120151071858053,-0.0034517834708746456,-0.006095976561750104
1777242136.4439929,-0.4576542884476446,-0.0033524938233634814,-0.003508741357365013,0.0062166986635432695
1777242136.464005,-0.45930052946446076,-0.05781715007838521,-0.0031875132813454065,0.008133588819295995
1777242136.4840038,-0.45954421181717026,0.002167841413322674,-0.0031735673136887507,0.003403249260045494
1777242136.5039988,-0.4591701221070771,0.021129059936136747,-0.003118326568650449,0.001906131613730344
1777242136.523994,-0.4579476479959615,0.06311762253273664,-0.0032462856667006745,-0.0044077335656805714
1777242136.5440009,-0.4596971968387578,-0.11952355606465608,-0.0029004595484328996,0.011805006738580396
1777242136.5640109,-0.46134828015167584,-0.07926520725163615,-0.0029529174603632902,-0.004315827650957305
1777242136.5840046,-0.46275519318802705,-0.04416185218720818,-0.0029676521476988222,0.00804976188844239
1777242136.603999,-0.4633884394636115,0.01783507109998712,-0.002743213714676115,-0.002888376235228919
1777242136.623995,-0.46242602254422543,-0.028587961277699515,-0.003013794454939191,-0.008925161691045834
1777242136.6439939,-0.46491315622479545,-0.16546873371153653,-0.00290704986212613,0.0076002639316352216
1777242136.663995,-0.4671047605334364,-0.06874946416183908,-0.0029849549264739797,-0.001896919490237013
1777242136.6840963,-0.4675441447776186,0.05831031790907476,-0.003042926026220743,-0.008547027405004527
1777242136.7039914,-0.46689171008081803,-0.030234905285315195,-0.0030440788873131184,0.007384597770673252
1777242136.7240074,-0.46815070708411577,-0.058791381160882616,-0.00285867032650114,-0.0016167580515026574
1777242136.7439904,-0.4685924860002414,-0.029398794649957816,-0.003076677018654,-0.011075338544822748
1777242136.7640107,-0.4689575134136199,0.013795601714623962,-0.00321625229738352,-0.005291721198769079
1777242136.7840042,-0.46762556705407077,0.1300750580422348,-0.0033239870788162942,-0.010257881755880816
1777242136.803994,-0.46570734499692623,-0.011363847397483022,-0.0034043385122624484,0.01263183787644119
1777242136.8240204,-0.4656232153622208,0.03622174404572582,-0.003223006828375798,-0.007245991367612796
1777242136.843996,-0.46525920794533054,0.02095077757958081,-0.003405169030472511,-0.003073726535731183
1777242136.8640327,-0.4644981554058045,0.0674644706990129,-0.0033624928363867974,0.0004826628282368291
1777242136.8839912,-0.4626281014925113,0.08890719304999413,-0.003245860656091149,0.006970075579976939
1777242136.9039888,-0.4610823584152713,0.05172952175359054,-0.0032254252119386126,-0.005160146358931498
1777242136.924197,-0.4606914849011343,0.01655810346808957,-0.003326213090946832,-0.005542649212879956
1777242136.9439921,-0.45988666314676374,0.09024858264650655,-0.0034241972038294233,-0.009636577377447657
1777242136.9639957,-0.4596335575275533,-0.019162447567478244,-0.003201904068860055,0.02397739804139437
1777242136.9839945,-0.45893458318387736,0.015785315479643975,-0.002999643551849552,0.0007988874619456862
1777242137.0039897,-0.45914552345322057,-0.03578632500132743,-0.0030493937117766177,-0.001412354676346794
1777242137.0240765,-0.4599755009284696,-0.04924366606858348,-0.00304538395161586,0.0018016055526684659
1777242137.0440118,-0.46061501658504095,-0.01216214888250848,-0.0029393814852021706,0.00889289176700026
1777242137.0639954,-0.46078425997040195,-0.023603180635038898,-0.002708483306478486,0.009196288538422066
1777242137.083996,-0.46194063170563365,-0.07253264579859302,-0.00267492516935059,-0.003917840721760586
1777242137.1039977,-0.46357697824638605,-0.08322844853913695,-0.0028736570351628812,-0.005122713233674218
1777242137.1239479,-0.4647750050325625,-0.050943168492284245,-0.0028413653631184687,0.001345721735833491
1777242137.1439908,-0.46537780243547167,-0.022519015558440207,-0.002798292225679849,0.0070717975526396835
1777242137.1641076,-0.46597126039715675,-0.04732595633883901,-0.00273678807748528,0.0003224435229427176
1777242137.1839921,-0.4673379081548455,-0.06340328153080049,-0.0028296257895677646,-0.014084803150672112
1777242137.203993,-0.4683771525682606,-0.03513460982541167,-0.003005612363802615,-0.004018375914506966
1777242137.223993,-0.4684951074119851,0.011275813815366631,-0.0030355412356144348,0.006361806650279066
1777242137.2439895,-0.4683128050883151,0.017944413230107037,-0.0029220750844941553,0.00034017891323052756
1777242137.263997,-0.467893881549373,0.01309558181334586,-0.0030575448918956924,-0.007653255049931319
1777242137.2840006,-0.4678023091473549,-0.00037113728221965624,-0.003230756169415293,-0.0053327120066227075
1777242137.3039975,-0.46755707238562255,0.03920516364742982,-0.0032530645613347885,-0.002255877041311394
1777242137.323991,-0.4664840110978511,0.07505005342276411,-0.0032436241110309558,0.004275231865862294
1777242137.3440914,-0.4649451839772638,0.0659532949727622,-0.0032424280837621217,0.0011928667692138475
1777242137.3640003,-0.4637349348638503,0.04028558356038798,-0.0032488265635346406,-0.004774267455042046
1777242137.3839896,-0.4629927628645574,0.031969615005810484,-0.003357597456937189,-6.341498103394454e-06
1777242137.4040613,-0.4622183654690966,0.05379607603978982,-0.003416682968852132,-0.000989333242500826
1777242137.4239984,-0.460237484886942,0.14440240129763465,-0.003509101653670025,-0.009552845021946439
1777242137.4440005,-0.4598245846341056,-0.014389483456516068,-0.0032290989905290318,0.015031470392343892
1777242137.4640005,-0.4593031344124278,0.0027921164739868774,-0.003253188931967079,-0.006324654738464944
1777242137.4839969,-0.4595306059223165,-0.016913593362604045,-0.003278743262509103,0.003882268320513365
1777242137.5039907,-0.4597461240864153,0.005606794717132839,-0.0030486502439726077,0.006148376754445141
1777242137.5239587,-0.45920122256910195,-0.00346595750799931,-0.0031335271994124532,0.006979270743112683
1777242137.5440106,-0.4596987106091243,-0.02104045565243721,-0.0029372517033312046,-0.0021569307565136604
1777242137.5640028,-0.46088427543180366,-0.0723320336676702,-0.0029397268929050114,0.001971493741137342
1777242137.584101,-0.4614129577812168,0.021262336008183683,-0.003049382260372567,-0.008209996599753822
1777242137.6039891,-0.462079521701914,-0.10911748161195815,-0.0029713681404612887,0.020007914653598524
1777242137.6239974,-0.4639827166212982,-0.05030595560140088,-0.0027528726913022624,-0.0052766931306943345
1777242137.6440017,-0.4649420568896336,-0.06623616709728125,-0.002866049231516481,-0.009332039272174636
1777242137.6639998,-0.46640834722347985,-0.05112350889844647,-0.002987242410193623,-0.0008275913767083459
1777242137.6840012,-0.46721232621828074,-0.023478346724642603,-0.0028528306367212888,0.006791717092272229
1777242137.7039914,-0.4673155849039337,-0.017022173360706935,-0.0028869628584948163,-0.0036655181108796644
1777242137.7240987,-0.4678925616892846,-0.0261360240406478,-0.0030230925264530246,-0.01193116087428755
1777242137.744003,-0.4684247167987865,-0.02592586889889409,-0.003199494852462522,-0.0034496353213500594
1777242137.764006,-0.4683393346703095,0.03550065169607214,-0.003248430597134721,-0.0021259369759821503
1777242137.7840967,-0.4673177085339661,0.04534932165572686,-0.0032063083897605274,0.006833111613375053
1777242137.8039901,-0.4666506153788256,0.02276619429091126,-0.0031398976377382416,-0.008473333349384398
1777242137.8239985,-0.4663230325027206,0.016486368675341426,-0.0033446377997048866,-0.0038297985865989722
1777242137.8440957,-0.4656892191874651,0.05156210450266136,-0.0034184187973286023,-0.0051091593564643245
1777242137.864001,-0.46421205555353157,0.08270767406677365,-0.0033989819873809723,0.0025282883076573623
1777242137.884003,-0.4624569624049933,0.061127771903570396,-0.0033276679211302917,0.004904136343676314
1777242137.9039938,-0.4617096216355675,0.02570279358646184,-0.003266456434803792,-0.004164483739007178
1777242137.9240425,-0.46151224207445896,0.01965493658507629,-0.0034200373312528224,-0.006546677993823593
1777242137.9440122,-0.46085020688649897,0.04621105295825163,-0.003422305520153568,0.005882901038036272
1777242137.9640205,-0.4597295218442996,0.0482132448372244,-0.0032691870215837697,0.0068204348150925674
1777242137.9840014,-0.4591745111463894,0.012707667828788145,-0.0031739936860052716,0.004638337793518921
1777242138.0040135,-0.45935726191832627,-0.040669492417025596,-0.003112963814022795,0.0020948902561971536
1777242138.0241003,-0.46033134680668736,-0.03797984265232339,-0.0030986793535286083,-9.807411787461835e-05
1777242138.044108,-0.4608143865098677,-0.010236219361665563,-0.0030088931986172116,0.007799822674156584
1777242138.064115,-0.46072222255891115,-0.011600241160522204,-0.0028471715944959814,0.00974327528872196
1777242138.0839963,-0.46149238297079087,-0.05614626073876032,-0.002790107055203407,-0.004273009793239432
1777242138.1039941,-0.462873451053435,-0.07907211773237581,-0.0028938272846888973,0.0003053346056747525
1777242138.1241052,-0.46458637661728147,-0.06264480470516126,-0.0028605898336681555,-0.0021870179878228976
1777242138.1440978,-0.46529117132294406,-0.019478793929638742,-0.002879785980651797,-0.00265098763937025
1777242138.1640038,-0.46559380496723324,-0.024462660879658697,-0.0028639242635861615,0.002171200147696775
1777242138.1840112,-0.46655677939948803,-0.06555196909635214,-0.002906865746561845,-0.003402482464919249
1777242138.2039974,-0.4676937756117991,-0.03381130333575383,-0.0030033062843869574,-0.0049144314115896846
1777242138.2239938,-0.46782291030046974,0.02110004114509062,-0.0030466770023345026,-0.0027292526237483374
1777242138.2441027,-0.4669118628609831,-0.006462463751303046,-0.003181140581695296,-0.0019310508241537337
1777242138.264002,-0.4677342083535615,0.012678422734691054,-0.003139869307584164,-0.005042602916419737
1777242138.2839932,-0.46756574979311183,0.0006380318206354339,-0.003279694574116982,-0.002455089260851791
1777242138.3039956,-0.46750590625688854,0.03151621848829672,-0.00325272885829563,0.00014783509564869038
1777242138.3241677,-0.46610094260661344,0.0779098216707253,-0.003186985509499851,0.004095092309562791
1777242138.3440132,-0.4645544062450282,0.06458171116285533,-0.0033147768230071427,-0.007395669727615613
1777242138.3640046,-0.46430331245112066,0.023872631775340443,-0.0033814304836293965,-0.008057472829813977
1777242138.3844078,-0.4634237757034304,0.11788236681385073,-0.0034643046184797688,-0.012923647526682052
1777242138.4040058,-0.4613136896996456,-0.011511601691239035,-0.0035566373031295905,0.018888352847624176
1777242138.424048,-0.46081034837783974,0.06741965178876404,-0.0032169799043701526,0.007983725994457418
1777242138.444599,-0.46006841915432944,0.016751175829318468,-0.003191193916615309,-0.005000181951984666
1777242138.4640377,-0.46026311444112666,-0.019618210289527413,-0.0033644476460614183,-0.0038701694633397404
1777242138.4844813,-0.46030815230088773,0.023019742711990324,-0.003296916839849019,0.01025898886779776
1777242138.503999,-0.45956911449522075,0.03339169091694234,-0.0030427382974433175,0.008688945034365061
1777242138.524157,-0.45940297450231954,-0.016458759456201937,-0.002943663797513472,0.004849508704252657
1777242138.5443783,-0.46003250432895487,-0.01620847819913733,-0.002909961671354614,-0.009007026493042471
1777242138.5645819,-0.46012248742000833,-0.061674070313830695,-0.0032623623463494105,-0.006260423102820877
1777242138.5843937,-0.4627296782438014,-0.0521685437476193,-0.0029044470486101585,0.016153736158894302
1777242138.6040668,-0.4623066312820673,-0.003549356136555759,-0.002654177254032553,0.005726615703172592
1777242138.6244216,-0.4629324677149419,-0.06630842591619894,-0.002719050211227316,-0.0069640987028852675
1777242138.644539,-0.46490258158739317,-0.08864028156150011,-0.002814459299926579,-0.0068064401423368875
1777242138.6640363,-0.46637488694144114,-0.060168011586530346,-0.002929988091305579,0.002413751787335503
1777242138.684282,-0.46703880009259247,-0.004065261863316513,-0.0028443905925088376,0.006919335638304122
1777242138.7039936,-0.4668865206115382,0.05099525930683241,-0.002727748184912536,-0.01586030353487969
1777242138.723992,-0.4655653207488344,-0.02632530448430253,-0.0033503025463010472,-0.016657881565403976
1777242138.7442794,-0.4672996284047491,-0.1414829165697124,-0.003326364880017095,0.015169607866973515
1777242138.764035,-0.4681650757498603,0.08751443225414507,-0.003108037120157994,-0.005675386571224279
1777242138.7843814,-0.4673201469617946,0.04567351862428298,-0.003093289678438673,-0.004959884242127578
1777242138.8042836,-0.4667573970928368,0.06557217989250491,-0.0032087127488066754,-0.01058213939925265
1777242138.8239853,-0.4648966227968587,0.07988038200507003,-0.0035240234377246285,-0.01516351430102316
1777242138.844459,-0.46490560535261166,-0.04553326372813909,-0.0035728977032704018,0.014337804085700331
1777242138.8642125,-0.4645481289792721,0.08595223976904404,-0.003273690526662721,0.007122141961511822
1777242138.8844016,-0.4628742561146527,0.11319192360016755,-0.0032868486097366455,-0.01885968967748702
1777242138.9039938,-0.4611594220441556,0.014834280708240291,-0.0036339547311645113,-0.004433861798971209
1777242138.9242487,-0.4618297652577149,-0.013345491715304568,-0.003378858186404132,0.016773524873263248
1777242138.9443421,-0.4609932818775373,0.047097182638646,-0.0032787603675270465,0.008758613713839642
1777242138.9640334,-0.4601201660559466,0.03178901237190519,-0.0030803623533398007,0.00525228211119679
