Abanesjo/go2_pendulum_ros2/src/go2_pendulum/go2_bridge/data/20260426_230240.csv
timestamp,pendulum_joint1_pos,pendulum_joint1_vel,pendulum_joint2_pos,pendulum_joint2_vel
1777244560.7577388,0.017902230436160835,1.4282305193830926e-16,-0.4156246403975907,-3.8469221415439674e-15
1777244560.7777808,0.017667451823087175,-0.02930202779474247,-0.4155861748896156,0.004864085437037574
1777244560.797194,0.016558084339162,-0.07475247924539352,-0.41536729730489214,0.003919664441544386
1777244560.8171968,0.015518708644951168,0.04405357854580172,-0.41543766773969015,-0.007777123862203378
1777244560.8372302,0.0173250095618634,0.08993025768105023,-0.41567368739400884,-0.008826036530683219
1777244560.8572233,0.017750767324822826,-0.01750527437577384,-0.4155625910812786,0.0015400501496258103
1777244560.8773756,0.016966899878216545,-0.03554503117688482,-0.41569159311332726,-0.003632041960373772
1777244560.897553,0.016859604846771466,0.01939766192534259,-0.41567735140427386,0.004547454927572287
1777244560.9174566,0.01686999407335673,-0.0484084946804422,-0.41559580881947317,0.010922997776376658
1777244560.9372063,0.01632069227456307,0.048557133324348606,-0.41546530191856434,-0.0005249072876648163
1777244560.9572117,0.017049634198388033,-0.02299452885864253,-0.4155852843055876,-0.003058603690509659
1777244560.977213,0.01657258009106497,0.012301125237665802,-0.4156206488962282,-0.004207041901562142
1777244560.9971988,0.017405189744937107,0.024209966277413928,-0.4156892088259769,0.0019903637368658246
1777244561.0171938,0.017358647999422,-0.045537193325380004,-0.4156058798978065,0.0022402756644652024
1777244561.0376327,0.015501408796853893,-0.01763236750940314,-0.4151190398895709,0.005410052432678709
1777244561.0571969,0.01640743066598156,0.06397807141343309,-0.4155005002004457,-0.015617205876492807
1777244561.0771987,0.01747787908723801,0.039656991009917236,-0.41559357820399234,-0.004711758930622994
1777244561.0972757,0.01773481504979605,-0.005848540491333567,-0.4156431295181375,-0.00048386916105632165
1777244561.1171918,0.016994874186917575,-0.06675589195639359,-0.4156103380028955,0.006132841668807715
1777244561.1372995,0.01551057577755955,-0.03199924391974324,-0.4153737612288025,0.005915968271554978
1777244561.1572235,0.016547045841901076,0.095463805099052,-0.415582166989839,-0.010085702365155342
1777244561.1772034,0.017980095965137003,0.02053049495016657,-0.4156318706470693,-0.0017060336360249118
1777244561.197305,0.017455780918687866,-0.03891213829422238,-0.4156076714149896,0.00017095169053031318
1777244561.2171996,0.01663884751226599,-0.027351821713178154,-0.41560169662598095,7.872506054311122e-05
1777244561.2374756,0.01622463561953494,-0.01988393294556065,-0.41548945030372575,0.012053311633972424
1777244561.2573247,0.016598172038738243,0.10104269048944456,-0.41546553623715754,-0.01656245153377996
1777244561.2775564,0.017908913575723884,-0.024111250651907414,-0.4156213894889095,0.006018410020908122
1777244561.297297,0.01680807556965285,-0.04967516017591403,-0.4155504599296942,-0.0042608941349845005
1777244561.3171885,0.0165013308372658,0.028450099962658237,-0.4157087877692898,-0.001257297154360365
1777244561.3372257,0.01748134138083883,0.03846559156189355,-0.41562166951565305,0.0028819632206708414
1777244561.35721,0.017696257736816268,-0.011659520530258479,-0.41565998116412395,0.0004836718798674586
1777244561.3771856,0.017282502179503625,-0.030126350502260087,-0.4156360377678403,-0.0018227339618642367
1777244561.3971922,0.016614617462568725,-0.0028483545389305902,-0.4156572147565058,0.005182282891093387
1777244561.417154,0.017150244338800677,0.037133335576428755,-0.41567340065625613,-0.005666117298868861
1777244561.437265,0.01781304588781715,0.0007503992096457063,-0.4155927815046752,0.005244952916455031
1777244561.457208,0.01737165774561768,-0.043128049117090256,-0.41566075669098645,-0.0019145131295162543
1777244561.4772108,0.016741075487455476,0.003372739826925127,-0.4156950549395946,-0.0029246162640286957
1777244561.4972985,0.01702374123128967,0.02439276205361707,-0.4156382670818676,-0.0010249685655979337
1777244561.51719,0.016644907266397342,-0.0587016389654145,-0.41551573486677934,0.018756401302832664
1777244561.5371966,0.016772590013973188,0.061138289236795346,-0.4154198013383972,-0.0072453642988906265
1777244561.5572073,0.016982606418169052,-0.02270602285346307,-0.4154809512817278,-0.0040648052527661625
1777244561.5773132,0.016739045060170335,0.008852382668079641,-0.41567793971152145,-0.006756603646424458
1777244561.5972433,0.01744441463718999,0.020049136234703755,-0.4157201762491304,0.00504691233010594
1777244561.6171896,0.017412293703428554,-0.01019767082513853,-0.4155993639973669,-0.0010562435429573745
1777244561.6372273,0.017064385919258247,-0.015609041755540117,-0.41562283116721066,0.0017849455636459843
1777244561.657209,0.01712895972309599,-0.006888784302108567,-0.41567981890083616,-0.005069990038334932
1777244561.6772916,0.01618230999607589,-0.05836237823940693,-0.41549771221901083,0.01585626747748418
1777244561.6971867,0.01582794562078551,0.06777162221375732,-0.41515313512044444,-0.00017457312410836196
1777244561.7171838,0.017293036483189344,-0.005222547851484068,-0.4154796156809398,0.000964696407204685
1777244561.7371924,0.017250887328267066,-0.0020947212741915496,-0.41561386471389544,-0.009974257855828245
1777244561.7571857,0.01724553272501647,0.00012402153924765107,-0.4156337565451757,0.0002512437874903461
1777244561.7772815,0.016820122368826816,-0.02226022166028016,-0.41567773146478226,-0.007364576156829133
1777244561.7972772,0.016142986545934143,0.005662488525916248,-0.4154787823949122,0.008712610206058331
1777244561.8171854,0.017321940499401604,0.01805053788054198,-0.4155879839849686,0.004183813362830841
1777244561.837244,0.01750758282214499,0.0005087198232203471,-0.41561626551787956,-0.005142183953990759
1777244561.857256,0.017329447338543903,-0.0195078806273021,-0.41563822065300327,-0.0014630992896538964
1777244561.877184,0.016950823580743034,-0.041139247123884476,-0.4157208514713692,0.006900096464110089
1777244561.8971891,0.01614870885419752,0.040202349092153616,-0.4154292132180716,-0.0007053234902201942
1777244561.9172037,0.017580802087304045,0.02705994572710649,-0.4156169307114624,-0.0010388861847990425
1777244561.937321,0.017555986046778042,-0.021440703376415206,-0.4156247820077015,7.455056726983212e-05
1777244561.9572215,0.017215769641363413,-0.024626755454987156,-0.4156467562713642,-0.0018311535134694801
1777244561.9772313,0.016587977744735326,-0.00814656719358811,-0.415530191396392,0.0009897555559589652
1777244561.9971976,0.01582304752118934,-0.03520617375045887,-0.41538496921646384,0.029723086561148346
1777244562.0171936,0.017165992709986137,0.09157509937580985,-0.41554202387414635,-0.029663796417039496
1777244562.0374274,0.017722585762137966,-0.011760707363707015,-0.41565277999193345,-0.0014790639560472052
1777244562.0576122,0.017033781213871394,-0.0153687192127086,-0.4156016393204476,0.002489332370738823
1777244562.077751,0.01687451310435951,-0.021565416297666947,-0.4156125661479546,0.010767812394061476
1777244562.0971963,0.015857657213041988,0.005698901467890733,-0.41529524947458896,-0.0012232498910321348
1777244562.1171968,0.017111638670548976,0.03554847036263842,-0.4155639659016437,-0.004537189369565225
1777244562.1371937,0.017342735966105846,0.0009314494189103271,-0.41557546344743956,0.0002723971857917896
1777244562.1571915,0.017196704706972394,-0.011867803009374425,-0.41544486314497064,0.006688680636667205
1777244562.177275,0.016153054046608273,-0.021318927186640163,-0.4153899470450524,-0.003375189503550163
1777244562.1972282,0.017164745020142154,0.019382401187041685,-0.41564009740248814,-0.0033763794866400075
1777244562.2172077,0.017004694616928617,0.015355652247484254,-0.41559684435939526,0.011617106313915364
1777244562.2372963,0.01763251965051431,0.025164073436348747,-0.4154834578664737,-0.011438762864484826
1777244562.2572348,0.017607845950524822,-0.02367067183229665,-0.4156444746579705,-0.00048709051141744824
1777244562.277709,0.01674281276782827,-0.07386877659878768,-0.4155707097663367,0.011266381783750539
1777244562.2971928,0.01634812109879137,0.07279731123459757,-0.41555097946970865,-0.014331809420881154
1777244562.3171952,0.017133443917516818,0.014425832404013326,-0.4155008404467494,0.005778943831936595
1777244562.3372285,0.017734042273644973,0.029250253031648108,-0.4156542136642355,-0.014201513129273941
1777244562.3573365,0.01732546572288251,-0.03602973366889284,-0.4155528911320806,-0.0016372797637925374
1777244562.3776066,0.015944194076771938,-0.061780282762506744,-0.4155261440073448,0.009889727247655394
1777244562.3972137,0.015814321857020273,0.054933077210739395,-0.4153774645054053,-0.0014641008014740383
1777244562.4171944,0.017579416524064514,0.031976360639676515,-0.4156097380368522,-0.0068494598437676855
1777244562.437233,0.017312675427056497,-0.02239872813578433,-0.4155831605703194,-0.002319762243477924
1777244562.4573424,0.01698091771723836,-0.0017505767201816654,-0.4157192564230431,-0.004262962507325458
1777244562.477194,0.016770554776560722,-0.044098991427814566,-0.4154779374494769,0.024089765422203573
1777244562.4971962,0.01626747325892047,0.040603622245469484,-0.41533328442091555,0.007812765944255213
1777244562.5172048,0.017229116300519706,-0.006897648473193293,-0.41559255543411744,-0.017120270583751502
1777244562.537353,0.01684371262920093,-0.011014877560497042,-0.41569426309903995,0.003276354851788604
1777244562.5572243,0.017052880986593445,0.01204341544851659,-0.4156416675515416,-0.001890501558195662
1777244562.5772982,0.01749698581931184,0.012565447574383912,-0.41566695367422546,-0.003014474082966362
1777244562.5971947,0.01725278195318479,-0.014062401400714155,-0.4156255070633324,-0.0003839440368856473
1777244562.6171896,0.01683139445871088,-0.003189630288192328,-0.4155749664557288,0.006313208250356678
1777244562.6372674,0.01707288724853176,0.004172629266373964,-0.4155424423272588,0.00015849597971333024
1777244562.6573074,0.01717831294202376,0.016258383117122608,-0.4156322949486775,-0.002750904995220199
1777244562.677488,0.017330345215611137,-0.009934643506854742,-0.41557762910235285,-0.006186760654266116
1777244562.6973004,0.01708885499908927,-0.005715124419245374,-0.41547753504258267,-0.0010025195397396934
1777244562.7171965,0.01713224460370116,0.004559498691116523,-0.41557751248261016,0.0007165191034316622
1777244562.7372441,0.017082182667791164,0.0003096789782126322,-0.41559779393708274,-0.0017831342749160149
1777244562.7572074,0.017018518645727156,-0.00526545401020728,-0.41555164766680264,0.0009912656129437538
1777244562.7772965,0.01728345505223889,0.01549137374074339,-0.4155665206836283,-0.0004543640758017552
1777244562.7973,0.017359503375442044,-0.006806553676743873,-0.4155862597895854,-0.000981694833007768
1777244562.817197,0.017058730270278794,-0.00903712634824538,-0.4156344780667982,-0.002037383908242002
1777244562.837196,0.01693368355542897,-0.004318475586251283,-0.4156460987871622,-0.0003856989932343347
1777244562.8572989,0.017079929661726154,0.009783266488814672,-0.4155713099423885,0.0010865294792618387
1777244562.8771863,0.017512539583370262,0.016827347785805722,-0.41560259749976736,0.002570541654911257
1777244562.8972764,0.01743264186102523,-0.019255495094994992,-0.4155515633340988,-0.0019753323112719655
1777244562.917194,0.01682475169999823,-0.02197255063181694,-0.4156802884825355,0.00034929479092997136
1777244562.9372869,0.016880792535589297,0.017901239791057514,-0.415673554608849,0.008750850574230789
1777244562.957232,0.01740804535394351,0.024630371527841453,-0.41552716986450305,-0.0029179692333930083
1777244562.9772794,0.017541851457710853,-0.006571406643211788,-0.4156212493228394,0.003568448199370228
1777244562.9972353,0.01734410571092291,-0.015134426972117473,-0.4156083578451715,-0.005649275880806953
1777244563.0171967,0.017041795061169072,-0.008282251264631611,-0.4155113257553408,0.001320954181363615
1777244563.03758,0.017298822976823967,0.020965644070199966,-0.4156580176217921,-0.0009691711173943241
1777244563.057186,0.017495279603899575,-0.002533574480200026,-0.4156630611541646,0.010454181640963494
1777244563.077276,0.017086960956191923,-0.016092772716060796,-0.4155476983620995,-0.007044308307028252
1777244563.0972743,0.01711200091721035,0.012629738284336809,-0.4155736343630841,0.0040678905535146805
1777244563.1171887,0.017443148968458687,0.007632337266407,-0.41559282436745393,-0.0011138033827736314
1777244563.1371624,0.017495281770977297,-0.046085724430195596,-0.4156393200125808,0.007924324636153706
1777244563.1571856,0.01618538692040987,0.021227569164072507,-0.41540786419802134,-0.008215141092865103
1777244563.1772757,0.017039365404076662,0.012430885922785937,-0.4155670940980467,-0.0019272113761779784
1777244563.1972494,0.01739479897708627,0.020746167635889382,-0.41560301430349256,-5.822498291137561e-05
1777244563.21719,0.01766313259973095,-0.004610700984473633,-0.41558513962736354,0.0016971552702080119
1777244563.237264,0.01695705360447069,-0.06410970200907296,-0.41567773203326996,0.0023391397502320723
1777244563.2571833,0.015808546662920774,-0.011304910203409901,-0.41555204790807804,0.014033323696851212
1777244563.2772398,0.01730973485676028,0.055263189913893396,-0.4155150881123515,-0.004657961458397104
1777244563.2972746,0.01769619578352001,-0.011571210694795827,-0.41561624185571794,-0.0055022787686345885
1777244563.317187,0.01710034392280554,-0.030023577939475268,-0.4156767123971516,0.0037815193318985587
1777244563.337434,0.016925749246443376,-0.01195177621051657,-0.41561550458946994,-0.001849212715092491
1777244563.357217,0.016674623451007127,0.006791864512767422,-0.415711517202609,0.0004810745187994567
1777244563.3771858,0.017808621673562335,0.04987289959273428,-0.4157296529437608,0.0016270155051124999
1777244563.3972762,0.017481813923730983,-0.025489573469352957,-0.4156041031966031,0.00010883374539109598
1777244563.4171991,0.01689564480513172,-0.008705117813164685,-0.4156757160492109,-0.0014521516872772642
1777244563.4371567,0.017286558399372397,0.018292920946224426,-0.4156178519811778,0.00015107884088309532
1777244563.4571896,0.01682255429847896,-0.0410903767072876,-0.4155744886679797,0.003313463129935784
1777244563.477276,0.01729912225840167,0.03406008827707621,-0.4157323474532789,-0.00128282863503178
1777244563.4972823,0.017117078018721463,-0.010603090378539234,-0.41561932023002585,-8.168715774320423e-06
1777244563.517187,0.017113553770547393,0.0029048067373222434,-0.4156367667634768,-0.001188646578129965
1777244563.5371342,0.01741402290948922,0.023340172804311363,-0.41561253055602043,-0.0006427486666791989
1777244563.5572736,0.017365315967678853,-0.025777155663636916,-0.4156426580148188,-0.000832993606968052
1777244563.5771837,0.016475843594707457,-0.024444531425146354,-0.4155573145665989,0.005307058189017483
1777244563.597272,0.01707978418935628,0.035180286059530635,-0.4155912889684579,0.001078729522449401
1777244563.617184,0.017523027767898686,4.808269131604181e-06,-0.4156916821345097,0.0033672770873908577
1777244563.6372623,0.01700673585876762,-0.012031264179612642,-0.4154339707817072,-0.0026063271520356413
1777244563.6571846,0.01707074327815903,-0.014877041251799807,-0.41562075361191486,0.0032358620493352754
1777244563.677227,0.016819964744908072,0.003401555997104846,-0.41564537870372104,-0.0007472624648764026
1777244563.6972322,0.01725551574747265,0.028797743731718426,-0.41561769937609183,0.0012002646526815654
1777244563.7171898,0.01752737726613549,-0.016619661107878266,-0.4156071937452489,0.0015253633275655156
1777244563.7371798,0.016858284226245357,-0.042475349328375295,-0.41545094702376995,0.005766546595257588
1777244563.7571828,0.017076885707092863,0.0363311204688547,-0.415636850991432,-0.007424929519709816
1777244563.7772307,0.01726543638903791,0.004263213796822044,-0.41568477665519077,-0.002981744678478854
1777244563.797272,0.017107332575022498,-0.00027033609617610217,-0.41571348354560533,0.004058157295023939
1777244563.8171923,0.017235312047786826,0.001957631230897652,-0.41554420548864623,0.000217554370869494
1777244563.8371372,0.017042770868395708,-0.002629244161849534,-0.4156195209653309,-0.0015096793306071555
1777244563.8572755,0.01731319644469955,0.023049547618108516,-0.4156140052192574,-0.000727966156128651
1777244563.8772569,0.017536400031601247,-0.018658588594017474,-0.4156445025736688,0.004175621145914449
1777244563.8972216,0.016554839831727855,-0.061168369956042606,-0.41564121720590214,0.008547114324551835
1777244563.9171937,0.0169064140119286,0.06581641485703896,-0.4156171527916304,-0.008598222879625379
1777244563.9375048,0.01762166770134153,0.01977597651519564,-0.41563751357094353,-0.004047340322254583
1777244563.9582434,0.01758178223485827,-0.012273944229950064,-0.4157174826021599,-0.0021595626184310493
1777244563.9772744,0.01710050734866098,-0.03841645449687739,-0.41570999769670897,0.0022737834654439734
1777244563.9973927,0.0163569883091485,-0.049116193553083914,-0.4156906104455357,0.008229774073791035
1777244564.0171866,0.016671739571643335,0.10329924386736436,-0.41554483845948,-0.007324132548360689
1777244564.037452,0.01784579972669764,0.015523902395026854,-0.4156339732285854,0.001868608319188486
1777244564.0577319,0.017403622320725586,-0.08154122910319653,-0.41566834656621043,0.0065565178773329515
1777244564.077614,0.015733143697600212,0.013507126253273188,-0.4154158735343555,-0.007500312391856517
1777244564.0978267,0.016913828267929785,-0.0025323014394873482,-0.41567894021841745,0.0054342162314246325
1777244564.1171625,0.015976215788579454,0.021990167104849967,-0.41529761134403725,0.001864101964696258
1777244564.137518,0.017573886971366345,0.045742890151584586,-0.41566255240575367,-0.01569768112518129
1777244564.1575592,0.01701229819133678,-0.04066332946509929,-0.41565060103801027,0.0007972114231643956
1777244564.1772492,0.016615008908499804,0.02192191040211286,-0.41568292947070135,0.0005967648154651504
1777244564.197673,0.017416858051765065,0.026472398453023186,-0.41559585769576424,0.0005468159043646008
1777244564.2171984,0.017345025967300618,-0.027256733036043642,-0.41566669973536724,-0.0010688155009822176
1777244564.2378454,0.016856220150960007,-0.019626839528279816,-0.4156795401138197,0.0012041840962921213
1777244564.2577822,0.016930218553747677,0.019043866308514738,-0.41558748025081726,0.004564077399243843
1777244564.2772408,0.017097106143770396,0.01825382124848263,-0.41543189340857284,0.002289242486221682
1777244564.2975142,0.017599722530249294,-0.015338763067710228,-0.4155865119367765,-0.0036940590648416203
1777244564.317185,0.01653482014585491,-0.05860525235957886,-0.41562010350029377,0.0031284783334368073
1777244564.337404,0.01600729094675596,0.029574192523792148,-0.4155516361451036,-0.0017841588369512272
1777244564.3575628,0.017522362951308997,0.04757162822155206,-0.41566181147867426,0.002114723802266
1777244564.377338,0.017763507395975528,-0.02781587872780852,-0.41562635168814954,0.0022264151413075414
1777244564.3972757,0.016773420724429885,-0.03807662399417594,-0.4156542496406693,-0.005288550056088265
1777244564.4172297,0.016541730931799385,0.008199109381127003,-0.415671143744912,-0.0005963610064763814
1777244564.4376087,0.016849900958010186,-0.019789684806541114,-0.4156670729939477,0.013644787501338278
1777244564.4572139,0.01768282817293366,0.08062661202937751,-0.4156399374807562,-0.010718724660188379
1777244564.4773781,0.017366625005007765,-0.054741383999090565,-0.4155771649903467,0.003529474543295813
1777244564.497268,0.01581404260838671,-0.03875969263940657,-0.4154908680228058,-0.0005686292704199679
1777244564.5172026,0.017090526438847665,0.06802143725941978,-0.4156802085080396,-0.006908145850134178
1777244564.5371566,0.017367282081976188,-0.042663398404029634,-0.41555099173470256,0.012746745365551575
1777244564.5572555,0.016964943670128012,0.04800940281606353,-0.415567587796147,-0.011027619609968415
1777244564.5774205,0.017100675734860255,-0.013654758076513587,-0.41556652907375174,0.0006724485582837836
1777244564.5973182,0.016453158649244945,-0.05569769965524937,-0.415535641716976,0.009692884213670688
1777244564.617187,0.015831380674016682,0.04927736727424181,-0.4153655142887438,-0.002878332035925207
1777244564.6374571,0.01735573991212808,0.016677890450634367,-0.41562463786706927,-0.006729148595547257
1777244564.6581883,0.0169364784554,-0.005957619064524465,-0.4156341266720972,-0.003669376584392775
1777244564.677383,0.017031485785017217,0.013428105751937345,-0.41551905170020786,0.003712161240814343
1777244564.6974223,0.017378764922596723,-0.004201894052504537,-0.41568522343661174,-0.0016576039941689938
1777244564.7172046,0.015849829125373714,-0.02904848684750319,-0.4154236899358932,0.0032749496603627195
1777244564.737495,0.017199587637161957,0.01923867722816475,-0.41575644260608735,-0.004672063506124441
1777244564.75745,0.016859242112731435,-0.0061860798575436565,-0.41569397235341987,0.0027591162062356287
1777244564.7773302,0.01721721667147869,0.037053737183359525,-0.415767344573734,-0.0026590317932136567
1777244564.7973042,0.01764289441951677,-0.005863228575860493,-0.41568200059053534,-0.0004312712617611959
1777244564.8172307,0.01687051587851903,-0.02754540935519051,-0.41541176215297176,-0.0074342284907385646
1777244564.8374743,0.016749794187593658,-0.00035400252838393813,-0.41573975007542063,-0.0003751208656453566
1777244564.8574052,0.01698669880416386,0.01315708964500684,-0.41562490188966017,0.001736755750273361
1777244564.8773184,0.017361584159155653,0.013042050039276862,-0.41572413748588566,-0.0009954353722444079
1777244564.8974562,0.0174697987693703,-0.004192598888836548,-0.415651987532379,0.006031859473234186
1777244564.9173818,0.01724509887875812,-0.05089971503266735,-0.4156106837385112,0.00476323974761132
1777244564.9374857,0.015922859271532752,-0.041688825738465385,-0.41543292854344405,0.008204694803745012
1777244564.9572825,0.016847257958761103,0.07512695089561808,-0.4155733758201949,-0.012739176245211443
1777244564.97762,0.01737120281718891,-0.006526767344884912,-0.41565440045521546,9.045353845908423e-05
1777244564.9971845,0.01739926390746075,0.002599695558358875,-0.4156053219918323,0.006368713937046228
1777244565.0171876,0.017278868819104086,-0.015748865617041276,-0.41552459259776653,-0.0016076316400968791
1777244565.037282,0.017010029099749288,-0.042867820944306356,-0.41557875304192066,0.011388318681616532
1777244565.0573971,0.016085042514426693,0.05288615953033224,-0.41545624775657725,-0.011976942593868795
1777244565.0773876,0.01741148875665958,0.0017027227378567133,-0.41556239179095017,0.00027394337396262076
1777244565.0973444,0.017268305321978494,-0.006063353918322714,-0.41562620761297053,-0.0047577005201627385
1777244565.117362,0.017285541166535478,0.0012793372966866698,-0.41563851089077786,0.0025596081089280078
1777244565.13765,0.017103736298118576,-0.014086469471856041,-0.41558155637596556,0.004117583042769696
1777244565.1573687,0.015928990427963127,-0.035390010207894534,-0.4153975143587535,0.0030725439970888226
1777244565.1773865,0.017016111955063366,0.07057159785060604,-0.41552740513411324,-0.008802242666089494
1777244565.197218,0.01742262354741095,-0.010638119526741426,-0.4156035923534642,-0.0016144754555796502
1777244565.2171853,0.016893536353151828,-0.00706397809242648,-0.41534946303539033,-0.006085793706313085
1777244565.2374287,0.017152172696166357,-0.009219913431027234,-0.41569709465767757,0.0005363605355791888
1777244565.2572365,0.016250171508722575,-0.05556928321239665,-0.41554953387444066,0.01582344061625311
1777244565.27747,0.01690299296242735,0.07411060342773479,-0.4155098085018339,-0.009987882360871076
1777244565.2976615,0.017510886970843312,-0.007550900734679868,-0.41560539705764393,-0.004608422407914886
1777244565.3174238,0.016992881488952234,-0.018418873125210174,-0.41570760100233006,-0.0023787178542054753
1777244565.3373353,0.01721273132852868,0.011418795199511448,-0.41569930133219113,0.0003103641907650611
1777244565.3577669,0.017418369067859926,0.0017735417113657927,-0.41564682856457913,0.00044744410180867496
1777244565.3776271,0.016868681942675608,0.002162483872832996,-0.41565682091128353,-0.0036258667651439423
1777244565.3975878,0.01717257993696269,-0.009481655178506684,-0.4156886951278045,0.000527720688162575
1777244565.4171891,0.017086607258228456,0.009439432686060793,-0.4157092672816535,-0.001704807110033918
1777244565.437433,0.01737249791544325,0.02377611184842005,-0.4156656131086661,0.005314845512281047
1777244565.4575207,0.01748934928476573,-0.020588276384586986,-0.41563630235260385,-0.002085435985166156
1777244565.4772732,0.01632344266180196,-0.027591042545629302,-0.4156525683245393,0.00027865663465324614
1777244565.497383,0.016864121264305622,0.031061280353151338,-0.4155786552499724,0.002120085510911512
1777244565.5172446,0.017514803813749105,0.019867806660870378,-0.4156031104018576,-0.0022338749410176382
1777244565.5374954,0.0175792210189,-0.012965723064318365,-0.41560563788744986,0.0035174351857009513
1777244565.5574448,0.017107412541964025,-0.025586696528782284,-0.41557066705213086,-0.0015437903597711076
1777244565.5773675,0.016461643775957706,-0.05433573807072345,-0.41565118176598986,0.003135900564618915
1777244565.5973418,0.016914472314614702,0.08484681019843215,-0.4157160439992901,-0.008660853219597382
1777244565.6174319,0.017654644718152635,0.02154899159104912,-0.41568679411972603,0.012990023352354257
1777244565.6375444,0.017393853965515238,-0.032116973660899995,-0.41554781836942944,-0.006358226359062985
1777244565.6573625,0.01688209026153059,-0.012956794631144655,-0.4156041947645762,0.0005515924910268033
1777244565.677708,0.016900840691806987,0.013199053817642779,-0.4156133967569958,-0.002311251868911529
1777244565.6972785,0.016332857046154545,-0.04290524792493708,-0.41545935424951397,0.013657916049050794
1777244565.7172313,0.017428791586850727,0.05580188492749799,-0.41555668959947606,-0.006373533985353524
1777244565.7375486,0.01747616587456209,-0.018337819076005398,-0.4155557532052715,-0.0017387278888659373
1777244565.7572832,0.01709137844974838,-0.046955480656036636,-0.4156142302332408,0.010557039278316232
1777244565.7772949,0.016812914723557233,0.024952612742299932,-0.41558913345760096,-0.00584937973668283
1777244565.797196,0.016201770576248296,0.00727966051906462,-0.4154913336592143,-0.004579259641990091
1777244565.8172479,0.0169394868025457,0.05851147437165355,-0.4154229538831613,-0.011088847426201935
1777244565.8373036,0.01755760752534651,0.018605060022545753,-0.4156397324559989,-0.0029959976239658124
1777244565.8572087,0.01727526927365881,-0.03158413958468581,-0.41557666812759836,0.004779555648270301
1777244565.8772752,0.016403599699098194,-0.01765857394407594,-0.4156490726802392,0.007923151875730712
1777244565.8971848,0.016545044436358562,0.011747342292793561,-0.4154902691171939,-0.004338886701914585
1777244565.9171937,0.01729769862722232,0.023059757212106572,-0.415611412326356,0.0006504876247143521
1777244565.9371767,0.01759656730089217,-0.0005760851355824344,-0.4156585912376163,-0.001130867549369824
1777244565.957202,0.01721599426906582,-0.02520406710081424,-0.41567905078452194,-0.0038347975023674432
1777244565.9772546,0.016501126040584436,-0.054056954557681364,-0.41560670010181566,0.014801780410598802
1777244565.9971888,0.01661289758441226,0.06448726440031069,-0.4155546479787106,-0.011428053786093646
1777244566.0171902,0.017261803641992996,0.015499048560329496,-0.41566981335741426,0.00012000370361079911
1777244566.03762,0.0172719589387762,-0.00812244372977133,-0.4156788246376686,0.005719367388796454
1777244566.057248,0.01724604843516824,-0.005126769697056941,-0.41560846286452363,-0.001640584412853158
1777244566.07724,0.01696437094618227,-0.008441194381418297,-0.41562915059612604,0.0012264460547310285
1777244566.0972352,0.016594959454731276,-0.04889662274682191,-0.4155403548494343,0.014986935065838185
1777244566.1171834,0.01719764630598815,0.05085379286979275,-0.41563785009925547,-0.014962301516898997
1777244566.1373787,0.017216336961320654,-0.0006128392603899329,-0.4156104977758229,0.002364177596279643
1777244566.157184,0.017133642824672477,-0.002960765720330297,-0.4156022243295575,-0.003032997137092891
1777244566.1771827,0.01706687639454152,-0.003865619795029804,-0.4156202842608063,0.00038712063142846704
1777244566.19723,0.01691051100057544,-0.003833537745740881,-0.41550460423636293,0.005153220709326928
1777244566.2171855,0.016934643504619408,-0.008399416577073156,-0.4156313908712753,0.0012585116539531149
1777244566.2371564,0.017141855051134285,0.018626812109305144,-0.41558484292165476,-0.0035791585720622186
1777244566.257182,0.0173731660374145,0.00749648177444737,-0.4156216493949457,-0.00012240592374575536
1777244566.2772698,0.017259263843543753,-0.011699616509403734,-0.4155925328908442,0.001354540592928427
1777244566.2971828,0.01700067107280547,-0.004580552643181632,-0.4156160452724881,-0.0036683956421711015
1777244566.3171847,0.01710058388553948,0.008584902027951428,-0.4156866162584028,-0.0016598076786048135
1777244566.3373108,0.01730261804287525,0.010615132221091592,-0.4156832524355656,0.0028277275783731683
1777244566.3572247,0.017309752095943005,-0.017781171320487812,-0.41561161319196716,0.0005088339085574212
1777244566.377182,0.017021473274564502,-0.002914629748920175,-0.41566676469359415,0.0017521711297298459
1777244566.3971848,0.017107857254291824,0.013369541959593643,-0.4156447252165496,-0.0045405079032295355
1777244566.4171865,0.01724232391783006,-0.011723666923762113,-0.41569771378005393,0.0018101988776130615
1777244566.4372315,0.01700522656231178,0.0029254278868359766,-0.41562493505753706,-0.001798110936522451
1777244566.457252,0.016977889180445627,-7.787490396351853e-05,-0.4156604414793333,0.0012254230914200803
1777244566.4772298,0.017185575883388933,0.008456398713910438,-0.4156623616364695,0.0013329016527131976
1777244566.4971814,0.017080811601696118,0.012027107218150593,-0.4155779555425338,-0.0032331547327000996
1777244566.5171819,0.017257070114122128,-0.022757940615744373,-0.4156117878877352,0.0038718557730389844
1777244566.5374842,0.01663832181165118,-0.005989427421126013,-0.41569879043327695,-0.00037325732489431056
1777244566.5572164,0.016863562293302114,0.0251904248522806,-0.41555068060801703,0.0037213039776175347
1777244566.577182,0.017460391797560496,0.010707970158287453,-0.41558526872043544,0.0006779534557660839
1777244566.5972726,0.01734570345867846,-0.010997723207853274,-0.41561446762849935,0.0018652315928481657
1777244566.6171892,0.016921954558992605,-0.02166913608252335,-0.41563681104678796,-0.0049066131898867936
1777244566.637272,0.016680731340346384,-0.005673858295314136,-0.41566146194904985,0.001848201806619859
1777244566.657183,0.0170509270295979,0.028117641439139838,-0.41562437182434253,0.0005804179325507419
1777244566.6771836,0.017673118243271647,0.0056792219684420366,-0.4156103533173603,0.000709249141974827
1777244566.697271,0.01717275622358475,-0.0313730662823096,-0.4156214659470516,0.0007954085534952859
1777244566.7171817,0.016599178589726888,-0.009263516566293843,-0.41560305133804043,-0.0018697056804416077
1777244566.7372706,0.016797747813084803,0.0232668842806579,-0.4156104338932266,0.00021274600922997495
1777244566.757273,0.016935606107756098,-0.04454381311743605,-0.41537123436553813,0.022340588881226846
1777244566.777181,0.016963735388769982,0.04726909809645155,-0.41553832994110196,-0.022320376506648937
1777244566.79727,0.016743463798196717,-0.03364855351508872,-0.4156313665662842,-0.002046588483741135
1777244566.8171823,0.016411610259221176,0.018446474764827886,-0.4155581764429219,0.00663806679959415
1777244566.837268,0.017355226098352806,0.05749727260859175,-0.4156955847221011,-0.01064615002660026
1777244566.8571925,0.017407904629421527,-0.01981854271971439,-0.41562806330218005,0.0005776625357746645
1777244566.877185,0.01646770387937297,-0.02421059514151938,-0.41559544195386255,0.0004656303039688839
1777244566.8971827,0.016849507651895697,0.021923373318957412,-0.415759844425834,-0.0016332305021496576
1777244566.917213,0.0169996475238368,-0.0450856269365372,-0.4154853065265781,0.016964434909248965
1777244566.9374554,0.017302509995927126,0.029490775623935348,-0.41568460600966717,-0.013707701762529851
1777244566.9572508,0.016784140063597477,-0.0328116985420539,-0.415620678418123,-0.0017329352475086875
1777244566.9772224,0.01647737766450154,0.017902865207427066,-0.4156997577220259,8.204929381265254e-05
1777244566.9971821,0.017401112223758692,0.04253700244393299,-0.41574221594603356,-0.00013395403398537868
1777244567.0171869,0.017769901343782635,-0.015318590120134808,-0.415667396075696,0.0028346074812800994
1777244567.0372717,0.01707177391985696,-0.044886800980508124,-0.41564922494889983,-0.00028080361140266357
1777244567.0571828,0.016507128602031254,-0.0008715006792392439,-0.4155577360769502,0.0044785876443442065
1777244567.0772305,0.01692803941646108,-0.021142004816207288,-0.4156769018369453,0.010784053700268064
1777244567.0972724,0.0167614477409403,0.08245964542596612,-0.41547279827925443,-0.01693611161795146
1777244567.1171412,0.017535942876981903,-0.02718944070294285,-0.41545650062957573,0.00684659659231161
1777244567.137486,0.016650627906510743,-0.026860030459892326,-0.4157026899645622,-0.0026870000022419407
1777244567.1572402,0.016610169267507812,0.022722960596872566,-0.4157381716579448,-0.001588680368914314
1777244567.1772714,0.01738753156368342,0.03035353840810254,-0.41573067369643574,0.00602011707116305
1777244567.1971824,0.01728223339504771,-0.0012568513481534503,-0.4155107434210945,-0.0005181929517095896
1777244567.2171843,0.01709934773178398,-0.02179670849491427,-0.41541058135250464,-0.0021805757474212145
1777244567.237618,0.016770613872221382,-0.01877949846096541,-0.41549137313888673,0.008086425148661352
1777244567.2572708,0.016729168707119293,-0.02066490156528047,-0.4157544988323866,-0.010109659775916786
1777244567.2772267,0.016972894174815234,0.06673561515694412,-0.4155485769040674,-0.003812137600137283
1777244567.2971818,0.017132596375062384,-0.012923540853472745,-0.4156002756116365,0.0013986395536701836
1777244567.3171635,0.01710536105959984,0.008341810152373317,-0.4156051168762793,-0.00756657832520376
1777244567.3372777,0.017384859929639982,0.013203568151360454,-0.4156522862022127,-0.0015520951600972055
1777244567.3571823,0.017179298986091406,-0.021655738314471568,-0.4156803724643012,-0.0002844988468403032
1777244567.3772707,0.01612766334745943,-0.01153530594168858,-0.4152619623060461,0.01692073180695501
1777244567.3972328,0.017363813236180053,0.04230580172308501,-0.4155033067962747,-0.008156997018140839
1777244567.4171836,0.017561080142731528,-0.015866946587328925,-0.41578352056877155,0.004771416036656689
1777244567.437467,0.017106244046579087,-0.008594641533837235,-0.41553095164762927,0.0007025742781793629
1777244567.4571803,0.016987572195956188,-0.015158683181352186,-0.41563935828544507,-0.00103181648575153
1777244567.4772274,0.01604613102435152,-0.03603512248825652,-0.4154544965533654,0.012105679374515937
1777244567.497182,0.01725979780480369,0.06360897358461326,-0.41545776649082833,-0.0002367193436028812
1777244567.5172257,0.017393213016641658,-0.0057605560361626805,-0.41558856342976935,-0.00870975778749979
1777244567.537178,0.017095728877508647,-0.021017311487613235,-0.4156545133857308,0.0010471904318093803
1777244567.5572708,0.016960368598526843,-0.0006139562140644015,-0.41567952924338103,0.0012618734543600573
1777244567.5771806,0.01708095913502158,-0.019739177020177242,-0.4156557249121315,0.0091924684318118
1777244567.5971825,0.01649880756314969,0.04292980137426794,-0.41547636031765944,-0.012647981354984978
1777244567.6171834,0.017103954161980663,-0.02467216314704046,-0.4156290852240789,-0.001908884402256855
1777244567.6372318,0.016872137411553745,0.004915436868517505,-0.41566906990121855,-0.0007877684610975876
1777244567.6572978,0.01735139540120756,0.03646262070987172,-0.4156410143749979,0.0016403149759917468
1777244567.6772735,0.017413902238225958,-0.03795312647457447,-0.41562777110685023,0.010838806326074629
1777244567.6971836,0.01662321693354937,0.011041702961940627,-0.4155380327367968,-0.01707359286450923
1777244567.7171853,0.01682603678330622,0.017742505708425425,-0.4156302614248526,0.006959901723687584
1777244567.7371812,0.017225148193110877,0.02792483960730222,-0.4155969295590866,-0.0024392202488273283
1777244567.7572796,0.01743362322791081,-0.05120416978594283,-0.4155960297551766,0.014282554901219473
1777244567.777183,0.016364781470897545,0.020755991045510708,-0.4152834208839633,-0.006273289431717304
1777244567.7972786,0.01648361677127211,-0.032402162906168264,-0.41560872463338155,-0.008539995941996132
1777244567.8171895,0.016579779252213593,0.0689567958205784,-0.4155008295723565,-0.004382081909752273
1777244567.8371422,0.017637897801570362,0.0071795821163481745,-0.4155781555615359,-0.0005066917909027524
1777244567.857272,0.017460762409240632,-0.02446272534727664,-0.41562764147455483,-0.004228008565227387
1777244567.877227,0.016614831182876055,-0.007480331584487157,-0.4155818150124101,-0.0017554205368009615
1777244567.8972728,0.01667070313262071,-0.006990054061779464,-0.41561932224285025,-0.0032458617327309645
1777244567.9171867,0.01643144004855429,0.013095096544375854,-0.41550555327670396,0.0116567347048863
1777244567.937616,0.017904672698765115,0.035258785505154995,-0.4155711899181729,-0.008379362147352538
1777244567.9572282,0.017372512345839898,-0.04003126761224407,-0.4155549944221216,0.0018061103760224463
1777244567.977182,0.01670464019061462,-0.0039445286742270085,-0.4155293793819986,-0.0011408635014914126
1777244567.9972255,0.016959860723335912,0.019913730713314596,-0.4155469812601571,0.0043665718102394
1777244568.0171835,0.017384649133491026,0.004908052155032126,-0.4156159893507218,-0.0065864260878790324
1777244568.0372255,0.01732888696750961,-0.010022856510400326,-0.41554211478489755,0.013718954983116632
1777244568.057237,0.01692326636165959,-0.015549700282328102,-0.41537799130078357,-0.010945210733702321
1777244568.077183,0.0167991022922054,-0.033943366488371596,-0.41561552256167,0.009335278183585743
1777244568.0972388,0.01702764827993426,0.07886362793257357,-0.41549036774121584,-0.012555105292285724
1777244568.117184,0.01714251506973258,-0.04098458877330874,-0.41563143588955576,-0.002594671873534643
1777244568.1372573,0.016341095400926514,-0.0031008887115536437,-0.4156112237405801,-0.0013185172110031398
1777244568.157225,0.01726676753972129,0.04078812112315133,-0.41565332019401013,0.005281599073363602
1777244568.177271,0.017631712928960572,-0.014264586461135344,-0.41566473229091844,-0.0020413417518179875
1777244568.197269,0.016532321250294742,-0.007103932588447852,-0.415484386743147,-0.001959731603578279
1777244568.2171817,0.016740715289090928,-0.022852110694323635,-0.4156361343564957,-0.0010194464365998635
1777244568.2374377,0.016509055259370815,-0.026295321206993988,-0.4156757832422336,0.009167179990381562
1777244568.2572613,0.017557596619134242,0.08853269789275539,-0.4156226563753611,-0.006602161723196015
1777244568.2771807,0.0177951320785854,-0.037419402289785075,-0.415694752016707,-0.0043765944657695064
1777244568.2972732,0.016546597226589795,-0.03750995988877001,-0.4156634554507724,0.0016394132816556603
1777244568.3172266,0.016687428709238408,0.02711803538759819,-0.41558487612081524,0.001904764817897736
1777244568.3372505,0.017114112544600636,0.02471785363064763,-0.4156718697621169,-0.006569399875498167
1777244568.357262,0.017473608147668268,0.010681194762459937,-0.41570871643753926,0.00031027662014364006
1777244568.3772118,0.017452459896603614,-0.026002522755922432,-0.41562888518877605,0.004386996185924791
1777244568.3972273,0.0157612970037236,-0.07589845018138422,-0.41533608024099145,0.017412276374028906
1777244568.417181,0.01581730909538688,0.07680539738282352,-0.4154206696287916,-0.016052919792785076
1777244568.437258,0.01726371648866791,0.03737179391959994,-0.4155125547761173,-0.009017740586947669
1777244568.457264,0.01688788435141511,-0.04613097051931969,-0.41555110569036036,0.0083199382179379
1777244568.477182,0.01676424548392636,0.01443977956548265,-0.4153700299169881,0.004593332486543183
1777244568.497221,0.017224999368352176,-0.03726327289045542,-0.4156356521030538,0.0017546571996291227
1777244568.5171852,0.015621981584845773,-0.024215788413280454,-0.41536874198276763,0.0108356496632737
1777244568.537459,0.01672145407300477,0.05697296698008322,-0.41556576617993046,-0.01624397020382092
1777244568.5571826,0.01699510969565635,-0.00036260642648200164,-0.4156315427209978,-0.002899995565802299
1777244568.577226,0.017239476671952022,0.029309714894925152,-0.41563445573365276,0.002129693039927866
1777244568.5972319,0.017563864129093797,-0.013645821901132667,-0.41562838850932904,0.002402112459916655
1777244568.6171868,0.01650826995669921,-0.07713238448534512,-0.4155692450668518,0.00819977820048982
1777244568.6374967,0.01619820852477985,0.06286813791428611,-0.41550952808044056,-0.00923675604691961
1777244568.6572478,0.017027152965494324,0.021374263957292833,-0.4156120616101043,-2.8040743457707895e-05
1777244568.6771824,0.016046283846689182,-0.012052531036314373,-0.41526654973176397,0.005092766516894871
1777244568.6971822,0.017498111574919355,0.004188747765022181,-0.41563858996890457,-0.006889964693275924
1777244568.717183,0.01646064522063645,-0.0686250231117046,-0.4155589945289468,0.00945038906095667
1777244568.7371821,0.015685076991962817,0.01820613328907486,-0.41540099356486965,0.0033200609335405753
1777244568.7572339,0.017107733403422486,0.06860160941113844,-0.4155504927919434,-0.013290344827360762
1777244568.7772255,0.016758385392916644,-0.021631588626519344,-0.4155603227730578,-0.003537092206842135
1777244568.7972252,0.017031953655900742,0.014827221178938924,-0.4156691096792777,0.00505381311020085
1777244568.8171813,0.01737771875063596,0.0071147613832537905,-0.41563762901077006,-0.0025250329834987815
1777244568.8372495,0.016832484289355975,-0.06964281927150023,-0.41561006377945825,0.011908660010454469
1777244568.8572614,0.016798868913417676,0.05610851007260159,-0.41554760173697136,-0.006390315606610147
1777244568.8772047,0.017041996479639485,-0.0020289220985523467,-0.41566093519175873,-0.009137908740084761
1777244568.8971844,0.017147240133996235,0.024702801557489305,-0.4156696093776469,0.0006371110189641704
1777244568.9171846,0.017710569463265005,0.0015797255434178462,-0.4156351548473896,0.002420275588075932
1777244568.937289,0.017470822864563258,-0.05718908581111559,-0.41567473380101744,0.0021030215098007234
1777244568.9572341,0.01564934334070677,-0.03359241703107532,-0.4154407261666496,0.010102420325157329
1777244568.9772258,0.01691582171797457,0.05946903148431232,-0.41557930544006805,-0.009640621604998085
1777244568.9972315,0.017332252090687006,0.012508643918626498,-0.415655946593104,-0.0014514324031103698
1777244569.017183,0.01737053595046758,-0.01373662163433725,-0.4155945787572786,0.009924907368014917
1777244569.0372036,0.01711813539650108,-0.01610069739744829,-0.4155282270185076,-0.008419419860700234
1777244569.057231,0.01574738991242533,-0.04659987841465857,-0.4154681393951825,0.00973271860130535
1777244569.0772605,0.017092588760594753,0.07606611220480658,-0.4156373917465511,-0.007798141967795341
1777244569.0971823,0.017446392897944314,-0.005811146715060857,-0.4156031165462775,-0.0012491696177513055
1777244569.117196,0.017237334145664033,-0.008585724884237141,-0.4156781873078241,0.004017797534529394
1777244569.1372619,0.017193732595068803,-0.002990791853024252,-0.4155908769736992,-0.0014671542931832982
1777244569.1572647,0.016722042233582524,-0.06509402504017076,-0.4155131864148498,0.011077680490306701
1777244569.1772223,0.01574231508486679,0.029836045234869962,-0.4153887501970538,-0.0027322046802236875
1777244569.1971827,0.01734217536800312,0.044835924903662366,-0.4156348499638459,-0.008828348247840474
1777244569.2171812,0.01740151197599799,-0.0009587138888783845,-0.41561803195722,0.001810243064814071
1777244569.2373788,0.017401557942755837,-0.010533966447767103,-0.4155715331082285,0.0034716359677477273
1777244569.2572656,0.017062005919124074,-0.05565864144818991,-0.41560962824974557,0.0022310788081691237
1777244569.2771814,0.015221858807684943,0.003551314085952273,-0.41520351079730766,0.003929402832415868
1777244569.2972257,0.017456376935120956,0.05451128427813784,-0.41565262127520414,-0.0015392002571087025
1777244569.3171906,0.017529133115729248,-0.0074120834593162065,-0.41557890893074423,-0.0013963004319770987
1777244569.3371603,0.01700682769999583,-0.024576636326138598,-0.4156044721235175,-0.0016801681619747655
1777244569.3571854,0.016797318732284135,-0.007372822839579071,-0.4156750695181771,-0.001812123841420227
1777244569.377225,0.01673105395091041,-0.018846209767963775,-0.41558139523266935,0.009914396600066915
1777244569.397182,0.016494474430866345,0.048629935226569054,-0.4153874955972746,-0.005302525781756566
1777244569.4172103,0.017406086181969416,-0.008659256957482066,-0.4156093742074236,-0.0021456140896861263
1777244569.4371874,0.016986814062159745,-0.021411750600001805,-0.4156450069477935,0.0008941706896196499
1777244569.4571824,0.01674884269233623,-0.022733908093142075,-0.4155675960648424,0.0034976735604749626
1777244569.4771807,0.01605643547913252,-0.01877011650280272,-0.4153953069534859,0.007952972539110243
1777244569.4971836,0.0168831026893076,0.05509501716881263,-0.41558354504813066,-0.013130890771709886
1777244569.5171912,0.017108082429624624,-0.0059580349778311755,-0.41562072607969125,0.0023922030282307718
1777244569.5371845,0.01707982756516447,0.0023716744459069154,-0.4155501700969607,0.004884733295619598
1777244569.5572352,0.01727371675422088,-0.024319544399294814,-0.41568863530963057,-0.002342223888449918
1777244569.5772612,0.01620248899536416,-0.0007603544972713512,-0.41542963265017036,-0.0001887744929168378
1777244569.5971816,0.017154790227920394,0.018398458878908956,-0.41565300302691277,-0.0001280434574020997
1777244569.6171854,0.016975723733449435,0.007720223780706417,-0.4155705070950322,-0.005491506913250471
1777244569.6371894,0.01722809790857932,0.01601480174780179,-0.4156618806985126,-0.001698165412011693
1777244569.6572242,0.017271734719915582,-0.00660413399286344,-0.4156559989752612,0.002408950681341321
1777244569.677262,0.016890516726397894,-0.015303025846220088,-0.41551103831236835,0.002389449446242126
1777244569.6972523,0.01705987551319942,-0.003215734773537646,-0.4155472269508387,-0.0011926801588482857
1777244569.7171814,0.0169233056607243,0.007011679202588746,-0.41553233488587216,0.0010037236887196327
1777244569.7372642,0.01727895452711773,0.01292084980973596,-0.4155482684531358,-0.0005138958864037864
1777244569.7571821,0.017535236274048165,-0.00873521832631399,-0.41561674550879807,0.0034133482320807653
1777244569.7772608,0.01705118204327083,-0.020217473868962495,-0.4156235048172575,-0.004382773635081288
1777244569.7972236,0.016766259782565254,0.006704261266843288,-0.41551984560274235,0.0021543636663833698
1777244569.817184,0.017042260460742264,0.00829136419813037,-0.4156221656330968,8.864712073745616e-05
1777244569.8371902,0.01724174384041787,0.009708624803281472,-0.41566941491210563,0.005539876049110032
1777244569.8572214,0.017335124566662818,-0.001670867672034834,-0.41555667304832794,0.0005589754570511197
1777244569.8772495,0.017163305613037763,-0.009544245714323326,-0.41557949042859166,0.0004603724276465549
1777244569.8971882,0.016540918713805995,-0.03040109782328487,-0.4155600361734727,0.0022505490140366903
1777244569.917182,0.01713009300491279,0.025143726900703798,-0.415664493488991,-0.00573608025518742
1777244569.9371915,0.016894396830613088,-5.725497207059504e-05,-0.4156350378233721,0.0007376475026143304
1777244569.957183,0.017256464046794488,0.028125849595748768,-0.41559522999512855,0.00039159460530650554
1777244569.9772627,0.01758123996021387,-0.012870526316587496,-0.4155941469825602,-0.0025160286171382494
1777244569.9971824,0.01678931641627233,-0.0752084705464166,-0.41565744971966123,0.009688008335257663
1777244570.0171814,0.01666101132710733,0.05654646338344818,-0.41553148016319885,-0.0024517072858677045
1777244570.037271,0.017100303828818313,0.01476411401672265,-0.41558315178404404,-0.0035930324029356973
1777244570.0571823,0.017362434942192896,0.021941332205092815,-0.41565580906451816,-0.0013118341752490104
1777244570.077181,0.017469891837438106,-0.014296283609225132,-0.41553802054047784,0.006205377279735175
1777244570.0972357,0.016991920794248553,-0.0533048407802284,-0.41556103919893583,-0.0003054098495608058
1777244570.1171813,0.015618530624563125,0.02516693752498425,-0.4153611809026734,-0.004030019489924835
1777244570.1372478,0.01720448747846292,0.012427267186254618,-0.41561667535312213,0.001189427244837543
1777244570.157263,0.017217917976213554,0.0018458967825021075,-0.41563401050697946,-0.0015966372789176398
1777244570.1772606,0.01738288514283491,0.0034574415425364688,-0.4156016239837903,-0.0008334604408116341
1777244570.197182,0.017197492785724973,-0.020869501833308598,-0.41563400042013354,-0.002315471638835681
1777244570.2171347,0.016416617166600228,-0.049720134868750515,-0.41566765625151214,0.012068622889026031
1777244570.2372441,0.017193107317602437,0.07168022420859935,-0.41553570281996555,-0.007322019865821999
1777244570.2572405,0.017434683342780352,-0.0029460128278767064,-0.4156052063592294,-0.0013393623247804519
1777244570.2772253,0.017245220054704434,-0.0011550633998204632,-0.41561325741910615,0.003158506031091396
1777244570.2971814,0.017301294465360367,-0.007033865140315368,-0.41556662103183006,-0.0026083173881027042
1777244570.3171885,0.016127101507781925,-0.06418525342907169,-0.41550636464734375,0.009568819760291152
1777244570.3373756,0.015821539753270702,0.04323879945992809,-0.41540012933362214,-0.003643990956925541
1777244570.3571835,0.01744819026712259,0.02690372163355154,-0.4155419820267885,-0.003994670781078585
1777244570.3772619,0.01709904670440636,-0.0010871192320281416,-0.4156221208114236,-0.0009691127126852549
1777244570.3971825,0.017262829594411288,0.00833546237037017,-0.4155903373138817,0.0008049905864379426
1777244570.4171817,0.017265102415531624,-0.0500874692735184,-0.4156752323694042,0.0028117020828550107
1777244570.4372585,0.01566926393892088,-0.02218719090484869,-0.41542180252114047,0.008925648589151498
1777244570.4571822,0.01676786974145945,0.0702979763868038,-0.4155430096087084,-0.006503598636284319
1777244570.477184,0.01725055872444834,0.005358545908556254,-0.4156185375669371,-0.005205531038124117
1777244570.4972255,0.01740917349218519,0.008573545563444671,-0.41566041222424777,0.001862163861621341
1777244570.5171854,0.017247873760390147,-0.033479373721679806,-0.41555098128482393,0.0008070216872787918
1777244570.5371966,0.0162721491045704,-0.059019106344209454,-0.4155419561445117,0.0075532808732858125
1777244570.557235,0.016632926359047256,0.09395118159115756,-0.41554386827569717,-0.011142599853906827
1777244570.5772238,0.01760089498157095,0.002320744207614526,-0.4156243694198957,-0.0022895533836052194
1777244570.5972264,0.017204215332419823,-0.020754490169525904,-0.4155734867617514,8.054877510472016e-06
1777244570.6171808,0.017099109583679738,-0.004253342589406292,-0.41560117533539287,-0.00021074963311369925
1777244570.637409,0.016984003454057095,-0.036006463075760275,-0.41557860317363043,0.005806796794298447
1777244570.6571882,0.016210556481879586,0.043566359919827935,-0.41543657670113243,-0.00790688159096205
1777244570.6772265,0.017115393467395684,-0.005603544501512983,-0.41538600600499,0.010198544808201298
1777244570.6972623,0.017191911247017022,-0.009239314065897865,-0.4155699198957514,0.0015493389881366228
1777244570.7171812,0.01723382255093594,0.012274548235888309,-0.4157008147528319,-0.004273872730936673
1777244570.73734,0.017194467188039693,-0.018850279791892573,-0.4156261929990097,-0.0009171327768132286
1777244570.757182,0.016783605365099267,-0.009368224327207878,-0.41557604517616065,0.0021004958257512638
1777244570.7771823,0.01720703459468879,0.0323274790713349,-0.4156132811787021,0.0029850936011596553
1777244570.7972631,0.017504552874521108,-0.00640945105030943,-0.4156198660211371,-0.0023651842317694185
1777244570.8171818,0.017108517289458766,-0.01387862613978402,-0.4156495465419237,0.0030376397661215195
1777244570.8372757,0.017057276726000558,-0.009249173348897462,-0.41561532480565716,-0.0022144918982050675
1777244570.8571832,0.016766814707834164,-0.002540011799361056,-0.415731529779332,-0.0013047322797972885
1777244570.8772597,0.01716611100680055,0.034055278917372866,-0.41564727800472734,0.005485094618369918
1777244570.8973923,0.017535174330062665,-0.00863765378578948,-0.4156075581483348,-0.004542791589600653
1777244570.9171915,0.017125505526531127,-0.024191318307233253,-0.4157561493030937,-0.0007428269823813339
1777244570.9371986,0.01665242650030533,0.008983159169796667,-0.41561654582341717,0.0010226078250396402
1777244570.9572656,0.016882098588423967,-0.022136459299052027,-0.41561641661276094,0.008335111247875709
1777244570.9772651,0.016904580031051157,0.04205523377324824,-0.4156969261401564,-0.008371387116703339
1777244570.9971826,0.01740257119420755,0.009286278582153643,-0.41559818456162184,0.0019151021881237797
1777244571.0171843,0.017256015763608166,-0.011484762692003488,-0.4156152900666774,-0.00466113086800653
1777244571.0374577,0.017171445397587477,0.0041070751756126815,-0.4156219927428954,0.0008302504011667264
1777244571.057261,0.017089482818210454,-0.011244678924284126,-0.4156246131553617,-0.0014300125155622566
1777244571.0772245,0.016867535812600528,-0.0043815633117355295,-0.4156395258114661,0.003986934752731192
1777244571.0972617,0.017196346879193535,0.019310279319763732,-0.41557293636186843,-0.0009822010471756846
1777244571.117189,0.017438211629889587,-0.0025035417970906103,-0.41558154802604097,0.00040482574602377936
1777244571.1372626,0.017195934540122443,-0.010335702157213907,-0.41559268305189623,0.0013681702946290286
1777244571.157243,0.01705757358518059,-0.014433429041020376,-0.4155756526854912,-0.00475876066443644
1777244571.1771834,0.01689163273913823,-0.005657674484608547,-0.41551050309879395,-0.003238838300281116
1777244571.1971827,0.016938644479195075,0.014999538717431152,-0.415633255506963,0.002917134873690647
1777244571.2171824,0.017331682115653904,0.014822700305168222,-0.4156274034799875,-0.0018044347776354386
1777244571.2371435,0.017420187381805195,-0.006536117830483964,-0.41562735764097014,-0.0003722745921413584
1777244571.2572637,0.017110338627478346,-0.01618998930581605,-0.4156910648364607,-0.0013852279698312764
1777244571.277262,0.016802145049570616,-0.013239534062183086,-0.4156419084248239,0.004744194360412885
1777244571.2972276,0.016803773824600174,0.02413861854907498,-0.4156475386064676,-0.0026555630463505784
1777244571.3171813,0.017499125726070465,0.019065649680023614,-0.41559702639371154,-0.004796220203187779
1777244571.33726,0.017513985441373402,-0.02168203464777418,-0.415681385013998,-0.00033091248126456167
1777244571.357262,0.016959707190483286,-0.022700183662972963,-0.41567670898701825,0.008109776301459853
1777244571.3772624,0.016858882374970123,0.003633006917531547,-0.41556989619789075,-0.004475724504047501
1777244571.3972387,0.017042111084787277,0.01733320721668111,-0.41567617472268487,0.00016884181663382987
1777244571.417184,0.017383631435376252,0.006802355762057569,-0.41537837820828605,0.006646073738282228
1777244571.437715,0.017440308825894865,-0.00693330169840772,-0.41557774824339533,-0.011585507304649429
1777244571.457225,0.01692297536936072,-0.009708217809212437,-0.41554589662620095,-0.003957103910065501
1777244571.4771821,0.017000234698607165,0.011217021340211328,-0.41563241056013717,-0.00015291512405409273
1777244571.497193,0.01716549069319464,0.006276262989718037,-0.41557070727369994,0.00047456875618904766
1777244571.5171843,0.017273544300455808,0.0017949328078779884,-0.41557906338936795,-0.0020230959445502626
1777244571.53719,0.017252379574143606,0.0011394994985565762,-0.41555465628845584,0.000373771098978776
1777244571.5571814,0.01729087719208798,-0.0007797603007296231,-0.4156071609952525,-0.00288254046888155
1777244571.5771818,0.017274884331116236,-0.014794483951524464,-0.415684034866209,0.005874927426883375
1777244571.5971837,0.016816006958470985,-0.012439556684417622,-0.415507575298294,-0.006953546777618352
1777244571.6172526,0.016822872719813697,0.018615239455463645,-0.4156461459841545,0.0025744621821616577
1777244571.6375237,0.017374670367190686,0.022985100465681644,-0.4155794477500506,-2.0715639101737007e-05
1777244571.6575468,0.0176433751343303,-0.017083251605775725,-0.4156250140030704,0.001945766018717138
1777244571.6771903,0.01671617181209621,-0.041385577388954986,-0.4153683514385362,0.0061191483606572285
1777244571.6971831,0.016555638958670738,0.011489672478359943,-0.4156542251691131,-0.004730704517239853
1777244571.7171824,0.017209063213405307,0.03706659771001619,-0.4156177549300179,0.007149338348460582
1777244571.7372067,0.017653449318847957,-0.005426965998921781,-0.4155486538531957,0.0011861628724695707
1777244571.757185,0.01733429097440783,-0.02745165829545043,-0.41555922976534937,0.00040858508702583125
1777244571.7772593,0.016747291646902467,-0.015506687122894573,-0.41556637504152366,-0.00131812662359006
1777244571.7971854,0.016950172857710125,0.020810374718808426,-0.41559424681075463,0.008603288120600332
1777244571.8171816,0.01740354618193137,0.017238557330314378,-0.41554905850713353,-0.00784041674772314
1777244571.8372154,0.01738160467397156,-0.02443544441442749,-0.4155317926452634,-0.0015228371807392725
1777244571.8572037,0.01690531638954328,-0.016951700228980373,-0.41563880382227403,-0.0034980258776292237
1777244571.8772542,0.016658014792757275,0.021783007484534905,-0.4153009916500256,0.0034060553405736286
1777244571.8972607,0.017491987662320484,0.014409035730481082,-0.41559963464474614,-0.002795661440743241
1777244571.9171822,0.01731004264460918,-0.025988760974047117,-0.41565921425936975,-0.0017241587147348194
1777244571.9374487,0.016821663458343405,-0.0207251420258287,-0.41565059979101254,0.0033548395290329655
1777244571.9571838,0.016809835803832173,0.022995033983442548,-0.41555720304765414,0.00034964220755166487
1777244571.9771845,0.017553252018383505,0.027767135191482693,-0.415594670904868,0.003216102953588135
1777244571.9971826,0.017645821991154796,-0.039656171826822434,-0.41562618429196535,0.0028601961281601697
1777244572.017181,0.01635976598694975,-0.07628499823335463,-0.415635228739423,0.0015700568521520965
1777244572.0371907,0.015662203413318754,0.061382983557211196,-0.41546969463735894,-0.0006454112187948722
1777244572.0572224,0.01769144617492146,0.04949297808933853,-0.41562853936389554,-0.00234992902368199
1777244572.07726,0.017834350944850634,-0.038055984504231116,-0.41563519449195585,0.002500521653705218
1777244572.097265,0.016599918871420306,-0.05357201776320303,-0.4155376730754813,0.010440695616930434
1777244572.1171823,0.015873714247841803,0.02770943044839755,-0.41525052526112505,-0.008920648506144895
1777244572.137348,0.017092256856528917,0.0029201939584547225,-0.41565429287857913,0.003932471249319985
1777244572.157224,0.01743764715658186,0.06587183971372851,-0.41542370464590284,-0.017057761682332046
1777244572.1771858,0.017014455055040935,-0.058973246555550585,-0.415612220409293,0.002219066803644737
1777244572.197228,0.0158405392342614,0.026439738548098363,-0.4154814426439457,-0.005599041118167075
1777244572.2171822,0.017224977465258962,0.03586062240605603,-0.41567458460751094,-0.002251022602518599
1777244572.2371697,0.017557817470110627,0.00021336356945253826,-0.41568618632821025,0.0009093252544746632
1777244572.2572238,0.017149581694773337,-0.031803890722237216,-0.41559890001573263,0.0019948962390029914
1777244572.2771833,0.016666139694116646,-0.002888022372381142,-0.4155881367739599,0.000559804623946264
1777244572.2971823,0.01708025239153633,0.037784637146582034,-0.41567040554960316,-0.0028218651862313596
1777244572.3171818,0.017575854779094117,-0.003534253245332405,-0.4156001391693751,0.0003903681327536545
1777244572.3371353,0.01689429554702128,-0.05003764204840849,-0.41556679592751894,0.00335349158529234
1777244572.3571837,0.01628946743356947,0.02002834918614657,-0.41546280286488374,-4.074170208741507e-05
1777244572.3771813,0.017096502721440532,0.03258972295459511,-0.4155673483573389,-0.0038870381880767467
1777244572.3971832,0.016686817409673378,-0.06731386656038843,-0.41543121252601856,0.013741394027973957
1777244572.4171815,0.016742175906571996,0.03022084023900493,-0.41556443098824586,-0.010821619772048614
1777244572.437126,0.0163122826586434,-0.03174601517522546,-0.4152957201297929,-0.0021846288234839855
1777244572.4572637,0.016581889369972055,0.06143353608238153,-0.4156838110817563,-0.01044777855245978
1777244572.4771805,0.017644436921802974,0.01667303616574631,-0.4156419423926788,0.0032980123367775506
1777244572.497182,0.0173414799952311,-0.03792586465583778,-0.41549082554947636,0.004357647484703503
1777244572.5171833,0.016660354892415588,-0.013376579241659107,-0.4155194580974092,0.0071134438541597235
1777244572.5371757,0.016931366450912942,0.00907400661606614,-0.4155598511916751,0.005255996775629306
1777244572.5571856,0.01709167741402458,0.020548065320944723,-0.41559615335519645,-0.008159961120435117
1777244572.5772395,0.01728842134729526,-0.0104431823582429,-0.41554658224375635,-0.0018711365655129262
1777244572.5972252,0.016941577352849534,-0.010846076232557037,-0.4155532598305186,0.0031845753246592503
1777244572.6171834,0.01697269768632494,0.020268446328568116,-0.4155921808986424,0.011124025787768648
1777244572.6371548,0.01732771794493949,0.013167194541111652,-0.4154571733804828,-0.010665898296223403
1777244572.6572192,0.017217988685736933,-0.024171847157208128,-0.41564839187098057,-0.0015864361934035565
1777244572.677188,0.016725115903053454,-0.001279541682851047,-0.4156473278906308,0.004384085484923234
1777244572.6972206,0.017139520936701624,0.030833233292657528,-0.4155620223962213,0.003988623461676316
1777244572.7171812,0.017487008493176442,0.003314193751667058,-0.41553180339663043,-0.00472882009098215
1777244572.7373443,0.01747088320343464,-0.020144524520573078,-0.4156003067908497,-0.0003879152218407455
1777244572.7572374,0.016765781979575435,-0.031339992631809394,-0.415591079353794,0.00195293761592123
1777244572.7772615,0.016648637011982513,0.03594486536862365,-0.41555558994278735,0.001412729892652881
1777244572.7972443,0.017681325258191678,0.02833040319918784,-0.4155146546100188,0.003485733670963204
1777244572.817182,0.017694428657752486,-0.036989043693052115,-0.4155623123496237,-0.004155676513477885
1777244572.837238,0.016884657017124848,-0.026819799333858776,-0.41555821246793984,-0.0027318577039852797
1777244572.8571818,0.01668550967223204,0.010517902514087659,-0.4155848596990207,-0.0017014322701485894
1777244572.877182,0.017134633540722727,0.021717577851019857,-0.41559959875185937,0.0017133840212656794
1777244572.897251,0.017570576285854518,0.008842139685207726,-0.4155426283074734,0.0009943416748378455
1777244572.9171886,0.017392553701522713,-0.026303445218717716,-0.41553638872635934,0.002318602177142343
1777244572.9371862,0.01669343830292655,-0.014534865069513042,-0.4153644444269595,-0.004760980155114352
1777244572.957262,0.016839800762658196,0.007087398571318156,-0.41562862981372195,0.0018499093875214256
1777244572.9772277,0.017137664671282228,0.014381888078927017,-0.4155374565134346,0.0007194686368669325
1777244572.9971864,0.01731750367822723,0.008993767223943214,-0.4155188954541723,0.005141130738190708
1777244573.0171814,0.017393716531440465,-0.008881053896174353,-0.41553035601070337,-0.0070234573313488645
1777244573.0374358,0.017104889180604717,-0.014678984764219357,-0.41556513266853223,-0.001411206016919425
1777244573.0571818,0.016953812051004834,0.00034650039842834795,-0.4156011381935421,-0.003343316391350842
1777244573.0772486,0.01708696538642563,0.008676982038979961,-0.41566491226174707,0.007281956877189505
1777244573.0971808,0.01725380736206785,0.01079674066764336,-0.41555586726584065,-0.0012744414333155261
1777244573.1171827,0.017382192674591655,-0.0046057419542453425,-0.4155365921640413,0.0015524087291220292
1777244573.1372612,0.017177293971757285,-0.011113301891142482,-0.4155263144821866,-0.0024350967526676924
1777244573.1571836,0.017076013133791777,-0.001307091615526665,-0.4154518183181659,-0.005473900550169679
1777244573.1772301,0.017063141506842454,0.004454391554278961,-0.41562016735811425,-0.0021581944766653925
1777244573.1971817,0.017135435096295566,0.0005177370052468512,-0.4156403278181084,-0.00013721894408942885
1777244573.2171817,0.017224573406433914,0.0031596227137068197,-0.4155721414869361,0.0007245813356743625
1777244573.2372172,0.017255173785845485,-0.0017122128562028743,-0.41563386418909876,0.001922422375829108
1777244573.2571836,0.017170035291821262,0.00041285484334555316,-0.41559372056950805,-0.0017171313914470965
1777244573.2772262,0.0170515734423179,-0.012468349299298766,-0.41556871014870433,0.0017972380157448677
1777244573.2972286,0.016831117766776867,-0.002089750349734768,-0.4155489319560756,0.001435522343519552
1777244573.3171852,0.017069198371820533,0.025109923075375823,-0.4155903243084423,-0.0024136004565232403
1777244573.3373032,0.01741272130626035,0.0029263475718599753,-0.4155802633176986,-0.0006343799347082346
1777244573.3572404,0.017082643679623984,-0.017066520806923193,-0.41560763097054365,0.0006727687976090636
1777244573.3772311,0.016885965361984886,-0.002735357517369861,-0.41569580145440077,-0.0035230144419074625
1777244573.397227,0.01699811639803206,0.008808988985215762,-0.4157094211282717,0.0037879416919956274
1777244573.417187,0.017309623661933206,0.0071077915053527375,-0.41559405736491145,0.0011662334597272563
1777244573.4372787,0.017286140677568253,-0.00201860965761638,-0.4155930786722154,0.0010899117334074837
1777244573.457242,0.017097550242417672,-0.009788012302367501,-0.41550761529179836,0.01033362607422032
1777244573.477191,0.017179279761927627,0.0059121716604864675,-0.41560426821406504,-0.011071001016419075
1777244573.497259,0.017157944252945385,-0.0016781431679603026,-0.415577140526205,0.0009545491679598228
1777244573.5171833,0.017055442681633965,-0.0014904045556664,-0.4155358463104708,-0.0015832033009853417
1777244573.5371816,0.017164895009923256,0.006043414422518464,-0.41561615665101953,-0.0036541325525750344
1777244573.5572283,0.017242998600371186,-0.00381341474323704,-0.4156251456782125,-1.068151633750185e-05
1777244573.5771837,0.01724367365911564,0.0020721833721635027,-0.4156258754697125,-0.002613061524178689
1777244573.597237,0.01711245402099366,-0.01835237818200666,-0.41562228038910737,0.009124606391330097
1777244573.6171825,0.01696523349739009,-0.021848208309177913,-0.4156337032061287,0.006115418821606749
1777244573.6373043,0.016678377538380737,0.02950655449873119,-0.4154215267380914,-0.010907089786915531
1777244573.6572504,0.017326722306219643,0.011045326065000919,-0.41561305444600705,-0.002181215505906514
1777244573.6772947,0.017283128257767316,-0.005778819763218337,-0.4156096598491441,0.0025524768368174024
1777244573.697245,0.01705139452489885,-0.011469614213578835,-0.41556160055936875,-0.00239015672172978
1777244573.7171853,0.01675354243332528,-0.00973959131438448,-0.4156137053141499,0.00037704823387067483
1777244573.7371998,0.016928080315386406,0.020163780271838575,-0.4155956198349978,-0.00037249563237281007
1777244573.757228,0.017370242341187177,0.013721988889800977,-0.415616097071488,-0.000711339048716414
1777244573.7772458,0.017281509396291243,-0.00511302388560658,-0.4156044068019168,-0.0001004428485085918
1777244573.797186,0.017018187406182994,-0.02238917979224236,-0.4156681754708684,-0.0026774826600831246
1777244573.8171825,0.016746449503770217,-0.03476461326382513,-0.41577236473028467,0.007828359733372963
1777244573.8371608,0.01571708306692153,0.010232366566122364,-0.41534232423440387,0.012859636846113059
1777244573.8572457,0.017707893994877023,0.04928141147390375,-0.41568153609243164,-0.011554636115100731
1777244573.8772662,0.017385429994727596,-0.03449086019135669,-0.41569042190992234,-0.0007403728284572531
1777244573.8972497,0.016667102560769385,-0.013044823174501062,-0.4156135170873094,0.0012029648533699421
1777244573.9171832,0.01690887940683234,0.016709089593219515,-0.41564435531078625,-0.00026540953565786234
1777244573.9372642,0.01717474655340988,0.020182252717587865,-0.4157044322727074,-0.0029145201146019875
1777244573.957207,0.017403365634616027,-0.001831543541048444,-0.41566208918083636,0.00322247501441601
1777244573.9772632,0.017098461921057302,-0.017469288696523002,-0.4155825217381014,0.0026395360187844554
1777244573.9972687,0.017119449991188442,0.013793945903034708,-0.4155773039687224,-0.0014226492402803102
1777244574.0171819,0.017337343905850965,-0.02025852433835423,-0.4157781152480936,0.0076676446216554055
1777244574.0373633,0.016644888028581044,-0.020095708535908058,-0.4154681771491323,0.00995693229302012
1777244574.0571895,0.01641878335601818,0.03303679193397621,-0.41540754293713333,-0.015171667947427043
1777244574.0772693,0.017615583810911464,0.02018112214117968,-0.4156871783093213,-0.0013695789214994314
1777244574.0971828,0.017450373284211673,-0.029733140531212645,-0.41566932435926685,0.0010484383410222342
1777244574.1171827,0.0167025969748786,-0.028499671443696584,-0.4155846180777071,-0.0005094307879439264
1777244574.1374867,0.0165205548110149,0.012065498597072734,-0.4156739873330011,-0.006284409416606645
1777244574.1572473,0.01719779086462917,0.035606235023617094,-0.4156559467610416,0.010242923753818339
1777244574.1771822,0.017743127801266613,0.002809614831801786,-0.41551001157967166,-0.008032863341739766
1777244574.1971824,0.01710125456023736,-0.03842542737688032,-0.41566215201676027,-0.002845665899635047
1777244574.2171466,0.016193372521942997,-0.016128112765218527,-0.4155849247758172,0.004785892171909872
1777244574.237334,0.017040739347005916,0.059631901319555286,-0.41570193050234755,-0.006815924081958375
1777244574.2571814,0.017372980490746596,0.012872119625093135,-0.41561531347740266,0.002589735571282209
1777244574.2771828,0.017145004672036356,-0.005053528416614659,-0.4154574016185349,-0.0028411030468412247
1777244574.2971838,0.017122437075425143,-0.01948077617662133,-0.41571070317322967,-0.0025474178508123227
1777244574.317182,0.01673534739808083,-0.014072191312473389,-0.41564822436117793,0.004605789664095789
1777244574.3373702,0.01663139376641607,0.042852074215268154,-0.41552702975242495,-0.008356337262225582
1777244574.35724,0.017132055549063517,-0.007992554806118709,-0.41566812127627084,0.0013411641326258994
1777244574.377198,0.016998405355066516,0.004894932227024669,-0.41561200081810507,0.0005331756111838615
1777244574.3976068,0.017405911337759053,0.0069596433301286655,-0.4155944492216007,0.00024153774051220445
1777244574.417218,0.017286745429796756,-0.018055107016813034,-0.4156535241696633,-0.0049474292289016395
1777244574.4371936,0.01575756053039939,-0.02240428433583258,-0.415403177052199,0.0048923164622511174
1777244574.4571853,0.017049758048852948,0.03595925299243696,-0.415643474916571,-0.003664347994038436
1777244574.477184,0.01732348526705009,0.008020831412920596,-0.41548886322636547,0.0008602617091534705
1777244574.497182,0.017524717680997934,4.916016679293658e-05,-0.4155934379726992,-0.0018270466184147792
1777244574.5171828,0.01702172930049105,-0.024613809831381308,-0.4157086231455262,-0.002676847048383851
1777244574.5373082,0.01634666345589539,-0.05229621821721858,-0.4159679162717931,0.001688322962885607
1777244574.5572634,0.016705281902843264,0.07001547555187188,-0.41551093012280527,-0.00665396991828911
1777244574.5771832,0.01730116432757578,0.009452402083360265,-0.41561747715717473,-0.0006591598879882199
1777244574.5972006,0.017474705241386192,0.010358254894721256,-0.41554994686035873,0.010371258602560534
1777244574.6171818,0.017530975201447724,-0.016669800768888268,-0.41558609203032404,-0.013337189026032831
1777244574.6373403,0.01675575086540379,-0.02398145301144869,-0.41560322895729407,0.0038127423752418003
1777244574.6572268,0.017612769189925798,0.004141881892265276,-0.4157764191726051,-0.009582031801137553
1777244574.6771817,0.016725354479697783,0.014947555260426544,-0.41555768194652665,0.004849282364728297
1777244574.6971827,0.016939565510553718,-0.001453785974021874,-0.4156034044079791,0.0007845107366925397
1777244574.7171812,0.016841731291611664,-0.01430971881922324,-0.4155286566529256,0.001142307808618498
1777244574.7377753,0.016432227149334587,-0.008794987987723933,-0.4155598721630867,-0.008088155828871308
1777244574.7573943,0.016708283643322996,0.02039679188157617,-0.4157989007660449,0.0009986596280497193
1777244574.7772236,0.01743788350820764,0.008115898041882206,-0.4156209611185193,0.006746388927054409
1777244574.7971869,0.01738148934524626,0.0008580855220775875,-0.4156389390181602,-0.0027493848896982974
1777244574.8171818,0.017246281403444592,-0.007511163098153415,-0.41571896416023785,-0.0027299451370937536
1777244574.8372588,0.017172678402154397,-0.009199903806343442,-0.415725998422039,-0.0006406531048489153
1777244574.8571856,0.017190178092588528,0.01779136220845701,-0.4158682748015389,-0.00608693247796473
1777244574.877183,0.017814306009911473,0.011005529098482129,-0.4160871290015564,0.005676071674884191
1777244574.897184,0.01761554539207615,-0.03667959630889844,-0.4156636275304938,0.0062867703414598965
1777244574.9171853,0.016888155608310054,0.02891001129858731,-0.4156515698450888,-0.0007536272504567621
1777244574.9372773,0.01709824004841273,-0.03593507057145537,-0.4154926552911424,0.012937768482658969
1777244574.9571953,0.016418771200593155,-0.07530997772493414,-0.4153996241093435,-0.0011288259319258307
1777244574.977258,0.014842888411879295,0.05477493085612001,-0.4153332609085135,-0.0032681177282392775
1777244574.9971836,0.016281800828078823,0.008042787688585714,-0.41532455731517154,0.004176857364493509
1777244575.0171883,0.016453349423907887,0.013449209870247949,-0.4154312007259478,-0.0015468388239020133
1777244575.037129,0.016959744091417837,0.0015342034651122409,-0.41538258623745783,-0.008143728971421309
1777244575.0571835,0.016474172581573705,-0.03074146284041221,-0.41560142615319007,-0.0048438362290979696
1777244575.0771825,0.016175367951450605,0.011983314175178589,-0.41574758272246,-0.0036515871648650946
1777244575.0972285,0.016537457210096987,0.012225512310925587,-0.4156842967261876,0.006294154603955143
1777244575.1171837,0.016670095178882474,0.0006888080444329722,-0.4155839553178093,0.0037393739101176217
1777244575.1371977,0.01679526497856603,0.006086871444852511,-0.4156262073992746,-0.0024236637906381478
1777244575.1572242,0.016750006331754747,-0.012663951400280258,-0.4156979531062523,-0.005895067575961772
1777244575.1771889,0.016381653683853872,-0.007823620861830331,-0.4156927108005388,0.0023101423626232073
1777244575.19722,0.016444373972825298,0.00877051363146353,-0.4155917895509159,0.0077865755875549504
1777244575.217183,0.016627700335806232,0.0023160805277112635,-0.41555961544145326,0.001702011080851368
1777244575.2373095,0.016559142250224625,0.008445788083809304,-0.41559512796315,0.00040608611839824667
1777244575.2572658,0.016849072946564406,-0.006802163971227097,-0.4155408796247122,0.0006608292441729171
1777244575.2771866,0.01641591647708528,-0.021988610742525866,-0.4156018773229202,-0.003738553371627279
1777244575.297231,0.016174929048120443,0.013717658358926577,-0.41566857078240754,0.0007260368985352704
1777244575.3171844,0.016498980827781277,0.003390043700476049,-0.41554048369308605,0.003184893184630483
1777244575.3373795,0.016561991726198287,0.00822744357844374,-0.41555500836839493,0.000267444662085986
1777244575.3571973,0.016846575453222358,-0.003863273302187662,-0.41553309686362977,0.003958224306256736
1777244575.377189,0.016383978524310526,-0.030313747684239056,-0.41554980727208735,-0.008955847614258012
1777244575.3971832,0.016014434031727812,0.011063578877568453,-0.41564840963667404,0.0018268077767353119
1777244575.4171815,0.016511767291596195,0.022057087920639068,-0.41547987872877007,0.004624007017112558
1777244575.4372623,0.016782108426571747,0.004930542084874369,-0.4155286964842678,-0.0045481672222401235
1777244575.4572663,0.01672470207925349,-0.001236287127110573,-0.41555434925487705,0.0011159342171566502
1777244575.4772313,0.01672318169882238,0.02063496865650266,-0.4153181519375149,-0.0034788794597034487
1777244575.4971817,0.016972580842974688,-0.015100008699896191,-0.4157609321227077,-0.0037911620286544437
1777244575.517182,0.01758925664561143,0.05500162973962858,-0.41572655772695066,0.004245599697894214
1777244575.5372312,0.018473542371917454,0.03614101905152701,-0.41568063304482705,-0.002090637535991774
1777244575.5571854,0.018521804749128085,-0.09770673277811925,-0.4157716841609173,0.008619772758634497
1777244575.5771868,0.016890963249632938,-0.011730329740083227,-0.41554798097222934,0.0013159768029008924
1777244575.597183,0.01621368021277158,-0.02331295023488489,-0.4156379076603739,-0.00827083695089777
1777244575.6171825,0.016170870388647212,0.026889122381024755,-0.4156739295172813,0.009166416303013552
1777244575.6372654,0.016821031112959156,0.015806844009089133,-0.41546266066109705,0.006503020764047002
1777244575.6571877,0.01857711807257561,3.303115979472735e-05,-0.41570973591185495,-0.008879697136543758
1777244575.677231,0.016491711925358896,-0.01286757673888275,-0.4156370497753602,0.0026775120993166976
1777244575.697226,0.016134889962049218,-0.013643174696661764,-0.41558782961487006,-0.005926958692982725
1777244575.717192,0.01629407329383292,0.021138849819751337,-0.41573305591975157,0.002842400623268276
1777244575.7372096,0.01678243768129392,0.02473297337329733,-0.41557142414262976,0.0112543501995425
1777244575.7572677,0.016745725518873825,-0.017005098110247724,-0.41551118884727745,-0.006269139365413362
1777244575.7772627,0.016445110291254592,-0.0019121446913364913,-0.4156257813101499,0.0009052820134699934
1777244575.7972276,0.01666703644675397,0.0001940829877889478,-0.41558310738174886,-0.0018558708935015487
1777244575.8171864,0.01649348374317449,-0.006785987984692625,-0.4156558950174572,-0.00302335260042404
1777244575.8371868,0.016454933398396748,0.00966734755353424,-0.41566101100694686,0.006115979235256013
1777244575.8572671,0.01662679899084127,-0.0031064592185365814,-0.41551566983149996,-0.0013269526177704547
1777244575.877225,0.016547670100691414,0.004505782503183288,-0.415576252338065,-0.0038950737477748297
1777244575.8972318,0.01689586344565238,0.008629767432965622,-0.4155754287533264,0.0035751308513988613
1777244575.9171875,0.016616056868546267,-0.024270748230278444,-0.4156483666559486,-0.005346493355349607
1777244575.9371905,0.01636660573396854,0.006719885015215006,-0.41571139895720816,0.003982913711548503
1777244575.9572668,0.016882721324390317,0.015615659469209401,-0.41549368748474047,0.004440693344775743
1777244575.977194,0.016798599848730535,-0.009164960595668068,-0.41557384022098975,-0.005466000252865327
1777244575.9971826,0.016752508358950514,7.570804063841897e-05,-0.415653064977339,-0.003943885514492279
1777244576.0171838,0.01658697112447325,-0.025942907693454975,-0.4157660034826722,-0.009013722873703351
1777244576.0372622,0.016180572762777793,0.0007240793422862166,-0.41588546647341634,-0.00012556678400728652
1777244576.057243,0.01679127157772275,0.037792430184622194,-0.41562945331594914,0.015425124695456798
1777244576.0771859,0.017458040302586866,-0.08195358493697158,-0.4157352296330668,0.04750609794331788
1777244576.0972364,0.015572263953817535,0.21230753584168344,-0.4130521601019026,-0.6791141532533825
1777244576.1171558,-0.2991436331075417,-38.2002245302425,-0.19367944917154922,27.71363204916873
1777244576.1371758,0.22781968527435756,57.18013028565759,-0.5681637424729178,-41.230366150885324
1777244576.1571832,0.01674181230635069,0.033025410883610495,-0.41548367478255627,0.008293180054913902
1777244576.1772745,0.017053574426849797,-0.01541568691246006,-0.41523455283251254,0.0043449931709724065
1777244576.1972516,0.016081895591539445,-0.02428492587417269,-0.41569065685472223,-0.017774840106981788
1777244576.217195,0.016326928275218408,0.022015812911976462,-0.41567172741131386,0.0035407054991904276
1777244576.2374418,0.01674634935212046,0.003748485876230419,-0.41559653996696755,-0.00650438600156929
1777244576.2572725,0.016366742903739948,-0.005136008505432247,-0.4157731019119622,0.006626428916397014
1777244576.2772408,0.01660493588559879,0.01662493391026809,-0.41555836583209416,0.0027136475967838693
1777244576.2971866,0.016766436252108136,-0.010409588646099945,-0.41537491955630035,0.00970929281745085
1777244576.3171844,0.002978726262815199,-0.4327414379073258,-0.39466309272218403,0.7066360019306754
1777244576.3372073,0.0164438416423836,0.7942068335937126,-0.41368194091234534,-1.1447447653365617
1777244576.3572292,0.017585301859977396,0.019108632695626713,-0.4149209865796962,-0.011237363083082501
1777244576.3772554,0.018420949981837062,0.05269336758053198,-0.4155564624017216,-0.04499573633284666
1777244576.3971832,0.01932667211017084,0.02396540334820805,-0.41644949867213193,-0.060985017904102115
1777244576.4172657,0.019491237154007645,0.0321438233536332,-0.4181351676949007,-0.09401334522654711
1777244576.4373138,0.02023823962158209,0.036127008745460855,-0.4199494647270813,-0.11813820774690717
1777244576.457275,0.020589950043700997,-0.020042508406847535,-0.42218781407785066,-0.07347968346776787
1777244576.4772418,0.01975180587337723,-0.03161248994477319,-0.42304301553741497,-4.6213138212591355e-06
1777244576.4972434,0.019152819772154637,-0.038764221529911345,-0.42261294859745013,0.01611676059856318
1777244576.5171819,0.018412027194235663,-0.012722614315746889,-0.4223220263625127,0.03259922430660436
1777244576.5371969,0.018530393242758375,-0.013191309937972096,-0.4214484613223645,0.03501840694044503
1777244576.5572712,0.017619844496715564,-0.05020445447400937,-0.4211625547088088,0.003104761790747064
1777244576.5772364,0.016607400369345736,-0.04105804249779016,-0.4211757807501971,0.009628321374075684
1777244576.5972257,0.0090768515943363,0.16772286417086887,-0.4140400124880472,-0.20436971552448155
1777244576.6171975,0.014982388749949935,-0.06523527800907614,-0.42103211667094187,-0.010195398472958443
1777244576.6374836,0.013743503627594899,-0.04992775470917403,-0.42124011408191264,-0.006281162549249013
1777244576.6572728,0.012910810225489731,-0.049857865271741235,-0.4210726013119675,0.006165348930671362
1777244576.677241,0.011645411846305898,-0.05939727885612164,-0.42123922769188227,-0.013084594287496948
1777244576.697248,0.011287504989615192,-0.005271003204432142,-0.42131875959221904,-0.0015215304931824594
1777244576.7171834,0.010762463170911108,-0.03833510478160123,-0.4213737133452662,0.003260254485057652
1777244576.7373364,0.009883242816187864,-0.047199362326218075,-0.42131615649080784,0.0040328941063473575
1777244576.7571847,0.009248990714740215,-0.016497773329536374,-0.42109152138802863,0.014615109045096693
1777244576.7771852,0.008864840918858051,-0.028147671229689697,-0.42082891083300156,0.009185808375233114
1777244576.7972417,0.008115779465124536,-0.04665643456041159,-0.4205181587875399,0.020419525204292164
1777244576.8171842,0.007032701342177734,-0.030854603982648977,-0.4201562883943984,0.011953877099066954
1777244576.8375416,0.006701299024885081,-0.03477509759966764,-0.41997645192815014,0.003863942761086623
1777244576.8571825,0.006021448076493878,-0.045433375686677394,-0.42012390448461556,-0.006896523208980678
1777244576.877196,0.00475077721403694,-0.06932849842469181,-0.4201653714656136,-0.004561725135606789
1777244576.8971832,0.0032367359237088144,-0.0655998696451099,-0.4203420255495952,-0.0076570201910740295
1777244576.917188,0.002177885059900881,-0.041365294472160266,-0.4203723502078772,0.007798985144874901
1777244576.9374144,0.001233674474405306,-0.08607172669635567,-0.42025810458955204,-0.027682967704412444
1777244576.9571908,-0.0007984682618186675,-0.10196391128226275,-0.4213202746734083,-0.03482821735851291
1777244576.9771914,-0.0026523506827270003,-0.08178119224508701,-0.42135979732160234,0.019917074104613658
1777244576.9971826,-0.004698278600310801,-0.07528065783311319,-0.4215201131167893,-0.033498013842863855
1777244577.0171828,-0.005764675124272694,-0.04212743583477452,-0.42199864318509994,-0.019742220579738706
1777244577.0372815,-0.00658727883671243,-0.06571744557095849,-0.42224125748464897,-0.015218030868797555
1777244577.057183,-0.008318529687349793,-0.08722816218545713,-0.42259757627622185,-0.014154240101960399
1777244577.0772374,-0.009850024922949846,-0.0494252150079198,-0.42299671059383004,-0.01783636167940314
1777244577.0971882,-0.010617720803973843,-0.04532287332923971,-0.4232946455655462,-0.00958160145683071
1777244577.1171837,-0.011741323616782703,-0.06334697877667397,-0.423410895817572,-0.003969306289912075
1777244577.1371634,-0.012872714709459138,-0.06850831338730722,-0.42340784341564697,-0.002764054505863231
1777244577.1572652,-0.014393688844277932,-0.06949705357086573,-0.42351044713122377,-0.007118240043086341
1777244577.1772275,-0.015869497424961458,-0.06816792032236232,-0.4236678716923033,-0.0029318112235453306
1777244577.197183,-0.01589454391025486,0.01834392953983352,-0.4236016905346872,0.007824850786337791
1777244577.217182,-0.017026834854850396,-0.0714832334956528,-0.42327954269969437,0.017431854734553245
1777244577.2372665,-0.018195814234129283,-0.06325010594524652,-0.4229486009512795,0.027855323476961097
1777244577.257186,-0.019460044778318777,-0.06280769619288787,-0.4223047201128585,0.02734330443829927
1777244577.2771819,-0.02089542707628824,-0.09046498440510596,-0.4215375101125678,0.05540976054180394
1777244577.2971892,-0.023004579321130574,-0.09413424425500076,-0.42078379924273773,0.031114335669134935
1777244577.317183,-0.02430295958609285,-0.02527201712121986,-0.4200442920858143,0.02076669854720384
1777244577.3371973,-0.02437012309422951,-0.004902094096905745,-0.41976550748570257,0.016464469366469423
1777244577.3571932,-0.024838428436829544,-0.030442631802990047,-0.4195094606525248,0.011280469216700482
1777244577.3772612,-0.02548237574155379,-0.016024667439093993,-0.4188879920604047,0.03738101771050376
1777244577.3971815,-0.02522738256154536,0.04024432215246802,-0.4186251929510843,-0.009709004591367552
1777244577.4171834,-0.0240470314444207,0.05749509409826621,-0.418630067409315,0.023883606569152484
1777244577.4375486,-0.022866998958437072,0.028706036286406125,-0.4182599035759179,0.007218915724430153
1777244577.4572527,-0.02290151406034359,-0.004559691079829133,-0.418172268990587,0.010876330109751343
1777244577.4772265,-0.02288816157365455,0.0017384332176946387,-0.41739095159667816,0.01590684328474016
1777244577.497182,-0.022629734356150216,0.02971236101050166,-0.41747555507131084,0.020407458805110558
1777244577.5171857,-0.02193435809651869,0.0269632789405883,-0.41714997922076946,0.02651751234218317
1777244577.5375853,-0.021646585113638567,0.005486657545543328,-0.4166032879683531,0.007230377886360421
1777244577.5572624,-0.02148755724544422,0.028388275165818117,-0.4166171018593542,0.018779581946502127
1777244577.5771828,-0.02060863802801668,0.05382313529158812,-0.4162056978023101,0.026009386936715877
1777244577.5972292,-0.019368765477929952,0.031142033231703024,-0.4151575368885644,0.031179743939800872
1777244577.6171827,-0.019125014216459423,0.02193466217200684,-0.4147762977894934,0.04842300881973276
1777244577.6371875,-0.018666886239416574,0.04001351020976531,-0.4139525401721215,0.052009909472185686
1777244577.6572635,-0.01760736407060511,0.05286638818689865,-0.4127373831232487,0.05453531332448518
1777244577.6771827,-0.016804182382233725,0.011106559947796187,-0.4117331913877458,0.05140310077479231
1777244577.6973035,-0.016776833555570893,-0.007172976893945278,-0.4107341467675542,0.044806399221229025
1777244577.7171884,-0.016780475156577726,0.004790587697952013,-0.40985493571515197,0.03240315174707458
1777244577.737192,-0.016690042055266377,0.02610019366087485,-0.4092859148549456,0.042404543175736435
1777244577.7571852,-0.016086879858053203,0.008557264645023932,-0.4085211193315137,0.022864079290042912
1777244577.7772517,-0.016348840415481663,-0.04081557934292726,-0.4081875826957545,0.008312618637166643
1777244577.7972336,-0.01723659055425123,-0.023672037739825073,-0.4081236800835474,-0.0020794075684461046
1777244577.8171828,-0.01758777258486203,-0.012608554511568091,-0.4083465485808184,-0.017647527699123092
1777244577.8373013,-0.01789444252250235,-0.03420306810340765,-0.4088064199774749,-0.02681332779150731
1777244577.8572261,-0.018612580162995284,-0.033241984849376995,-0.40922433143133075,-0.016323669657244917
1777244577.877224,-0.019305496712292185,-0.025916250452044216,-0.4093901302362569,-0.014486658529848491
1777244577.897235,-0.019973270213692787,-0.01987772955136203,-0.4100421926453084,-0.03032595478876427
1777244577.917183,-0.020427386500161418,-0.03368287185678313,-0.4107120900101223,-0.04088708572614303
1777244577.9371934,-0.021091049996897315,-0.033274070759598304,-0.41155145195976656,-0.05272505353622565
1777244577.9571826,-0.02107815624866564,0.01252035625541863,-0.4126816854550771,-0.04355842470537692
1777244577.9772391,-0.020925230742154174,0.006231508730083537,-0.41321303001850795,-0.006091545304881608
1777244577.9971826,-0.021589054397833738,-0.10598093282748348,-0.41291092603624685,0.03993352603411553
1777244578.0171833,-0.024320742514369553,-0.12052128688564474,-0.4116830688339236,0.06478648527147139
1777244578.037409,-0.025903845583270135,-0.03325794034021775,-0.4104975012864617,0.07405707791621657
1777244578.0571911,-0.02525905749238993,0.0685228700749873,-0.4087529766594242,0.09227245464976547
1777244578.0772681,-0.02345891596939488,0.07411669924483404,-0.40670904601353813,0.10517364256632539
1777244578.0971951,-0.02259686382387977,0.0002750338306533747,-0.4045403756155592,0.10590753468281972
1777244578.117182,-0.023220519518576628,-0.03851396963479993,-0.40202062987247894,0.1373848972732487
1777244578.1375425,-0.02347211229825167,0.03695299927793168,-0.3990838766427022,0.14106196463796666
1777244578.157184,-0.022671990547956843,0.03189060148087887,-0.3969009437709812,0.11368979774890837
1777244578.1771817,-0.02252968612292195,-0.019700369040005286,-0.3947959988883233,0.08220159683069214
1777244578.1971834,-0.02322208312125674,-0.028993454767138535,-0.39313849152484026,0.07811070241910187
1777244578.2171855,-0.023193185198634565,0.013915091768782903,-0.3911042576833712,0.0968394816615887
1777244578.2372615,-0.023167734530845936,0.00457090702120895,-0.39022603966539493,0.04809972194107434
1777244578.2571857,-0.02263805793993104,-0.00956809298577664,-0.3885075409045189,0.059505131265501915
1777244578.2771866,-0.023706126371267726,-0.05367277022440105,-0.3877518520064376,0.04616566197468173
1777244578.2971842,-0.024384311885837378,0.0035340425225635756,-0.3874702160605249,-0.017719628216920545
1777244578.3171835,-0.02413164683982854,-0.007901592922103034,-0.3874101845063029,0.02305962729493969
1777244578.3372636,-0.024573878571822135,-0.04979091967813358,-0.38723399933101277,0.015368760272913319
1777244578.3571863,-0.026288976585321484,-0.07263315258324411,-0.38723841883760995,-0.009312485446873596
1777244578.3772247,-0.026782389282473798,0.022199800807643923,-0.3873988107901921,-0.000839955223725286
1777244578.3971822,-0.026230293466967407,0.019674794820293225,-0.38739187149957555,-0.0016438138118026965
1777244578.4172406,-0.026340110100824914,-0.040526271717254696,-0.38743019404026335,-0.00391581151708722
1777244578.4375646,-0.02799969778507737,-0.1099785292951817,-0.3877682219445196,-0.02498226702663755
1777244578.457228,-0.02972415778555077,-0.04602787318219953,-0.38822106953418567,-0.012378489028210173
1777244578.4772623,-0.02976790508758631,0.01723752749922414,-0.3883061732658668,0.0032508431725279713
1777244578.4972687,-0.029354619797669318,-0.012235810738765614,-0.3882239058094791,-0.012305135158922089
1777244578.5171835,-0.03072989030237168,-0.09289452238630208,-0.38856043691871583,-0.0221893729747922
1777244578.537515,-0.03212841164002106,-0.056775815182908085,-0.3888717853074674,0.00861668545207481
1777244578.5572646,-0.032913898882555415,-0.03319259350179976,-0.38879217739542105,-0.035968995869976955
1777244578.5772636,-0.03316824196380439,-0.0033375997595513386,-0.38933323277600684,-0.008009412030311384
1777244578.597188,-0.03364434686357211,-0.06246157347001219,-0.389476047012314,-0.012248111895670792
1777244578.6172047,-0.03525499541472668,-0.06721152161827959,-0.38990040512525537,-0.02156555106451588
1777244578.6371768,-0.03615212696083795,-0.013782988166317909,-0.39009455446863944,-0.009693753504814301
1777244578.6572597,-0.035954608798345805,-0.01795001240114514,-0.39045917220083826,-0.024711789471558526
1777244578.6772647,-0.03687916130018325,-0.05149095919905734,-0.39112842937187536,-0.035457432181306175
1777244578.6971834,-0.03766130692953195,-0.024623138938708666,-0.3918802239687161,-0.039247877224796196
1777244578.7171826,-0.038340157957230385,-0.03425822780517547,-0.3928705401085568,-0.056126055314982076
1777244578.7372515,-0.0385958540774571,-0.00033386311028978024,-0.3937917461893371,-0.04545589463334191
1777244578.7572632,-0.038709712898484565,-0.03749344162749209,-0.3946832378552274,-0.050052983246873496
1777244578.7771885,-0.039895321720387136,-0.04840461608979964,-0.39579463952965255,-0.05689354671563622
1777244578.7971838,-0.04021701554975661,0.016225751718232026,-0.3970406794868381,-0.05658190280335855
1777244578.8171823,-0.040237566723216336,-0.038537894954040766,-0.3979321532059472,-0.033574660451627644
1777244578.837277,-0.04120627434725832,-0.07099384716814468,-0.39847650290403125,-0.030540111188444283
1777244578.857181,-0.04254935514341587,-0.046016828489345483,-0.39904149303472103,-0.02501684321360624
1777244578.8772373,-0.04350308216321394,-0.05508489541182068,-0.39985737676067734,-0.05121398543609139
1777244578.8971844,-0.044053827207595805,0.01077938265141174,-0.40041670857697576,-0.004277627385228567
1777244578.9171867,-0.04467904191862447,-0.08747999263358261,-0.40066133761168676,-0.03038414706749153
1777244578.9371617,-0.0466985663685484,-0.1431776896695394,-0.40118599679431777,-0.013400244832112931
1777244578.957211,-0.049568813536343445,-0.11989662757698696,-0.4011425025025951,-0.00900168053516053
1777244578.9772286,-0.05188389913311439,-0.1006992048313927,-0.40170686486716306,-0.033873119345093454
1777244578.997202,-0.05358005989285137,-0.04390709168009692,-0.40251866092869804,-0.029131659797417435
1777244579.0171897,-0.053125457713977954,0.05952836796735968,-0.40316034854610294,-0.05818928019940622
1777244579.0372264,-0.051713970432340654,0.07711230730955838,-0.40468619945619533,-0.08309566356790904
1777244579.0572517,-0.050528123248436786,0.10894158413702262,-0.40621503007663134,-0.09550069195989447
1777244579.0771854,-0.047046753592759824,0.17053345550764334,-0.40838010353309995,-0.11586954146228862
1777244579.0972533,-0.04380807647852519,0.1153837957744984,-0.4110352674294684,-0.13398684629843532
1777244579.1171832,-0.042309925731274144,0.09093317715461677,-0.41376198296718464,-0.12188853664572348
1777244579.137395,-0.04031230679798163,0.11176902959511169,-0.41563001426010915,-0.11167893438983463
1777244579.1572447,-0.03883914156528694,0.029544985000582544,-0.4177811299260331,-0.08612027024539012
1777244579.177266,-0.03834273044961865,0.020631577518961483,-0.41992364809548055,-0.09655158403972117
1777244579.1971827,-0.03835105799267402,-0.022603031615477456,-0.4213446536663584,-0.0508804810982125
1777244579.2171836,-0.03917379811356038,-0.023918035988230404,-0.4223117658136989,-0.06904571486244823
1777244579.2373044,-0.03918035620031868,0.010119088665836926,-0.42355725985747616,-0.03920250781129994
1777244579.2572665,-0.03943167206507938,-0.07657445964489586,-0.42371844056868213,-0.02203574916132864
1777244579.277186,-0.04187118501804711,-0.11104536531943723,-0.424185504883371,-0.01666749538200327
1777244579.297231,-0.043731757720307955,-0.04487223493861033,-0.42473232093966395,-0.015925556047275392
1777244579.3171842,-0.04388121531804367,0.026081348593640898,-0.4251012292812226,-0.026221426100386892
1777244579.3373826,-0.042842569812055725,0.07848483848324164,-0.42553652871988784,-0.034215014290903546
1777244579.3572662,-0.0410716579925855,0.06695883244238758,-0.4261466294518387,-0.05256373442810056
1777244579.3772252,-0.040084082503801355,0.04791180319783743,-0.42730194788126563,-0.03221389581730426
1777244579.3971846,-0.03857194518623143,0.08736212941027587,-0.4276543969029282,0.011110940626767225
1777244579.4171832,-0.037024859374139726,0.04396955524181538,-0.4268893161991884,0.06655403157598018
1777244579.4375064,-0.03669535409618306,0.015588024828485137,-0.426003029246829,0.03372690517702739
1777244579.4571812,-0.0362898507377738,0.006657003234723227,-0.42470161746765206,0.07986071166783773
1777244579.4771833,-0.03686770473656633,-0.04047863814457821,-0.42303917741538677,0.08470301946841477
1777244579.4971833,-0.03769612592140279,-0.013626127221219765,-0.4211615648113139,0.09216934901711196
1777244579.517182,-0.03745016964297965,-0.0005048025988772076,-0.41932260129143945,0.08122520527171342
1777244579.5373523,-0.03751811856816815,-0.005180577820348098,-0.4180865061389049,0.06734147675746552
1777244579.5571826,-0.037269880023949035,0.03358574678304581,-0.41651681427268117,0.08599331965215044
1777244579.577193,-0.03683626869887211,-0.004732584170451369,-0.4145340097103799,0.10273504029171991
1777244579.5972264,-0.037144912058526616,-0.011177123685489853,-0.41238807444778147,0.1038402764233896
1777244579.6171823,-0.03731180897857113,-0.01524158621384476,-0.41034393687846005,0.09265245095642943
1777244579.637481,-0.03750728354920877,0.002447129221220745,-0.40814630633380933,0.09774394893550803
1777244579.6571937,-0.03712141419110647,0.053553937018041994,-0.4065982347933938,0.10908096587158561
1777244579.6771839,-0.03572777553208696,0.039485152124239524,-0.40439757922422737,0.09112737866735249
1777244579.6972556,-0.03559780591340489,-0.005496143992207111,-0.4028213400887366,0.06015435938451503
1777244579.7171905,-0.03548399534065472,0.024951311464735663,-0.4016061989495777,0.041779570320542976
1777244579.7372453,-0.034630942294128095,0.03484002169876515,-0.40084774594784245,0.03342605679205164
1777244579.757201,-0.034342511229192796,-0.021096180875050004,-0.4004530807204758,0.019881982249841012
1777244579.7772524,-0.03571821637373885,-0.101245061937627,-0.39982723216553195,0.047541462993006614
1777244579.7972634,-0.038384464992368486,-0.11953638186347866,-0.39857804186271306,0.05614850782467391
1777244579.8171864,-0.04011510284380777,-0.04997525492449713,-0.39760798474391723,0.043004190828525427
1777244579.8374462,-0.04052625268273654,-0.0326270625959514,-0.3968230296405568,0.045244685633414064
1777244579.8571835,-0.04201143573828877,-0.09003554403353044,-0.3960776183555791,0.04474829898348105
1777244579.8771884,-0.04420161940694513,-0.11787230481921171,-0.3948687755716015,0.06227206015265382
1777244579.897235,-0.046338540677071466,-0.08693069430062497,-0.3934024483223295,0.08382698133827768
1777244579.917183,-0.047911929411877774,-0.06168629381601767,-0.3915191999904648,0.09067501806149122
1777244579.9371743,-0.048944818210116134,-0.06935532896152194,-0.39014109483182147,0.07411428887015667
1777244579.9571848,-0.05057461162410615,-0.059273740908345064,-0.38862900954889157,0.07824310790790331
