Abanesjo/go2_pendulum_ros2/src/go2_pendulum/go2_bridge/data/calibration.csv
timestamp,pendulum_joint1_pos,pendulum_joint1_vel,pendulum_joint2_pos,pendulum_joint2_vel
1776714923.8128338,0.0,0.0,0.0,0.0
1776714923.8305645,-0.04876767642134701,0.0013642477730631264,-0.35725371630844716,-0.0010880688285270779
1776714923.8504562,-0.04885606317350237,-0.008042124250663474,-0.3571878371599124,0.006005861932721457
1776714923.8712232,-0.048970996385674675,-0.0036817120633179934,-0.3570914358357503,0.004563653845288451
1776714923.8905597,-0.048869200665260154,0.015057495951985994,-0.35709039631928174,-0.0050970824663614245
1776714923.9104853,-0.048596144178406936,0.010957050271640484,-0.35727628006116297,-0.010290523335689139
1776714923.9305615,-0.04857660845904657,-0.0080626121945786,-0.35740105902105596,-0.0033688378467182645
1776714923.9504707,-0.04871701400422374,-0.003628613161092531,-0.35735417107601997,0.007101145354880156
1776714923.971003,-0.04867526091608762,0.0059217198054802855,-0.35723832847096226,0.003373786621909014
1776714923.9905992,-0.048569916505507085,0.0061084748161260305,-0.357210641518283,-0.0012944166562884885
1776714924.0105567,-0.048554597998043514,-0.004775572622332164,-0.35731268612247025,-0.007142808883558338
1776714924.0304594,-0.04871181634850513,-0.009197802982882447,-0.357428768917009,-0.004078155511101578
1776714924.0504556,-0.048807460915349876,0.0006293227346346464,-0.35737895519096063,0.009358631722648392
1776714924.0707552,-0.04868343848970495,0.0110810935140907,-0.35720444777441596,0.005669600652415285
1776714924.0909584,-0.04848472183015281,0.00585429581858582,-0.3571893910787046,-0.0046857232185506525
1776714924.110557,-0.048553354157263154,-0.011868518946442752,-0.35728416772465027,-0.0062398587184337995
1776714924.1307793,-0.04884857457717152,-0.014717447624741059,-0.3573956190722606,-0.0020020670685105824
1776714924.15083,-0.04887133888551941,0.012746059029215745,-0.35727722705025483,0.011496251230569188
1776714924.1709428,-0.04856147064337718,0.015488669872198269,-0.35708840685024035,0.005903787472487432
1776714924.1906374,-0.04839926727105184,-0.0037711363061929404,-0.3571534948711005,-0.01188678975815649
1776714924.211057,-0.04857150254263873,-0.014958646810030118,-0.35734286419981687,-0.008509206984363304
1776714924.230521,-0.048813938649811595,-0.005840376751672788,-0.35740573135015075,0.0022932491656590948
1776714924.250495,-0.048742049784357394,0.013240483284483046,-0.35727278488079384,0.008416899722927917
1776714924.2704742,-0.04853292412839663,0.004903962163251008,-0.35713059083848975,0.004020849552343275
1776714924.2906134,-0.04849447001250454,-0.0038628649900524503,-0.3571623118479757,-0.006982854902441549
1776714924.3105485,-0.048637924309116454,-0.007407343194146487,-0.35731711108742525,-0.007468625299381859
1776714924.3305912,-0.04879669006734427,-0.006423446253727316,-0.35734711123208085,0.0044668307575501665
1776714924.3504777,-0.04879635768108694,0.0066078555276024575,-0.3572369675922057,0.005552711268991928
1776714924.3709416,-0.048584114079879906,0.011896291842168283,-0.3571687979758039,0.0014498197470218521
1776714924.3905654,-0.04849692609663557,9.126734585018781e-05,-0.35718013229201045,-0.0010736101682062849
1776714924.4104888,-0.048509141166447174,-0.003316169359336818,-0.3572295738903775,-0.0033503897857256604
1776714924.4304779,-0.04859790305281018,-0.002441638993147921,-0.35727956255754967,-0.0010418984699200884
1776714924.450499,-0.04863813410295685,-0.0034585956258023076,-0.35728843200379123,0.00041435677740464527
1776714924.4706051,-0.04861851178553163,0.00616118526006898,-0.35724953791134634,0.0030878060106849237
1776714924.4905875,-0.048531642955931466,0.005318747034103288,-0.35722676181829127,-0.0003457590538467059
1776714924.5105321,-0.048441779391158304,0.001397941367656641,-0.3572399712753902,-0.002171061451725187
1776714924.530555,-0.04854947215786373,-0.008818444227729844,-0.35727867140252123,-0.001551333775272834
1776714924.5505068,-0.04872712876084903,-0.007565944373469524,-0.3573064370279964,-0.0016935504243102972
1776714924.570469,-0.0487095596281784,0.010550926529507482,-0.35727056834377907,0.0062556944652101265
1776714924.5908034,-0.04851258643882907,0.011621503885625634,-0.35714275623765834,0.008803615380325702
1776714924.6104646,-0.04842320602432344,-0.0034577050104715457,-0.3570940686666017,-0.003215769167069782
1776714924.6304688,-0.04856070932107738,-0.009153700298157458,-0.3572460355204305,-0.010575853581937356
1776714924.6504672,-0.04871188973160754,-0.002591253813821387,-0.3574030316658743,-0.002030325313975734
1776714924.670477,-0.048676885219602554,0.004656577241031357,-0.35732013291235065,0.008384667351110764
1776714924.6908143,-0.04861992651106777,0.0012158338478740482,-0.35710613404062647,0.009171195159073386
1776714924.710452,-0.04861513235781246,-0.002265915713316441,-0.3571175570556244,-0.007616289279955835
1776714924.73049,-0.04863692370165176,0.0005155674581951986,-0.3573461360434259,-0.012929669270060007
1776714924.7504652,-0.04868932698097804,-0.004833591632502965,-0.35737236958837304,0.01081299803982061
1776714924.7706373,-0.048785950300141566,-0.0035050571172743072,-0.3571363765368242,0.009035131180545664
1776714924.7905626,-0.04880247479464406,0.0019374077808967383,-0.3570939908728854,-0.006221339773488266
1776714924.8105347,-0.048750375855337404,0.002248082146863173,-0.3572430678315366,-0.006571370482783223
1776714924.8305655,-0.0487771521416339,-0.004419893115326506,-0.35727541269606056,0.004459915302150508
1776714924.8505564,-0.048892658594517226,-0.008658155922805694,-0.35713418592328927,0.008090117069042835
1776714924.8704505,-0.049009525900381525,-0.0021614664861170363,-0.3570892741231537,-0.004208027433157735
1776714924.8904767,-0.04899379554298572,0.0037571331642893835,-0.3571848199962785,-0.008875428751294212
1776714924.9104583,-0.04893401854639061,0.0021773860600494133,-0.35724795230929696,0.003415746972842637
1776714924.9305017,-0.048827477654398134,0.005877623197462878,-0.3571889521281684,0.0036794259674739482
1776714924.9504676,-0.048671573711325626,0.008333203793042337,-0.3572308659004304,-0.008071465450890658
1776714924.9704576,-0.048672241347028605,-0.0085359305457193,-0.35742390894773196,-0.00787971406773691
1776714924.9908206,-0.04886543977601694,-0.013531785163834242,-0.35743610644811175,0.004532893089021162
1776714925.0105636,-0.04897159561792422,0.0037750135086762338,-0.3571951380382294,0.01689693463642672
1776714925.0304613,-0.048821970725618856,0.01039253372818108,-0.35701291774138455,-0.0009574706521562337
1776714925.050469,-0.0487666486347954,-0.006835896308050926,-0.35717403702698597,-0.013601927017021342
1776714925.0704553,-0.04901378503829637,-0.014997488265672598,-0.3573571988918127,-0.0015737600052279088
1776714925.090669,-0.049142879828431255,-0.0019194266602491628,-0.3573154292571494,0.006784098674885719
1776714925.110461,-0.04900887529196832,0.013776662630381215,-0.3571273813368224,0.008807141730718282
1776714925.1305563,-0.048749121943724986,0.0085126801595245,-0.35703741068762307,8.009815821496957e-05
1776714925.150479,-0.04875878412835773,-0.008647499418766857,-0.3571388911795097,-0.009031648323589492
1776714925.170467,-0.04906907251723651,-0.018455310212452142,-0.35724336331767037,0.0003980812323853833
1776714925.1905434,-0.04922859758867029,0.00039965948929493456,-0.3572128842015865,0.0035187032738006607
1776714925.210466,-0.048964497073740745,0.02407633384967059,-0.35712295169273306,0.0028651382552953297
1776714925.2305534,-0.048618891046414,0.005324168306836324,-0.3571132945760464,-0.0011786948629022298
1776714925.250466,-0.04875810385711703,-0.0187096775322875,-0.35722411593027364,-0.00881450330840683
1776714925.270576,-0.04909416967040339,-0.014351380077645304,-0.35729704740578005,0.003725690677292892
1776714925.2904663,-0.04917104008401326,0.00576467494488625,-0.35720020976185074,0.008989771919738931
1776714925.3105643,-0.0489734026950661,0.012748764906307691,-0.3570740037116863,0.0021212452159005135
1776714925.3304503,-0.04880098285599191,0.0012326409751525491,-0.3571157025501924,-0.004489988747047091
1776714925.3504736,-0.04889098786688466,-0.0069944568181840305,-0.35720546735501457,-0.003468305218514489
1776714925.3704135,-0.04900037240663442,-0.005320470899838808,-0.3572283352374696,0.0025747770621467048
1776714925.390464,-0.04906849783097714,-0.0002842001370651215,-0.3571752491624217,0.0028458271518974065
1776714925.4104562,-0.048994969429946356,0.004519926477865643,-0.35714422253076844,-1.041000177881557e-05
1776714925.430549,-0.04889155949203926,0.0048215619413352895,-0.3571512536424449,-0.0017098056894451208
1776714925.45046,-0.04882768265874436,-0.000763180522106166,-0.3572585767634184,-0.00632514419251029
1776714925.470457,-0.04893970432441938,-0.006925198265120974,-0.3572881475173949,0.0021567464290956906
1776714925.4905918,-0.04904877101578841,-0.005426753309771715,-0.35720772360837827,0.012870118010839038
1776714925.5104423,-0.049121948329405224,-0.0006500591493696084,-0.3568545295117723,0.023344539955572063
1776714925.530553,-0.049006285498755575,0.007631113298427333,-0.356767362529872,-0.005011771581259428
1776714925.550451,-0.04880607958106312,0.011686959152865994,-0.3570123551241758,-0.024228584178130008
1776714925.5704718,-0.04871347753931678,-0.0031848959347764993,-0.35728244046855834,0.0026804560638955532
1776714925.59089,-0.04886226253245624,-0.012535122259589748,-0.3571902717210317,0.0007553830093833813
1776714925.6106045,-0.04908245158607523,-0.006931208698108704,-0.35718142155660326,0.0003918073166231384
1776714925.6304955,-0.04903357674551699,0.010886701811832628,-0.3571257341761537,0.004139390073304217
1776714925.6504617,-0.04877588745889475,0.011677441134934713,-0.3570967276506395,-0.0018838621503858288
1776714925.6704612,-0.04870480581487388,-0.005470284204996206,-0.3572263201875347,-0.0094811362349696
1776714925.6906202,-0.04889073260681784,-0.015743587366533418,-0.3573094818789532,-0.0010214157760972675
1776714925.7104743,-0.04913101971055845,-0.005031998819918837,-0.35720123016475547,0.011278838416738823
1776714925.730479,-0.04903135709019369,0.01478064708703461,-0.3570230770824889,0.003986508356395024
1776714925.75083,-0.04873620777206823,0.011036010527077866,-0.3571031379810876,-0.010138757312833535
1776714925.770913,-0.04866383269820233,-0.004736737747399439,-0.3572757540820003,-0.005639200052107496
1776714925.790518,-0.04884113990806868,-0.01422359382615912,-0.35728815745224973,0.005476079525994493
1776714925.8105683,-0.0490787145475692,-0.007616046541738086,-0.35713262186796446,0.0075191627376896
1776714925.8305814,-0.048998949481995395,0.013183400760706399,-0.3570627390115878,-0.0010382124897880818
1776714925.8504584,-0.04871752476281603,0.01162745521931971,-0.3571160637439955,-0.0051208483270330785
1776714925.8704824,-0.048642622052794154,-0.0056633485124245875,-0.35721538407822995,-0.0038252110330261324
1776714925.8905368,-0.048789137205136154,-0.010223555426319891,-0.3572687090804396,-0.0028408722732671254
1776714925.9105718,-0.048936016244964936,-0.0034461583183944267,-0.3572820770736403,0.0022004523788954344
1776714925.930564,-0.04893396598620228,0.003483937996091202,-0.3571766939078041,0.007856346022122374
1776714925.9504569,-0.048843426975177254,0.0039431332417265985,-0.3570825910056314,0.001691823495105993
1776714925.9710157,-0.0487723666275864,0.002961710378166754,-0.3571290182425462,-0.006550902744772769
1776714925.9904969,-0.04876392954454366,-0.000533956522805995,-0.35720526019618004,-0.004347991397814388
1776714926.0104995,-0.048870774746226295,-0.008704902138702286,-0.35725331768483637,0.0003828692724883176
1776714926.0304875,-0.0489988205071185,-0.003387018559714128,-0.3572250644161067,0.0010253422747315
1776714926.0505087,-0.04896405162953697,0.007510499967265799,-0.3571966269960928,0.0012950477720246045
1776714926.0708103,-0.04878633050711064,0.00675477535281821,-0.35718087317666547,-0.0004879878302146423
1776714926.0905185,-0.048737685980539146,-0.00029338185862176624,-0.35722278048439027,-0.003184976930039385
1776714926.1105175,-0.04884221235279171,-0.009667131634750248,-0.35729230193045325,-0.002300626477698353
1776714926.130493,-0.049004122096873985,-0.004884129531197323,-0.3572931443242661,0.002804569614235586
1776714926.150468,-0.04897873819178104,0.006395331955961009,-0.3572119870845813,0.004277688999343221
1776714926.1706831,-0.04883328014081768,0.00635257668492295,-0.357096600865364,0.0043147323090895195
1776714926.1908011,-0.048749979950407515,0.00189691564310418,-0.3571220782382586,-0.0053818153853615325
1776714926.210654,-0.04879831135065504,-0.005518296545507451,-0.35726020438031303,-0.009359619536201569
1776714926.2304657,-0.048958141112743186,-0.00885545446794464,-0.35735352451906377,0.002701907860856556
1776714926.2504928,-0.048984032473379,0.006201317017100777,-0.3572791482712563,0.004043829954493816
1776714926.2704709,-0.04882197447381144,0.008129732914013005,-0.35721153218327606,0.0021148271043067712
1776714926.2905009,-0.04872643268528067,0.0014961289023132374,-0.3572155514614573,-0.0014492898967299883
1776714926.3105032,-0.04872639674195684,-0.0018743057541873998,-0.3572455466924522,-0.002029358206720566
1776714926.3304727,-0.04883977336858452,-0.008096699653218797,-0.35727605899585424,7.930375045028804e-05
1776714926.3508077,-0.0489735156360195,-0.00341942770760309,-0.357264401972298,0.00012096818983486912
1776714926.3705368,-0.04890064218075428,0.009351638706599302,-0.3572412714960633,0.002334913617614065
1776714926.3907263,-0.04873967695178485,0.006190189432048909,-0.35720410216538573,0.0008585238912910409
1776714926.410467,-0.04865551630544135,0.001034433140305352,-0.35721183317158534,-0.0017784201668789024
1776714926.43056,-0.048785799296416237,-0.00994627529914846,-0.3572400833769771,-0.0016858511897839268
1776714926.450468,-0.048965074880320224,-0.008372140161524072,-0.3572835011341142,-0.0011987067314085387
1776714926.4704547,-0.04897880899186307,0.008791040858580013,-0.3572896282966274,0.0007324227026190844
1776714926.4904637,-0.04883107444668416,0.0074532203177532785,-0.35724683676396324,0.004828636421660537
1776714926.5105517,-0.04873645992366593,0.00018540199480762687,-0.35717579836182267,0.000820821066695343
1776714926.5305693,-0.04880867230679212,-0.006048015050055977,-0.35722420125641535,-0.004782334149935341
1776714926.5504649,-0.048995584231349476,-0.008950881413954503,-0.3573005587715725,-0.0028046371755781063
1776714926.5705194,-0.049056977422119355,0.0040403727338930995,-0.35726716183460466,0.0053898557860661
1776714926.590681,-0.048935099903171485,0.011219342835865703,-0.3571485928303339,0.007536407944642942
1776714926.6105373,-0.04876363733858509,0.0038438661274073083,-0.35711961036419804,-0.004144498236704042
1776714926.6304884,-0.04877554930593034,-0.005354273632364764,-0.3572620049399649,-0.009570487534557692
1776714926.650496,-0.04899122656967547,-0.013258469464438594,-0.35734340204132203,0.002715498375002845
1776714926.6704626,-0.0490927722373119,0.0030647575940196126,-0.3572383929429578,0.007089879446589009
1776714926.6906044,-0.0489368251209786,0.01656391631204593,-0.3571308513457079,0.006080313776327451
1776714926.7105532,-0.048708243062838136,0.005833240443837484,-0.3570665752991339,-0.00017198157594400243
1776714926.730561,-0.04870548005416912,-0.00707383726126018,-0.3572039413084305,-0.01211596105480428
1776714926.750466,-0.0489665870873867,-0.01410313436113983,-0.357412944462022,-0.007131228615864904
1776714926.7706177,-0.04913207523908737,-0.0012563193666805528,-0.35737997111819575,0.010778386012308072
1776714926.791154,-0.0489286980830303,0.019537756521452093,-0.35715457007556695,0.00996605790870797
1776714926.8105605,-0.04870176799058484,0.008234887453579642,-0.3570734097435162,-0.0022605887743494257
1776714926.8304613,-0.048694320031038976,-0.009179551822448534,-0.3572659058385406,-0.013482419316108718
1776714926.8504484,-0.048926310458374825,-0.010181924139004539,-0.3574489317649306,-0.0041776754640003855
1776714926.8705142,-0.04907670308079412,-0.002014181038379942,-0.35735147103231923,0.013062532839606122
1776714926.890557,-0.04899135853691189,0.012233884062345823,-0.35713864213797153,0.01106564016784839
1776714926.9105656,-0.048775638646973415,0.007965995243525703,-0.3571128024547789,-0.008043107547448303
1776714926.9305434,-0.048727054769034675,-0.005857000945278884,-0.3573513035594191,-0.01276208596801931
1776714926.9505243,-0.048904829258899885,-0.008723694850585051,-0.3574283742818748,0.00518430688661109
1776714926.97046,-0.049048956861680565,-0.00544887279821929,-0.3572833398588927,0.007841089478004326
1776714926.9906955,-0.048995198123989,0.011066663380710412,-0.35714905487642423,0.0015389824017799647
1776714927.0104554,-0.04880040312069914,0.012510539871813997,-0.35717314572371545,-0.0016324759419612533
1776714927.0305517,-0.04868431244551352,-0.0026162652224917538,-0.3572624808160136,-0.006197965676468575
1776714927.0504544,-0.048836544086548486,-0.010862980290694352,-0.3573200865896977,0.0016583795466533768
1776714927.0704563,-0.04905544222957765,-0.008378206406623734,-0.35721831165370144,0.007431531114846512
1776714927.0905952,-0.04913623589712049,0.0007432746805174639,-0.3571686938513249,-0.0023571559694515187
1776714927.1104639,-0.049017989981215995,0.010855672544991618,-0.3571785338595777,-0.002733885788359869
1776714927.1305509,-0.04887656323279417,0.003099806313368092,-0.357213464140134,0.0001961405677466388
1776714927.1504536,-0.04887979992807384,-0.0047917262852950615,-0.3572376774327902,-0.003623273275302319
1776714927.1705582,-0.0489984048127386,-0.0036181291077740374,-0.35726583285430297,0.002757623931636033
1776714927.1904643,-0.04904296871322321,-0.0033407990855346126,-0.35721572846691235,0.0038584856785426336
1776714927.2105508,-0.04896356795895927,0.009782622688167791,-0.35719784148580075,-0.002625028227234427
1776714927.230456,-0.048787207905298266,0.00686274845913501,-0.35724573814045824,-0.002106771391112261
1776714927.2504587,-0.04879968750293809,-0.007524865893749205,-0.35724694576093974,0.0019044289145668802
1776714927.270478,-0.04894744166566778,-0.00397287217967468,-0.357239122550543,-0.001575252792390236
1776714927.2907586,-0.049003242160656296,-0.0013721858791436725,-0.35725138188779093,-0.0002222753817087142
1776714927.310443,-0.049016358070046874,-0.0010167923097711418,-0.357231628002578,0.0028720518970191122
1776714927.3305733,-0.048969283899037215,0.0035076842104691808,-0.35719637750736877,0.0006956179424426612
1776714927.3504395,-0.04889935492723427,0.002064619805402901,-0.3571903298549759,0.0003633180423876503
1776714927.3704426,-0.048870143888498224,-0.00016510412332276792,-0.35717168790309917,0.0013633035798268356
1776714927.3904934,-0.04895397847831286,-0.005994727518822213,-0.35715881138485717,-0.000414697297766331
1776714927.4104593,-0.049095537458374895,-0.0065946819060590245,-0.3571920555102128,-0.002712778438227703
1776714927.4304485,-0.049073260229002366,0.008812067521990513,-0.3572313598649771,-0.0008570605519455654
1776714927.4505327,-0.048869816531438695,0.009359556175822376,-0.3572297142749927,0.0015591815918245544
1776714927.4704492,-0.04879633438937413,-0.0034451967616999646,-0.35717373245773126,0.0023597469959917294
1776714927.490568,-0.04893078296240576,-0.01098308058061262,-0.3571521288491183,0.0013460900052362224
1776714927.5105498,-0.04911802831244432,-0.00618467613463064,-0.357175602695759,-0.0037709895206790023
1776714927.5304503,-0.04906141102906292,0.011207444341159778,-0.3572544166438307,-0.0023908293921164336
1776714927.5504622,-0.048810232605494545,0.011516508330641995,-0.35719199544155006,0.006741525858525277
1776714927.5708025,-0.048710643219504836,0.0004208621658258749,-0.3571104872633025,0.003325875973355652
1776714927.590704,-0.04879587731780913,-0.00763498538321819,-0.3571315341077567,-0.006641783515852984
1776714927.6105993,-0.04897879438181843,-0.007757879026361741,-0.35723984505921036,-0.0026872941394040506
1776714927.6305692,-0.04903850234247929,0.0019062537624432163,-0.3572439007635554,0.002279877666025776
1776714927.6504543,-0.04886428014836876,0.011810432506646928,-0.3572031023431992,0.0013504235423675848
1776714927.6704583,-0.048699323210453775,0.0022532553862520954,-0.35719348096528425,-0.0013615996449918288
1776714927.690887,-0.048807204557882275,-0.012171289291671439,-0.35719683766017096,0.0011445900362025974
1776714927.7111955,-0.04902180871122426,-0.011605984389828738,-0.35717018551867225,0.0020573156028154127
1776714927.7304988,-0.04910508639094545,0.004107146784779442,-0.3572309419896963,-0.005154130031393089
1776714927.7510645,-0.04887512383175968,0.015577461850778657,-0.3572911123541155,-0.0009194062672848169
1776714927.77047,-0.04869945461567998,3.173945822507185e-05,-0.35720301262346543,0.009173957052558412
1776714927.7905693,-0.04881485494037601,-0.014630067996561191,-0.3570994887749866,0.0021773894440821895
1776714927.8105376,-0.049083400591459755,-0.008906372409517443,-0.35716311177739635,-0.008917479779500193
1776714927.8305714,-0.049118343164594125,0.006627285824284984,-0.35730930818063855,-0.0055409243363924165
1776714927.850451,-0.04887803502555992,0.014441234879799175,-0.35735256611121113,0.003196115461504334
1776714927.8704665,-0.048724323792322624,0.0014284643472551872,-0.35724932751173455,0.006260785309788464
1776714927.8907907,-0.04877929179850603,-0.009497629981302491,-0.35717060242085785,0.0028422934403240507
1776714927.910571,-0.04898388013134154,-0.00827360452094758,-0.3571756276707906,-0.003748551315056803
1776714927.9305205,-0.04911415276881831,-0.002995974039144672,-0.3572654859245902,-0.004612206066704427
1776714927.9504552,-0.04906879380379285,0.007577887765692515,-0.35729493822104463,0.0004569363233484225
1776714927.9704664,-0.04888851183754389,0.009522172221714975,-0.35727125698644474,0.0017105794782310557
1776714927.9905949,-0.04880905730845606,0.00023313551351830664,-0.3572335633876959,0.0016694912716852528
1776714928.010542,-0.04892763441888929,-0.010285853833713443,-0.3572085066795797,0.0005579479605457571
1776714928.0304756,-0.04910838392925332,-0.005141465433864789,-0.3572612551058353,-0.006268486299325193
1776714928.0515869,-0.04905253028306379,0.008985239130037126,-0.3573856965257234,-0.004718147971183306
1776714928.0711763,-0.04883670964369159,0.009531245558347362,-0.35734170777871244,0.008539590038291633
1776714928.090549,-0.048719089044307926,0.0031260300977372646,-0.3572376891234064,0.006167334426354865
1776714928.1105103,-0.048786317013388446,-0.008169967091218033,-0.35722851153998325,-0.006178083194783968
1776714928.1304505,-0.04896625098155524,-0.008740103822664824,-0.35735015255703095,-0.004512243871961363
1776714928.1504574,-0.04901298656713669,0.005717141827072197,-0.3573875387281812,0.0014308674351790618
1776714928.1708314,-0.048815350913047444,0.010160574313763104,-0.3573039030149216,0.006049291261722711
1776714928.1908314,-0.048707130833194986,0.0020609875716515458,-0.35723834034022317,0.0027316170673619133
1776714928.2105412,-0.04878082672124972,-0.008243569756596902,-0.35730685555142927,-0.007566910492048828
1776714928.2305474,-0.04898703031389463,-0.00929134638686574,-0.35739108188282576,-0.0007654087264585829
1776714928.250865,-0.049045854839644486,0.003536893691064219,-0.35731762752311813,0.007266960443242487
1776714928.2710176,-0.048866631471814526,0.012647096404127423,-0.35721007011736317,0.0005645962273288507
1776714928.2905688,-0.048712826619438376,0.004248776883088695,-0.3572333466480886,-0.0023699755775579145
1776714928.310582,-0.04874394145248531,-0.007494432307549925,-0.35727807660941235,-0.0019754943086787158
1776714928.3304894,-0.04898059877547416,-0.011789065799838766,-0.357323318640662,-0.0015721729925439742
1776714928.3508117,-0.04909806010508057,0.0007756674095448501,-0.35730236992320585,0.0033059725388804306
1776714928.370596,-0.04899462930153069,0.01211246176594813,-0.357221445350701,0.006640651136812226
1776714928.3911738,-0.04877089177421437,0.0015404395053972286,-0.3571901984224116,-0.004814883073708698
1776714928.410533,-0.04883375565565057,-0.009280976300858501,-0.35730167262287543,-0.008683062506063433
1776714928.4313865,-0.04898868310031474,-0.004657373335242521,-0.35734234087296124,0.003544110814617696
1776714928.4504857,-0.04901529843618731,0.003514311222379357,-0.35721962588906575,0.0073546932754655625
1776714928.4703977,-0.048912653963407104,0.003884733803452889,-0.3572131404558368,-0.005956351459512899
1776714928.4905434,-0.04889094425351347,-0.0006074013480535378,-0.3573211888481737,-0.0072884184336996505
1776714928.5104737,-0.048899850555984906,-0.0022425220143492686,-0.3574306333794758,-5.667198856840194e-05
1776714928.5304918,-0.04889628423020152,0.0021738365960989325,-0.3573496636648288,0.0063260189247371645
1776714928.5504534,-0.04890232514664711,-0.003159013958795087,-0.35723127887865536,0.005176916857430047
1776714928.5704591,-0.04895226041282949,-0.001758032541516269,-0.35727142369527665,-0.009171248642920293
1776714928.5906568,-0.048924674634921575,0.005074069312115903,-0.3574192682354897,-0.009689133472120748
1776714928.610459,-0.04881802378648455,0.003607658542237824,-0.35747263020261333,0.004136636459825205
1776714928.6304584,-0.048808479118290726,-0.0032793030460931127,-0.3573937007864637,0.0036487788786945252
1776714928.6504512,-0.04890149425983517,-0.004848568554306376,-0.35736941482310436,-0.002434825246843797
1776714928.6704595,-0.04897116336251371,-0.0004181810468316116,-0.35743962773590676,-0.002692517380377124
1776714928.6904566,-0.04891958205599298,0.006055032566122692,-0.3574488866361922,0.00016507933753606707
1776714928.7105584,-0.048799768389186024,0.006741385218673679,-0.35740547433087155,0.00435149402942181
1776714928.7305562,-0.04870112703956665,0.0012813109777362053,-0.3573717818320312,-0.000519126256540714
1776714928.750466,-0.048762541581596985,-0.006252988785545671,-0.35735134769756227,0.001965422155529195
1776714928.770464,-0.04894456693884302,-0.009956858397822843,-0.3572459015305469,0.007103726758070916
1776714928.7904344,-0.049011158321920927,0.0013578492496524874,-0.35717831949038265,0.0012632459711903188
1776714928.810462,-0.0488826976759303,0.010880548723846417,-0.3572294632086836,-0.006155634772774254
1776714928.830469,-0.04869872876024875,0.0042290380111257575,-0.35733349406220305,-0.0034161617238368525
1776714928.8504426,-0.04869489813489496,-0.0033683378415005905,-0.35730376612320947,0.004955993851539553
1776714928.870455,-0.048886301104222096,-0.012049333851632454,-0.3572233529385056,0.0035186832847846627
1776714928.8905144,-0.0490352077392979,-0.005764636479105217,-0.357239050042283,-0.00551175113039748
1776714928.9104958,-0.04894680757552784,0.014002860109437382,-0.35737845859245515,-0.0065782417165940466
1776714928.9304628,-0.04866126295636796,0.01175701326802267,-0.35744212804037556,-0.00028489666937070446
1776714928.9504538,-0.04862102772102885,-0.007494527084018959,-0.35741519707418645,0.001705569953170727
1776714928.9704485,-0.04887098787401512,-0.013973877702508936,-0.3573703785159523,0.0016323971154121875
1776714928.9905837,-0.04898736437523504,-0.0010658749513668409,-0.357355233974867,0.0009528523068194072
1776714929.0105574,-0.04884649082182234,0.013567771451357014,-0.3573996745598858,-0.005956176445319317
1776714929.030457,-0.04865967278685497,0.002893337267121099,-0.3575095162909142,-0.004712651145720503
1776714929.0504596,-0.04867444298458836,-0.004635472543841446,-0.3575346497082714,0.0027391695470457833
1776714929.0704808,-0.04879970894749959,-0.006640955399162818,-0.357444430627586,0.005674322981245039
1776714929.090486,-0.048896211263381756,-0.005871304584068482,-0.357414422559325,0.00020738059943292697
1776714929.1105611,-0.04894390789710205,0.0025191647039758402,-0.3574649302785709,-0.0049971563591515444
1776714929.130815,-0.04883340382466178,0.007444967542569986,-0.3575537934461573,-0.0017508098531893168
1776714929.1504557,-0.048726477048802674,0.0015332710329952481,-0.3575012733217548,0.005595920445480074
1776714929.1708658,-0.048794972804950335,-0.006996256409235402,-0.3573650432382164,0.007380584374856891
1776714929.1905074,-0.048898246663911384,-0.005206931050113189,-0.35730406357665834,-0.00015677815201153855
1776714929.2104585,-0.04891980701199056,0.0026153348563003054,-0.35737241319620816,-0.005115089012877938
1776714929.2305508,-0.04884463344590122,0.003619891207109871,-0.35741533700364103,0.0010302687122134557
1776714929.2504632,-0.048783520851196,0.002055503669767783,-0.35732867185420436,0.0063365232647252245
1776714929.2704916,-0.04878233531367456,-0.00010819169174783316,-0.35727323479776274,0.001055498426200785
1776714929.2905266,-0.048864884857756544,-0.008139298158456543,-0.3572885294593119,-0.0027657845191559893
1776714929.3105752,-0.0490172047325676,-0.005706944862321872,-0.3573025884722465,0.002301416521534705
1776714929.3304746,-0.04899044196287232,0.008090669903103032,-0.35729848071230924,-0.0016291777311241429
1776714929.350729,-0.04881031036834966,0.009420872329920976,-0.3573848211880631,-0.00605416359867883
1776714929.3704684,-0.048705273593997456,-0.0010480414628706858,-0.35741545730607494,0.0022786528208340595
1776714929.3904746,-0.04881564442658783,-0.01033023395432875,-0.35734028808950563,0.007061402042702669
1776714929.410758,-0.04901455972366353,-0.012653554602292783,-0.35727026642784543,0.000970110189627782
1776714929.4304624,-0.049068262703346535,0.010195368916422004,-0.3573459628590303,-0.005237047916702098
1776714929.450827,-0.04881602600440414,0.019345848739831945,-0.35739439852910265,0.00028336359713110326
1776714929.4704514,-0.04855242262200784,0.004780628406403781,-0.35736551073707085,0.002002012158230926
1776714929.4904697,-0.04869354594549364,-0.016255764109321696,-0.3573535331147283,-0.0004753705315401202
1776714929.5104804,-0.049079733236465514,-0.016735323127049256,-0.35734334670346707,0.001948495266921313
1776714929.5310378,-0.04907429827647468,0.015139132451931492,-0.35724825042010666,0.005781021297480704
1776714929.5507922,-0.048679275378639975,0.02140465346889675,-0.3572161905038723,-0.002165914680361425
1776714929.5705276,-0.04846427395886578,0.0005554490824854486,-0.357324168973964,-0.009732197996389136
1776714929.5905068,-0.04861727394492857,-0.013677967650599782,-0.3574755917098915,-0.0038663159527918545
1776714929.6107926,-0.04894020137675908,-0.014352817422211783,-0.3573953819847634,0.009082095931177703
1776714929.6306236,-0.04903794514480255,-0.00010821654555942528,-0.35722273934979604,0.010322852924009807
1776714929.6504564,-0.048866689976546834,0.01556041008833689,-0.35720038901544265,-0.00799902081738968
1776714929.6708722,-0.048620299321180234,0.005627977324772299,-0.3574813873622146,-0.015402338633315749
1776714929.6905215,-0.04866779313787442,-0.008328800931540564,-0.35760111355153307,0.0048836394556752705
1776714929.7105658,-0.04889681470858426,-0.011475489360066732,-0.3573219113353113,0.01820628442191663
1776714929.7308319,-0.04899830101086373,0.0025761931780364233,-0.3571467279153969,-0.0015431396761240723
1776714929.7506518,-0.04885058844716823,0.009557591340070892,-0.3573159918367128,-0.014589836331721173
1776714929.7704892,-0.04877223212037822,0.0007775067281298176,-0.3574821328870834,-0.0028733486470293723
1776714929.7905138,-0.04877141614002552,-0.0024959861193387944,-0.3574484978682327,0.006369174097783592
1776714929.8104963,-0.04884464347804045,-0.0030197574709168173,-0.35733405676080615,0.00685518299023502
1776714929.8306508,-0.04894885113603803,-0.007456502716059438,-0.3572437546158817,0.0019876378751948476
1776714929.8504975,-0.048967316061049,0.007682913222205656,-0.3572843517069396,-0.00432397905569748
1776714929.8710425,-0.04879496610100323,0.007332895554795382,-0.35731418475401616,0.0015736315528911415
1776714929.8905246,-0.048698899269723483,0.0023948838737122835,-0.35729300751710313,0.001674473199561266
1776714929.9105668,-0.04873829146831409,-0.005928546184044037,-0.3572565919574549,0.0009976798958342137
1776714929.930968,-0.04894831812680131,-0.013706496546221358,-0.35724240967667675,0.0010882032789210072
1776714929.950454,-0.049060687973868644,0.002237243753318241,-0.3572582336375518,-0.002653153699521127
1776714929.9708164,-0.04888792657554544,0.013561591749699509,-0.3573247177921782,-0.0025690402378402144
1776714929.990571,-0.048699159577799814,0.0068620779292736245,-0.35731846448365057,0.0023844263711803038
1776714930.01045,-0.04859403293833696,0.0003192960074478446,-0.35727334214332573,0.0020713945239054787
1776714930.0305007,-0.04879537942404352,-0.0162636406212196,-0.3573390748061681,-0.00802086012869041
1776714930.050458,-0.04903792636958758,-0.005593152887742009,-0.35742371860433464,-0.0009851045515738566
1776714930.0705335,-0.04895506289974491,0.017979091411920806,-0.35735109163665246,0.009227594941002781
1776714930.0905144,-0.048642455321765296,0.010597760064760209,-0.3572350827836195,0.0005089242024591822
1776714930.1105742,-0.04856745730134121,-0.0059584611648536845,-0.35735750222989215,-0.011295148306956992
1776714930.130837,-0.04882827693047731,-0.015569893100226745,-0.3575224425247455,-0.00226778138645245
1776714930.1509402,-0.04908774213054661,-0.008731011575327213,-0.35742051004364206,0.010189079551168989
1776714930.1707397,-0.048956428159243226,0.0197694517778782,-0.3572185820934086,0.006932306834939839
1776714930.1905627,-0.048691376203775436,0.013881552297869276,-0.35723470161186516,-0.007969224702620625
1776714930.210575,-0.04861134442958897,-0.008724406930389589,-0.3574761691900873,-0.012996121864962795
1776714930.2305725,-0.04885003334075718,-0.010256196824821762,-0.35754272840742585,0.0071008642951022605
1776714930.2505782,-0.04898436606914554,-0.005603963548121954,-0.35731346534655817,0.01916293335409036
1776714930.2710233,-0.04891520559890242,0.011861518059834514,-0.3569982805086277,0.0014905050235658468
1776714930.2905655,-0.04873357686541937,0.010355509848146344,-0.3571234994930885,-0.01723103778192825
1776714930.3105946,-0.04869536616635192,-0.006333302818400055,-0.357468067679625,-0.01300192550575563
1776714930.3305075,-0.04883717203773479,-0.007157509111785698,-0.3574873172782096,0.01096166981264135
1776714930.350643,-0.04893459013863324,-0.0023701243613307443,-0.3572313200439217,0.018250389568988945
1776714930.3705807,-0.048944137724205264,0.000530084275405851,-0.3570396309206795,-0.0007805024801692539
1776714930.3905978,-0.04883008018344388,0.0094123416720511,-0.3571928255740684,-0.01444132598923642
1776714930.4107544,-0.0487526283208434,-0.0006596093302382311,-0.35746114869821405,-0.00786131365026188
1776714930.4311545,-0.048748556155967834,-0.0009733396883881418,-0.35745247119923035,0.006484128449635529
1776714930.4504616,-0.048819810765993274,-0.0034472077883474783,-0.3572437853500073,0.012412842185628215
1776714930.470864,-0.048916150477935634,-0.010402964139126919,-0.3571556355827411,-0.0010533626650972572
1776714930.4905605,-0.048964525170183335,0.005659038944667405,-0.3572608384002792,-0.009515518000238199
1776714930.510584,-0.04884711956154637,0.00667606734016854,-0.35738417240765724,-0.0009497438637671163
1776714930.5306988,-0.048784582015837574,-0.002811323779297298,-0.35733309116905265,0.0037578885827562747
1776714930.550559,-0.04883426142166798,-0.0037192316198795816,-0.35727782867229685,0.0034840376461686695
1776714930.5705638,-0.04900415813085558,-0.011107878976179542,-0.35729951246329655,-0.005543990546223343
1776714930.5905392,-0.049059384273972315,0.004658421147962416,-0.3574524599410478,-0.00871066865192871
1776714930.6108694,-0.04883017139755928,0.016167953191206536,-0.3575034717505985,0.004253546307316558
1776714930.6305668,-0.04869325333716867,-0.003953279230136192,-0.3573749745562872,0.006137344895562835
1776714930.6506069,-0.04878154934411879,-0.004496116357787683,-0.3573729349310599,-0.005944008746637586
1776714930.6710486,-0.048934621667465227,-0.006836003374011995,-0.35752095877846213,-0.005833475409972477
1776714930.6909585,-0.04899058482382611,0.0010248113933864766,-0.35745437067166347,0.010895458052095908
1776714930.710456,-0.04885362528399574,0.016034506889993083,-0.35726237095261304,0.012567751950864459
1776714930.7304466,-0.0486440034590174,0.0036162804271860916,-0.35718963264611975,-0.007062401242879046
1776714930.7504554,-0.04872201093413739,-0.01049798997473525,-0.35736364053083647,-0.00865788916558663
1776714930.7708843,-0.04890688039628577,-0.009302515526439542,-0.3574019223475432,0.004317419950981671
1776714930.7904942,-0.049079324818914326,-0.005111600161417679,-0.3572463856436614,0.009933641005109628
1776714930.810546,-0.04890013190878066,0.019258617402748673,-0.3571010191516094,0.002520568760942643
1776714930.8304596,-0.048608713560860314,0.010061904116383802,-0.3572124720538852,-0.011647552244641757
1776714930.8504548,-0.0486929938859384,-0.018975780025552558,-0.35742136462098323,-0.0072744174171288645
1776714930.870576,-0.048949324660956695,-0.011791975491880796,-0.3573887658991159,0.015027502074491661
1776714930.8904843,-0.0491032605081614,-0.0009618469188085454,-0.35685510777515406,0.03086686257393567
1776714930.910508,-0.048942859082225065,0.012535279784320869,-0.3567311809360064,-0.01484647293384822
1776714930.930475,-0.04873998046341883,0.013939239903000888,-0.3570556514149419,-0.032188588286063524
1776714930.950953,-0.048805407251695646,-0.01792041632503652,-0.35750849046675987,0.002366830400871267
1776714930.9704928,-0.048997675612124085,-0.008862770424937133,-0.3573540152228454,0.011159151623959307
1776714930.990502,-0.048994925796888564,0.009869298297231821,-0.3571845852873804,0.004646372610193961
1776714931.0105052,-0.048888120724545917,-0.0009185693901305747,-0.35724287197308746,-0.01043414392598252
1776714931.0304961,-0.0488807060098832,0.0005622698877122967,-0.3573931849180375,-0.002791021705335517
1776714931.050595,-0.04889922900973924,0.00048381564158253565,-0.35739538520287073,0.003068955665637141
1776714931.070629,-0.04887138476719456,0.0007771876475151374,-0.357383177630785,-0.002301544543603873
1776714931.0904498,-0.04882910040993145,0.0023930789766411775,-0.35738258250817667,0.0016459536887263315
1776714931.1109493,-0.0489533105142935,-0.01234602360556214,-0.357326722296136,0.003632580767256366
1776714931.1308413,-0.04901881314081545,0.004581256816092366,-0.3572906466481198,-0.00232900031945249
1776714931.1507425,-0.04882689371291916,0.014116272495943188,-0.35740211403983113,-0.005283221573381347
1776714931.1704767,-0.04870518470469502,-0.001244767596558588,-0.35747858942065075,-0.004053766037172668
1776714931.1905231,-0.04878841385921652,-0.006478948241553706,-0.35747277401983957,0.005565914227290136
1776714931.2104535,-0.04901875586189977,-0.010448558548931536,-0.3572823395747126,0.010263056875642773
1776714931.2304554,-0.049056270518966286,0.0039038149748865103,-0.3571701035535279,-0.00038473755661616593
1776714931.2504368,-0.04888173297340693,0.018819891731150673,-0.35728923649760974,-0.014220971747579636
1776714931.2705646,-0.04867587642739138,-0.0016632159518208955,-0.35754935210614025,-0.008740031145582527
1776714931.2904518,-0.04886394639777514,-0.015929081210795726,-0.35747159146346186,0.015390568911209046
1776714931.310494,-0.04909883321060375,-0.0035132087056582717,-0.3571942936700109,0.00941862556308748
1776714931.3304636,-0.049041017517549676,0.008358426831775123,-0.3572383413734284,-0.013805255204778488
1776714931.3504574,-0.048792946550028915,0.014145462998883668,-0.35749484405358317,-0.00866034828537976
1776714931.3705492,-0.048692092812285724,0.00019106956929437757,-0.3575632852266927,0.0021546525892026658
1776714931.3904655,-0.04884900329004617,-0.014201151031217746,-0.3574396121396339,0.008623670590916621
1776714931.4104714,-0.049000545867692924,0.0006757259830500462,-0.35726651025673506,0.006746102512637853
1776714931.4304843,-0.048948351288660194,0.0029229597658973205,-0.3573241857755669,-0.009783587361668511
1776714931.4505486,-0.04890991264273213,-0.0009538675867548085,-0.35745819866554196,-0.00804387697603981
1776714931.4705122,-0.04886005484219891,0.005871298052167934,-0.3574402906306382,0.009147213485756645
1776714931.4905057,-0.04880112638771082,6.270138042255291e-05,-0.35728634617870547,0.004412828189883866
1776714931.5109763,-0.04884361919153184,-0.006088855683033412,-0.3572979781766741,-0.0047599351223803765
1776714931.5307257,-0.04901018926206992,-0.007972125660985568,-0.3573598085724535,-7.535131473690448e-05
1776714931.5505824,-0.049110967065115085,-0.0040668849972170795,-0.35735585201051984,0.001812625274044244
1776714931.5704656,-0.048985942671104704,0.015797970556761687,-0.3573022199842869,0.0010809605537980271
1776714931.5904746,-0.0487318116657228,0.0069097434749003095,-0.3573497729169276,-0.004514170506560333
1776714931.6104875,-0.04877777305792876,-0.012258413938331547,-0.3573953332020818,0.003227361033834253
1776714931.6306674,-0.04902050361637643,-0.008175700515052703,-0.3572562798270697,0.010176570762405301
1776714931.6511083,-0.049106367696662497,-0.0007214626356109866,-0.35727104786578917,-0.008829804385682483
1776714931.670538,-0.04898196789404779,0.011434998442319044,-0.35751337621302837,-0.017956809032836585
1776714931.6908393,-0.048734578886220264,0.009044403580129423,-0.3577425637879612,0.0016888790609237425
1776714931.710648,-0.04882181037039014,-0.015317311869790046,-0.35768340292147716,0.004795223430578144
1776714931.7304604,-0.04908135435498051,-0.00805348600009731,-0.35758564409394,0.004123858633471311
1776714931.7504895,-0.04910680365590053,0.007536670870940176,-0.3575503717330794,-0.0010336811719409145
1776714931.7706013,-0.04893531769566139,0.0070713246072801605,-0.35761909132563763,-0.005701917144757207
1776714931.7906232,-0.04882150610910362,0.0024118062177984345,-0.3577027028111238,-0.0029448314278290866
1776714931.8105283,-0.04887461854174953,-0.007033345664280433,-0.35771511238128717,0.001985671663112809
1776714931.8305645,-0.04904622211780582,-0.007659139649438568,-0.35769334701427075,0.00010519145752496684
1776714931.8505824,-0.04902985271491091,0.006965181249257046,-0.3577045465291626,-0.0002809903436069572
1776714931.8705475,-0.04893601060971585,0.004859468804508327,-0.35755727763699763,0.012891238392485516
1776714931.8905747,-0.048833382907975426,0.001429366914575153,-0.35731647359425167,0.01071483590134159
1776714931.9105644,-0.04878390756256748,0.0056450011172809456,-0.35732239069225,-0.011889652556557717
1776714931.930734,-0.04879381796960025,-0.006290297410138479,-0.35756579482455364,-0.01580954261865175
1776714931.9505877,-0.04897561231149537,-0.00934717217695552,-0.3576949447736282,0.0027768582249732
1776714931.9705007,-0.04900266450186718,0.006799870758257193,-0.3575407647728708,0.012740670825508005
1776714931.9904993,-0.0490786688927551,0.00039910959584679717,-0.3579555551264818,-0.025924468511689724
1776714932.0104613,-0.04773168354025964,0.09854545803860529,-0.3558159380002283,0.1800555993890145
1776714932.0310638,-0.04595304883328324,0.08514521945639705,-0.3522194394065841,0.18822987970883442
1776714932.0505779,-0.04504784468278787,-0.001759832111291687,-0.3500482002936789,0.02540275803720049
1776714932.0705733,-0.045239232956218955,0.017785071831599816,-0.35010830872142207,0.009299078798022276
1776714932.0910358,-0.04432017246949952,0.05870809279279794,-0.35021175327943294,-0.017438772284901427
1776714932.1104636,-0.043495859887658375,0.02339793626518978,-0.35040226601547847,-0.001261992874711515
1776714932.1304808,-0.043278744617749255,-0.012090055690027357,-0.35033834850194956,0.01766223237324871
1776714932.150572,-0.04345620939469933,0.004962109221837346,-0.35001617222923653,0.0046909582683019035
1776714932.1705048,-0.04343119444120107,-0.002249449856115221,-0.3500155026627426,-0.005286563739574479
1776714932.1904616,-0.04341305527116153,0.0029598473859176466,-0.35015135925475616,-0.0063214722842543924
1776714932.2104714,-0.04325200457306862,-0.0038380317750621867,-0.3501482123897419,0.0033078822745260528
1776714932.2305703,-0.043713007238840196,-0.04850721602579067,-0.35021734350363787,-0.010983398675329825
1776714932.250571,-0.04424842615086206,-0.009428422673824682,-0.35009908599766154,0.012266663738947248
1776714932.2704513,-0.04403013072556862,0.04828291713010059,-0.3497235929827802,0.03144831871215703
1776714932.2904587,-0.043237246688541134,0.023463933258864977,-0.3492364398417106,0.013402911819688001
1776714932.3105514,-0.04283593203153144,0.022781248514294514,-0.3490112533286654,0.014289899779537985
1776714932.3304503,-0.042458031655017,0.0009829651341373424,-0.34879986904322924,-0.0005483612299156393
1776714932.3505793,-0.04259450710044144,-0.016389771952379284,-0.3489000784359716,-0.010740454463814553
1776714932.3706372,-0.042040921057966404,-0.032371474247698886,-0.34842177770807464,-0.014582903799450375
1776714932.3905034,-0.04814419091469565,-0.46567503094102736,-0.3525201499103841,-0.31838691362970706
1776714932.410865,-0.055911677691419304,-0.31780106146783615,-0.3579671478701596,-0.23222936054725052
1776714932.4304483,-0.059062144697346886,0.11856249090734705,-0.36052831203467545,0.0643079300122007
1776714932.4506402,-0.057712857837955205,-0.009559953417421801,-0.35958868711297587,0.006236175835564017
1776714932.4705667,-0.05809986368499951,-0.02728823959266985,-0.359571219601199,-0.0015290808051564575
1776714932.4904432,-0.05833627510097139,0.007638099605150855,-0.35974934814869486,-0.01714984204972403
1776714932.510555,-0.05813210243239292,0.01566050955134074,-0.3599561534128747,-0.007003955622808977
1776714932.5311146,-0.05854466973762174,-0.03897878297150839,-0.3597719796600657,0.019702382094389792
1776714932.5508628,-0.05899915031954907,-0.025006377887327402,-0.35925860761083056,0.03962864423171153
1776714932.5705826,-0.05958813713505758,0.03789727983033231,-0.3585031593200966,0.03586074174877063
1776714932.590792,-0.05543399933210611,0.2969525159416855,-0.3577801143173035,0.030644240886018803
1776714932.610465,-0.050623258108727046,0.18669488632787773,-0.357606237061981,-0.01290738251952428
1776714932.6308436,-0.04796764755327296,-0.0038232746404833207,-0.3563942809452176,0.11034674033489444
1776714932.6505723,-0.047437736036311594,0.10994085212003823,-0.3536932274799418,0.2256700035374547
1776714932.6710315,-0.04572407596204781,0.05468334018606563,-0.3502498555438829,0.10760586859943211
1776714932.6904113,-0.045189702682315105,-0.010383382587821816,-0.34930763133669324,-0.03419765683106657
1776714932.7106783,-0.045315642274922074,-0.004844592707276468,-0.34964576045480167,-0.00034032259600913495
1776714932.730906,-0.04503569183801059,0.030621395936184445,-0.3498213614044814,-0.01545658699328456
1776714932.750526,-0.04436523589989102,0.0540784459589725,-0.3499689941600567,-0.009383296041352795
1776714932.770519,-0.043620795486414655,0.017783109065818148,-0.34997478485449895,0.008562459863109773
1776714932.7904856,-0.04348292031866197,-0.010620829104538904,-0.34983595377252064,0.0055332290162715125
1776714932.8104706,-0.043615882530624456,-0.003053875464543415,-0.34996414466829917,-0.007427251465091156
1776714932.8307157,-0.04357246283685957,0.00638783070960823,-0.35002641739967294,0.0011632120695397319
1776714932.8507543,-0.04337764873166299,0.016646120830952002,-0.34991127924561,0.011772529588162328
1776714932.8704934,-0.043277606309602645,-0.005808107980117105,-0.349855502387292,-0.0060685173466998865
1776714932.8905077,-0.04345393332630625,-0.011483657275180012,-0.35001072593032917,-0.011295149891291545
1776714932.910816,-0.04361505607477641,-0.006106444378849177,-0.3504351854497122,-0.026601590340801007
1776714932.93091,-0.04411241983396046,-0.03775330247813616,-0.3507268619255975,-0.009368591455224173
1776714932.950885,-0.04423443988443692,0.039394485216251024,-0.3503427285170535,0.04898877850092043
1776714932.9705224,-0.043480908867282335,0.07829097960265784,-0.3496647035299547,0.03578833522390734
1776714932.9909043,-0.0428254027645234,-0.015194189567856592,-0.34943717672459795,-0.00429314413940729
1776714933.010651,-0.043009985203543266,-0.041765997254364806,-0.3494275621336154,0.0008569452478544015
1776714933.0305753,-0.043299325043501674,0.015433230385920843,-0.3492603053861957,0.018512529721283477
1776714933.0506995,-0.042807332474492255,0.023152344733103167,-0.3489524567511061,0.008050163885406358
1776714933.0705593,-0.042503271689934244,0.005955783251261421,-0.3488940155148379,-0.002641423370596696
1776714933.0905707,-0.042980487641307005,-0.049120682103544214,-0.3490507459084506,-0.01120137809452526
1776714933.1107886,-0.0436572512245024,-0.013106424597438923,-0.3491770363726353,-0.00023080001643971393
1776714933.131051,-0.0435433671322774,0.026260966649727838,-0.34907147630079516,0.01065023520473396
1776714933.1505632,-0.04308983379927714,0.02016430971179904,-0.3489139938987154,0.0071496914349524765
1776714933.1704955,-0.04280200185720072,0.004863576352516552,-0.3488287013498851,-0.00028289479060672473
1776714933.1904454,-0.04323744163095805,-0.0405506055560589,-0.34902027258144563,-0.01448434819538269
1776714933.2104568,-0.04393186784496509,-0.023077022631982677,-0.3492182385462393,-0.004993173440480003
1776714933.2304492,-0.0437063328560829,0.042894438180117,-0.3491178752248762,0.014480570550684635
1776714933.251072,-0.042937516964593164,0.024480455576234156,-0.3489361129732716,0.0007649050598044216
1776714933.2704918,-0.04276541052743513,-0.007156369838030016,-0.34898336734079716,-0.007285850497429469
1776714933.2904756,-0.04323563046492086,-0.02893930829062269,-0.34919757938731666,-0.010434307684073052
1776714933.3104486,-0.04371424078052852,-0.014500767054563352,-0.3493453911477916,-0.004715642929656094
1776714933.330553,-0.043481645278236655,0.03668043034654424,-0.349331138663335,0.006166936689489311
1776714933.3505485,-0.042871273589390343,0.023086244675418102,-0.34926029668419234,0.0002723886261385422
1776714933.3704972,-0.042859070233632564,-0.02371406985288675,-0.3493362778587044,-0.006490800891192583
1776714933.390445,-0.043134363899705486,0.0007948165907937649,-0.349373099237851,0.002391819374204851
1776714933.4104803,-0.04322040016812045,-0.00822737359734832,-0.3493882670993772,-0.003481539124573052
1776714933.4304724,-0.04325090167276703,0.002997487188182088,-0.3494168821442151,-0.0014543030698563886
1776714933.4504714,-0.0430837364917281,0.02361139275655301,-0.34942910539897154,0.00413366572120577
1776714933.4704666,-0.04280420449890871,0.0012935111003367639,-0.34933033525554313,0.0034102759018314055
1776714933.4905536,-0.04283360103989013,-0.005145169047113263,-0.34919478434113604,0.008668478375705724
1776714933.51045,-0.04300813025373322,-0.007520626209321132,-0.34913121984531237,-0.0027200021888028614
1776714933.530755,-0.04315469425243608,-0.01122219755339468,-0.34925934175169826,-0.011830077986664578
1776714933.5504868,-0.04303679832773597,0.01924237385990292,-0.34935669034370553,0.0025400092062308754
1776714933.57052,-0.04281212642128249,0.003850396824075536,-0.3492041263921013,0.012235645600776834
1776714933.5904522,-0.04286536046826503,-0.011260070546305595,-0.3490030006787621,0.005130295469645163
1776714933.6104648,-0.0429902785327729,0.0042688195704400494,-0.34901794462357255,-0.005232084993940678
1776714933.6304648,-0.043121142603679836,-0.01402600468314115,-0.34924287713268964,-0.014080279416666452
1776714933.6504843,-0.04306680340285112,0.012340197410705286,-0.34937170678155594,-0.0037290444239707066
1776714933.670937,-0.04239556951980759,0.054508569616575395,-0.3493102056718538,0.00999318445830355
1776714933.6905162,-0.04126437856963054,0.05040616224793665,-0.3491666230621435,0.002563298319306573
1776714933.7107296,-0.04020711864170291,0.05168130439530291,-0.3492090546878188,-0.00744600488869851
1776714933.7309651,-0.03940569146734445,0.029548454962996226,-0.349486129589325,-0.01573245720808658
1776714933.7505138,-0.03884016573222496,0.03348825610250292,-0.34967063550391586,-0.007544917879340529
1776714933.7704694,-0.03781558745366982,0.06214930011543793,-0.3495761990671125,0.015182591532909462
1776714933.7904723,-0.03688829132254325,0.02427116256577508,-0.3494221793756817,-0.0015976273328868196
1776714933.8106332,-0.03675987887976078,-0.015658755216262782,-0.34958269230896777,-0.015912652657083193
1776714933.8305085,-0.03709011579145853,-0.019311852707536353,-0.34980140836976115,-0.007804706787096105
1776714933.8505557,-0.03762107647023302,-0.02929409935105194,-0.3499909173127396,-0.008855427348265277
1776714933.8704884,-0.037989589777127075,-0.00901730121246265,-0.35009191433502207,-0.005055532815224417
1776714933.8904984,-0.038243423236789864,-0.0162084787643135,-0.350457216742603,-0.026431608274972485
1776714933.9104443,-0.03895905608727568,-0.0522230587137571,-0.3511395322211597,-0.03969159949796297
1776714933.9304214,-0.03998179583360453,-0.04038532664921987,-0.35177712908246694,-0.018758433472106706
1776714933.950493,-0.04052521688825872,-0.01883635388007815,-0.3521731981641791,-0.02532395082680594
1776714933.9705687,-0.04045149512682768,0.020792494576236484,-0.35280212132442007,-0.035277327605842235
1776714933.9904573,-0.03983574110428489,0.03506010487173626,-0.3533217130838881,-0.01256210905336208
1776714934.010456,-0.039511111395346715,-0.0009492178794543865,-0.35341944075111,0.0030406203383113173
1776714934.0304554,-0.03933648658552092,0.020018087684862115,-0.353223858575506,0.014722694291502192
1776714934.0506396,-0.03888315925951584,0.040573206217428395,-0.352886823246906,0.02576546252471612
1776714934.0707998,-0.03822474318114466,0.016506626989386944,-0.3522376129423987,0.03663029211948965
1776714934.090463,-0.03794400199305465,0.007218817339967459,-0.3513622252053217,0.04679175645519962
1776714934.1104777,-0.03778427890063989,0.008101108429567669,-0.3503071261664474,0.054945822491481056
1776714934.1304734,-0.037623769535902796,0.005583879238146586,-0.3491551730217372,0.05469054355470526
1776714934.1505914,-0.037707462032054204,-0.012204489484769751,-0.3483154108706545,0.04905705604677568
1776714934.1704905,-0.03830840975388634,-0.04132953006395648,-0.3471691174949658,0.06304688230479127
1776714934.1904461,-0.03876639642549667,-0.0009793339448710553,-0.34538710022141095,0.10912752679656257
1776714934.2104714,-0.03841765144919909,0.03179812110574254,-0.3429552160170114,0.12500924517518264
1776714934.230466,-0.03806208124379838,0.004120950234604778,-0.34088634969194964,0.12032941245911288
1776714934.2504768,-0.0383789436311887,-0.036208202966334355,-0.33829983695829213,0.12985375111327546
1776714934.2704766,-0.039357147901692605,-0.049951484573208124,-0.33536782100222673,0.15194599073030357
1776714934.2904541,-0.04000940893229098,-0.009673777623313867,-0.3318557859935206,0.1843823236642146
1776714934.3108225,-0.03971603573314768,0.0348616726983645,-0.3277911903061155,0.205195160272876
1776714934.3306372,-0.039313163244081836,0.0009347149307293856,-0.3234991112662528,0.20560264412529372
1776714934.3504922,-0.03964966315950923,-0.04017709938898063,-0.32001498906067055,0.21311616808721967
1776714934.3704963,-0.040572559613979445,-0.039673865390833896,-0.3153673014330719,0.23581138043071348
1776714934.3904538,-0.04074451651019868,0.021358075062868076,-0.31028745458827994,0.2508725386944122
1776714934.4105675,-0.03985240811644422,0.05497166835876294,-0.30500771963553563,0.2531505318510898
1776714934.4304712,-0.03926621611618135,-0.003384228532870792,-0.29980906877766894,0.24678642898511993
1776714934.4505303,-0.0396594587328876,-0.044058000024183766,-0.29560094534585624,0.25546977225546263
1776714934.4705017,-0.040464367164396484,-0.02494888919220603,-0.2901239710609732,0.27439104316901497
1776714934.4909449,-0.04040522563429351,0.028989581783658028,-0.28418537650527453,0.29437454777154015
1776714934.5104442,-0.039576575333337784,0.04427565347865321,-0.27786168939641165,0.31118700816399747
1776714934.530541,-0.039153256225465734,0.006759465826380789,-0.2727214334795338,0.30298958378063723
1776714934.5505707,-0.039405567193035174,-0.030901979099294985,-0.2665722495333761,0.28653747175148736
1776714934.570518,-0.04003720867576656,-0.025094946981369118,-0.26067211420599323,0.28002916503344577
1776714934.5905561,-0.040367656910711404,-0.007012442190167695,-0.25489902101995154,0.2778232553910157
1776714934.6106992,-0.04049452032649772,-0.007225176475280828,-0.24890282438400366,0.29663201417831186
1776714934.630484,-0.04093945079402897,-0.03497585554292096,-0.24260015351860656,0.31126993555586024
1776714934.6505585,-0.04155147227035732,-0.04114745465519548,-0.2374088146606616,0.30811898991492026
1776714934.6705055,-0.042315326015434376,-0.02890304531818945,-0.23105123783571554,0.3013523979893915
1776714934.6908417,-0.04287302817901756,-0.02713699947313436,-0.22484854364481538,0.2948561314396676
1776714934.710831,-0.043407375402568865,-0.027171855038019804,-0.21850302980584352,0.3138658877562378
1776714934.7311094,-0.04402705013951039,-0.03382903938354544,-0.21180886648524425,0.32873613883122355
1776714934.7507567,-0.04472700886785937,-0.0464118702401423,-0.20636049611456792,0.3243828834697219
1776714934.7705343,-0.04566710351411816,-0.0443987354358705,-0.19955299634565055,0.329791252486931
1776714934.7904665,-0.046598204840453974,-0.042905932637320926,-0.19256571458318394,0.3418031767544213
1776714934.810481,-0.047510813601015084,-0.04429503465163459,-0.18527110295833782,0.3562511455466314
1776714934.8304274,-0.048256622257153034,-0.027336688419338312,-0.17772512717942368,0.36596503947978953
1776714934.85058,-0.048762459186925934,-0.03089000289226493,-0.1717219343313841,0.35734758208328604
1776714934.8705144,-0.04950178495084259,-0.04449681506088082,-0.16421107414114264,0.36404260079712536
1776714934.8910453,-0.0505571745243429,-0.05569298944559295,-0.1563784643202717,0.390120442520073
1776714934.910758,-0.0517773044615694,-0.059238182572518866,-0.14821494226525384,0.3922443858338597
1776714934.9305053,-0.052563603566081404,-0.035249557108461754,-0.14165713437220367,0.3935752580539481
1776714934.9510238,-0.053156078150422864,-0.019692462483953954,-0.13342902724830163,0.39634798833989343
1776714934.9705765,-0.05359346184451662,-0.026784559590283447,-0.1251525586354884,0.3970473268117632
1776714934.9904618,-0.054334800296393274,-0.042524062705432936,-0.11686283113174989,0.3991109853618312
1776714935.0104635,-0.055365601553958574,-0.05382014758650494,-0.10863937012569581,0.3908456257965127
1776714935.0304468,-0.05604738639656722,-0.01022728240271395,-0.10051616539903677,0.3913298644854335
1776714935.0510123,-0.05608303680908307,0.009682958737524366,-0.09391802883853076,0.39969240393466504
1776714935.0704968,-0.05605338344935579,-0.010111715349615663,-0.08560713264811814,0.3979368964023735
1776714935.0908768,-0.05638715830854012,-0.021080799127962513,-0.07739190776054987,0.3878066985528362
1776714935.1108875,-0.056940132810391335,-0.027428168812809628,-0.06944101865831635,0.3769905441930296
1776714935.130604,-0.05736995698891861,-0.010722850660680294,-0.06157141790670764,0.3791212814973865
1776714935.150486,-0.05721187163601163,0.025550528271361922,-0.05510938222561525,0.3956962944336504
1776714935.170655,-0.05676183334484099,0.014453991790663479,-0.04691865082795953,0.3909965188986827
1776714935.190462,-0.05680421877756062,-0.02119704451365345,-0.0389641439305468,0.3712751806790081
1776714935.2104657,-0.057202244317745655,-0.012615483089881752,-0.03121817315720024,0.37436873659957104
1776714935.2308557,-0.057328138868231945,0.0015798647916635544,-0.02491182784943581,0.382721487624358
1776714935.2505121,-0.05697228384988749,0.029789762955607674,-0.016824750436497858,0.39096722239270004
1776714935.27047,-0.05645766957727416,0.020062092374981494,-0.00882254233394814,0.3766347137962512
1776714935.2905936,-0.05631381663468904,-0.00803502231430292,-0.0010101466579608815,0.3721656482133636
1776714935.3104644,-0.05642507688129844,-0.000819291227830421,0.0069795261490261,0.3957627567382852
1776714935.3305292,-0.056516085539589006,-0.006593599147716428,0.013563906061325782,0.39943759532730333
1776714935.350481,-0.056505795574600684,0.0058155441641986605,0.021846987966453388,0.3958952784433015
1776714935.3705175,-0.05605631948872156,0.035862303876651014,0.03016050041314297,0.40389241846962276
1776714935.3904903,-0.05562285327254274,0.004985532340255727,0.03859719940956835,0.4052278307151223
1776714935.4104292,-0.05582604413979404,-0.024521947527985866,0.04706305198905473,0.4072879326300133
1776714935.4305086,-0.0561933588220698,-0.01766338567057288,0.0538113090444996,0.4052308702560019
1776714935.4505143,-0.05633982869725199,0.007125762135535896,0.06410258720641765,0.42045240027551634
1776714935.4705155,-0.056047585195322505,0.02611517339849609,0.07132765578533794,0.4463879634273349
1776714935.490454,-0.055838593992606725,-0.005862535354449,0.08064652608744267,0.44783050190751905
1776714935.5104895,-0.056344258484318746,-0.04263293169385965,0.08985391575129938,0.4342835712726285
1776714935.5306964,-0.056961875972218204,-0.02995397865483701,0.09711726858020328,0.4364804833367234
1776714935.55052,-0.057461224606749815,-0.015585350568419115,0.10620810711209702,0.4371296341343611
1776714935.5704813,-0.0575995947420348,-0.00010531084829384918,0.11542169585593734,0.4457952870040623
1776714935.5904887,-0.057626221070362506,-0.0032843633464835487,0.12472581848439765,0.4486286428082276
1776714935.6107874,-0.05803787849249277,-0.03619270978819228,0.13387332782842865,0.42795671980555483
1776714935.6305232,-0.058714920770856736,-0.027270938666136307,0.1426969525597883,0.4198500015039779
1776714935.650892,-0.05909848781935294,-0.004984335381947702,0.15137399065184956,0.411799616974189
1776714935.6704912,-0.059013244291818506,0.011896436160673596,0.15811207806654548,0.3976974942055835
1776714935.6904974,-0.05841499553755979,0.04074744169734443,0.16635385022568683,0.39113310561345765
1776714935.7109535,-0.057867160467191196,0.012815210910189362,0.17428220733228053,0.37092690333032846
1776714935.7305324,-0.0577881125548632,-0.008211733799178056,0.18027410979439906,0.34516015443520837
1776714935.7506158,-0.05775451286903392,0.015491212330984272,0.1873539567622049,0.33531528862821725
1776714935.7704802,-0.05719476457706335,0.03828039013403112,0.19420612175884633,0.3228396076858465
1776714935.7905576,-0.05609655812037135,0.06192882863551186,0.20074093775055002,0.3029121309327877
1776714935.810491,-0.05498707858701453,0.0444215488284537,0.20677425052102544,0.2769737521535829
1776714935.8308694,-0.054456559537912425,0.008422022874534058,0.2122715080629741,0.2513951131743477
1776714935.8506002,-0.054147820375600356,0.026020068914475503,0.2164316968714057,0.24802906564668437
1776714935.870556,-0.0532725809957989,0.059374596869163215,0.22159494368737329,0.24783541576800105
1776714935.8905766,-0.051849049030648936,0.072861694118671,0.22671180915305933,0.24290942919987724
1776714935.9104576,-0.050402551974821665,0.06286969125891897,0.23182360292610768,0.24706769532204753
1776714935.9305134,-0.04976505692960141,0.016819638185967822,0.23587785010766182,0.2416191452579497
1776714935.9504533,-0.049730937623974875,-0.004922444065992543,0.24180065032413658,0.23367835010541815
1776714935.970506,-0.049646438404145496,0.019342408644401954,0.24574859816535624,0.24099712519129624
1776714935.990497,-0.0492019185985796,0.022190335571405095,0.25080298147583624,0.24244598116665939
1776714936.0104845,-0.04882771823451104,0.008280033053122526,0.2558322482789538,0.24148415601864637
1776714936.0304697,-0.04908410921560611,-0.0310539334253242,0.26089554206260146,0.24450317191048743
1776714936.0505674,-0.04970238962494866,-0.045696498856889284,0.2648905987741119,0.23770261763853728
1776714936.0704582,-0.05028720577704998,-0.008175811038115294,0.26989854143460373,0.24056441442672338
1776714936.09047,-0.05040029047406615,-0.0049740527288226755,0.27498274973165704,0.24720448853054988
1776714936.1104615,-0.050683763717986705,-0.02667875197767297,0.2799651175700183,0.22907209608947987
1776714936.1304662,-0.0514274121132063,-0.042211532749718395,0.28459860910785517,0.21562305876371723
1776714936.1504586,-0.05227803762348439,-0.05577312892683872,0.2880805017740736,0.20381150625861544
1776714936.1704566,-0.05317851619508286,-0.029573761501785367,0.29219371469387534,0.19002885361796218
1776714936.1904876,-0.05349017865458111,-0.002807119722976925,0.29596595297648987,0.17131202047069194
1776714936.2105374,-0.05374363123041523,-0.02299747909814162,0.2992526186809208,0.14318036757021746
1776714936.2305,-0.05402867892482603,-0.016307743173300193,0.3015239226661107,0.12867096228840624
1776714936.2504714,-0.0542967245589515,-0.00648789892318577,0.3040088891552546,0.1099603082133016
1776714936.2704847,-0.05453086027017118,-0.016812986783177997,0.3059716789771645,0.0779187927315581
1776714936.2908645,-0.054547855798272274,0.012632023304415457,0.3073326735264354,0.05393148358871491
1776714936.3104587,-0.054207972783653864,0.021939081356310758,0.3083018670245017,0.04000120027032994
1776714936.3304565,-0.05368675297925332,0.024857158710791694,0.30903119114263566,0.028982696607237735
1776714936.3506894,-0.053226216587446536,0.033506352983863674,0.30940572561561935,0.014639933008235517
1776714936.3705115,-0.05279495478039882,0.009406840123396959,0.30935670452918923,-0.018264450392857068
1776714936.3904593,-0.05254968877375138,0.014010398493380455,0.30884591045763005,-0.029974071559063065
1776714936.4104276,-0.05224564786287672,0.029077212410641234,0.3084067906543132,-0.02013107230339095
1776714936.4304588,-0.05161643129974753,0.029020634412714796,0.3080257875769521,-0.018406723054652296
1776714936.4504592,-0.05101518164238182,0.026814938583081427,0.30754163540682267,-0.029005019283769196
1776714936.4704485,-0.05081619219886553,-0.0074729266658108695,0.30674559231586035,-0.04573533065451041
1776714936.4905522,-0.051082573729337805,-0.01639240108774867,0.3058143024274066,-0.04127271667407506
1776714936.5104585,-0.050969377490753004,0.026256807844346447,0.30518038511709833,-0.019687187624293223
1776714936.53045,-0.05035415215644991,0.030301951534762145,0.30478789090528635,-0.01889021653546863
1776714936.5504785,-0.04997497455315916,0.011699344884830765,0.3044615937095988,-0.022062947199887772
1776714936.570445,-0.05000356759637036,-0.012845582267091704,0.3039987482082518,-0.01947080677761215
1776714936.5904584,-0.050478140184711764,-0.02923479605557147,0.30369577843167345,-0.008572468799265542
1776714936.61046,-0.05065544779491134,0.011445941514072938,0.30379436014391276,0.016773624539517917
1776714936.630428,-0.050291843762745196,0.022065358515359734,0.30417597106436267,0.01851917586312557
1776714936.6508138,-0.05012301611453268,-0.0061826334910108915,0.3044129792517749,0.00851580482989922
1776714936.6705208,-0.05039939783286624,-0.01890086894773671,0.3046144142785691,0.009079780186110553
1776714936.6904647,-0.05085823938090094,-0.01916003667138727,0.3047106945154094,0.0026064375248474603
1776714936.7104523,-0.050961416777436624,0.008709829553880638,0.30485793112332904,0.010367892189597105
1776714936.7308435,-0.05053560244992682,0.030523317676710154,0.30522838815620146,0.024492040824584782
1776714936.7504988,-0.05021044897534195,0.008198609648504496,0.3055143313747005,0.008988425307982162
1776714936.7706017,-0.05020799376956147,-0.00849581920677131,0.30550245091876926,-0.010201451488899616
1776714936.7905722,-0.050421966319103145,-0.006157523923306901,0.30528319390438774,-0.008057590388754754
1776714936.8104513,-0.050357318872425616,0.012169241517955454,0.3052201858139759,0.002435407416718438
1776714936.8307562,-0.04982345755000607,0.03704053860059314,0.3053674872864087,0.009023676069906728
1776714936.8505204,-0.04944719282206454,0.01192446949980605,0.30537260638180863,-0.005402766583831209
1776714936.8705773,-0.04943140801094423,-0.010384935544047402,0.30516414739444525,-0.014340414760632303
1776714936.8904724,-0.0493982048606324,0.016054538951154246,0.3050438437650256,0.0036865564664188
1776714936.9104795,-0.04916559049115028,0.007684944558719403,0.3050733710403704,-0.001467651202569975
1776714936.9310355,-0.048984562267200965,0.0071756192476994385,0.3049488293252504,-0.010705530686787257
1776714936.9505184,-0.04885859751052411,0.011664164507103308,0.30477585784689964,-0.008010192572904251
1776714936.9705808,-0.048668490868369746,0.0053606287153719345,0.30465677384288425,-0.0024964859689569074
1776714936.9904866,-0.048436217798589434,0.017189240716011772,0.30471755887445917,0.006515866885497323
1776714937.0104022,-0.04835675861645452,-0.005227275232751405,0.30472677639973256,-0.00598901164506449
1776714937.0306857,-0.048611361322422955,-0.018232020770098417,0.3044775469318278,-0.01750074911962418
1776714937.0508704,-0.048677428632827674,0.00937167017116844,0.30428603440205026,-0.005667816355311217
1776714937.0704486,-0.0482986901738328,0.02452457088819826,0.30425981906296284,0.003508832954165153
1776714937.0908625,-0.04779595517967333,0.020131274322300413,0.3043301723599219,0.00020083430446549144
1776714937.1104531,-0.04776877783688202,-0.012127207159985026,0.3041983776231952,-0.01255759830918346
1776714937.1311636,-0.048215612322742,-0.02613664781907918,0.3038282547908074,-0.019971070865815843
1776714937.150575,-0.04823015214853124,0.021279549242527118,0.3036914790153584,0.0027641337026009793
1776714937.1705956,-0.047473275106618515,0.048209809247362456,0.3039138617277559,0.017889840243102584
1776714937.190871,-0.04680147590784535,0.00899938867997821,0.30411883314070115,-0.0015169267440979795
1776714937.2104962,-0.04694046925168149,-0.018512437722605635,0.3040475979618156,-0.005088880196427836
1776714937.2309277,-0.047436275231234976,-0.02276806088189462,0.3039803565218851,0.0011013584355112904
1776714937.2505834,-0.04746775584886402,0.015439857110497335,0.3041120167324294,0.012821926080378021
1776714937.2704968,-0.04680913142275103,0.04512258748430756,0.3044819881953751,0.021076873528814377
1776714937.2904644,-0.04625507426009676,0.0027971676705000614,0.3047224010239714,0.0015495168269271664
1776714937.3104603,-0.046448873591810574,-0.01900162579000486,0.3046904737109898,-0.003838974860397082
1776714937.3304954,-0.04680086210934534,-0.016742626806854066,0.3046555664171875,0.002415789285992731
1776714937.3505213,-0.04695551087588157,0.001703328988889502,0.3047369253675038,0.004662148411987532
1776714937.3705902,-0.04660357030107196,0.028448411236174476,0.3048702088118394,0.0065140609072421585
1776714937.3904505,-0.046224670237654385,0.0065960518648131294,0.3048319296843194,-0.008919899497943473
1776714937.4104664,-0.046319596103385,-0.015527481138098154,0.3046264132287926,-0.01188694498636278
1776714937.4304557,-0.046606879399337046,-0.009469072910894744,0.3044455997870107,-0.004760148705629574
1776714937.4505749,-0.046753649096982194,-0.007043639213004188,0.304300599218451,-0.01251678057350103
1776714937.4704554,-0.04665729951243253,0.015610547088554999,0.3040060931651138,-0.014843293621188525
1776714937.4905396,-0.046250809970783985,0.023789015344084258,0.303786490352317,-0.0055826693347399425
1776714937.5104527,-0.0459950355857654,-0.0003417644277047549,0.3036950267742137,-0.005064093889228238
1776714937.5304961,-0.04615669468076196,-0.012701987708322454,0.3035384279118072,-0.011208979916286776
1776714937.5505073,-0.04641535979042839,-0.013399955861158774,0.30325571294455556,-0.020986446575295692
1776714937.570496,-0.046423037704541335,0.010221725022597078,0.30285246363603596,-0.01671078162166384
1776714937.5904622,-0.04597416346659366,0.030714768715650875,0.30270000580720435,0.0006070852084787415
1776714937.6104677,-0.04555936547725245,0.006333959202741601,0.3025929864254012,-0.011841303193273034
1776714937.6305158,-0.045747617631506116,-0.019523393242111803,0.30223352036321893,-0.023474061284770475
1776714937.6504753,-0.04609634980275376,-0.0198217631931083,0.30188467524005796,-0.0165445761374714
1776714937.6704612,-0.046257304934671686,0.006025068318293164,0.3016531741602737,-0.0062958052924212415
1776714937.6904688,-0.04587179273208656,0.026474879431928305,0.30162612266015454,0.002369296148496014
1776714937.7104616,-0.04548489266328892,0.006614449799604349,0.30158918964569936,-0.005249502962536234
1776714937.730578,-0.04568625528435996,-0.023484702951924258,0.3013814882651684,-0.014239048792702103
1776714937.7504706,-0.04606432417964065,-0.02142356384845548,0.30119135155575333,-0.008515582949880529
1776714937.7704725,-0.04629500035938014,0.001769388509626657,0.30111388949084594,0.0008226514494299453
1776714937.7904594,-0.046027634267460024,0.0188802326802473,0.3011659902671571,0.0029172227248220883
1776714937.8104608,-0.04574985645883334,0.0070288582414357315,0.3011405703333972,-0.0038666973671532823
1776714937.8304296,-0.045876953343701586,-0.019129792175467286,0.3010777514109537,-0.002690795543029867
1776714937.8505855,-0.04624672570494598,-0.023563174871496367,0.3010906126209627,0.003991720723797831
1776714937.8704572,-0.046554709028707335,-0.004244084206595999,0.30112009958319785,-0.001503839694094511
1776714937.8908575,-0.04640102705382324,0.019016845449521452,0.30101486487399604,-0.008567858911872506
1776714937.9108677,-0.045977916040807726,0.019585880569853553,0.30083885988928605,-0.0075089010245679155
1776714937.9309783,-0.04574227735275602,0.0027180380872352805,0.30071634805942615,-0.006318899909547926
1776714937.9511645,-0.04582558328064275,-0.011434207639806765,0.3005153716443369,-0.016709716774100714
1776714937.9705644,-0.04605133596724298,-0.0074247367407377085,0.3000095078179197,-0.03163952926261848
1776714937.9904604,-0.045867679977187395,0.02305054185219066,0.2993707030619215,-0.02905956284547273
1776714938.0104978,-0.04530921412005847,0.029240854802575544,0.2987730579855439,-0.02931395083102928
1776714938.030526,-0.04477754508035793,0.017029869296644184,0.2980745567929621,-0.039701789835293155
1776714938.0505338,-0.04460709616989962,0.007771760013415202,0.29727655507440026,-0.055671429015268226
1776714938.0705447,-0.04448607259991151,0.00575048443738134,0.2958450820574039,-0.08106647347752338
1776714938.090886,-0.04411046548547897,0.030870325598157444,0.29406194853778245,-0.08993284582827854
1776714938.110983,-0.04334686236010607,0.037455798536760815,0.29215124693244254,-0.09400215009997215
1776714938.1309805,-0.042807984919052494,0.012486611231813577,0.2899435164316588,-0.11862670172220702
1776714938.1504998,-0.042701728198437816,0.0003019752628915795,0.28780736780278526,-0.13840646187276973
1776714938.1705198,-0.04270040749413734,0.002984725871733651,0.2847062749143172,-0.15907673358250685
1776714938.1905134,-0.04256070101435565,0.008802024774497375,0.28124939850231157,-0.1729628271555098
1776714938.2108927,-0.04232568603179927,0.012728551783059955,0.2775520328396114,-0.18197970467080093
1776714938.230463,-0.042136200345586704,0.006157568551521553,0.2734904913258006,-0.20864962544583276
1776714938.2505884,-0.0419382299492192,0.012550963463299133,0.26985231908071006,-0.23085331452617197
1776714938.2705162,-0.04180763206925485,0.0016552053601711914,0.2648154303887378,-0.25171755251544203
1776714938.290468,-0.04203708219672524,-0.022375108070792793,0.25936091392025196,-0.2694230434998718
1776714938.310451,-0.04215255833646517,0.010615552383522256,0.2537436452468397,-0.26990426289319824
1776714938.3304987,-0.04182629393350638,0.029170728075321006,0.24916757868763234,-0.2803625061320728
1776714938.3504646,-0.0413682415703354,0.014075782403747877,0.24293460896352698,-0.31792202589585183
1776714938.370468,-0.04098846484638357,0.02057735962753189,0.23616029340672948,-0.3307280444830172
1776714938.3904507,-0.04082316204404188,0.0009998100203240656,0.22926891096932694,-0.32644800868758084
1776714938.4104524,-0.04069074380014623,0.00951258599229364,0.22252022501846375,-0.32112588640119855
1776714938.4304483,-0.04008472176873955,0.04811171326985432,0.21586156971594855,-0.3202098227202025
1776714938.4506063,-0.039434387161847904,0.031988303654196,0.21035722460275502,-0.33786516479606954
1776714938.470585,-0.03900389004690267,0.006730309726689754,0.2032695371795082,-0.344128507053828
1776714938.490459,-0.03899662137271988,-0.0023569523216371707,0.19621653435820902,-0.33128243875096
1776714938.5107782,-0.03898428937794637,0.003979044503571241,0.18932915909364006,-0.33051346818076366
1776714938.5309615,-0.03855659864923999,0.03262250995320745,0.18248651629629353,-0.3258249229927813
1776714938.5505705,-0.03817484637623212,0.01766249898512473,0.1770458790521644,-0.32442599246379034
1776714938.5704956,-0.037998855842944414,-0.0021972165558933887,0.1704440650406957,-0.3102473018956934
1776714938.5905056,-0.0379129341640546,0.012395313405085318,0.1641629684942732,-0.2932765817169404
1776714938.6104546,-0.03783896390942762,-0.0011310507144879217,0.15791180915564046,-0.30740119783568515
1776714938.6304882,-0.03764014057600282,0.017227739023503483,0.15157481489408536,-0.3006638676111903
1776714938.6504793,-0.037372940463616056,0.021925118367431815,0.14672329779798476,-0.2795310416798875
1776714938.6704605,-0.03706340898716515,0.0036582464105604923,0.14107002168116733,-0.26505123242626416
1776714938.6905737,-0.036828206438292245,0.01950683630358134,0.13559168471150806,-0.26153836334764274
1776714938.7104602,-0.036627730878802445,0.00217162886663419,0.13002866103209307,-0.26943169923391946
1776714938.7309313,-0.03655332844285832,0.0025350436477748484,0.12458891344050255,-0.25091994585548655
1776714938.7505066,-0.036372143360751716,0.02292155163891116,0.12064222453712621,-0.2222760297209888
1776714938.770561,-0.036030805350375686,0.009811389596535533,0.1160608032189173,-0.21865320868208005
1776714938.790553,-0.03570508349318645,0.01742342253602172,0.11148585602175609,-0.22241499089579758
1776714938.8104613,-0.03544476370668225,0.01096056839008551,0.10689052090624465,-0.21538138383533245
1776714938.8304474,-0.03544096493515923,-0.009477374169008651,0.1025546439876047,-0.19945409690977006
1776714938.8510787,-0.03519014645127455,0.03317015133184392,0.09878808248021011,-0.16548995194621652
1776714938.8705554,-0.03475183839949088,0.027878801682697588,0.09593876510907012,-0.1731048684321606
1776714938.8905451,-0.03450373810060224,-0.00801265545638466,0.09208435314020043,-0.1977428412857748
1776714938.9104939,-0.034653059834598696,-0.0030586791779934758,0.08811381468829053,-0.18041161091548735
1776714938.9304585,-0.034939530980381654,-0.0196872043130554,0.08453029865756563,-0.16232334555462702
1776714938.95046,-0.035073381228601215,-0.003410847613468229,0.08195210115490961,-0.150662929691309
1776714938.9704654,-0.03483863657412041,0.02449445375172407,0.07882018037266136,-0.1494035592990054
1776714938.9904852,-0.03467327416675868,-0.012924172730613998,0.07558327176523141,-0.16066134548642155
1776714939.010456,-0.03501535895378911,-0.02146896893380605,0.07244440432737853,-0.13889570874080837
1776714939.0304482,-0.03560451192463178,-0.026152383542533283,0.06972373106413302,-0.12346595919740164
1776714939.050525,-0.03594014337554351,-0.018606720699674006,0.06764087919752097,-0.12818449128122755
1776714939.0705526,-0.035946923352985403,0.015455297880101304,0.06497712039437041,-0.1288900086457295
1776714939.0904467,-0.0359610849915958,-0.01784354372479867,0.062268423983566,-0.12728182517904574
1776714939.110451,-0.03644899167990147,-0.02948925969878917,0.05988577803115923,-0.10277760822516283
1776714939.1307175,-0.0366590193332377,0.012268197120518215,0.057949083707846565,-0.08362234593613613
1776714939.1505868,-0.03645154666692543,0.013981913039206748,0.05645692116758272,-0.09597215201155565
1776714939.1709692,-0.03601116494206109,0.022563856192996792,0.05454550651610303,-0.08608668696903815
1776714939.190789,-0.035664497957659066,0.01615058321159804,0.053074492551780234,-0.05318852752181319
1776714939.2104592,-0.03540348423496543,0.008125260658723849,0.052083479932159206,-0.04422246591809073
1776714939.2306302,-0.034989969853489004,0.03880608798469601,0.051391929955848986,-0.041286934717547685
1776714939.250527,-0.034316172349549104,0.025730880945118093,0.0504839499045963,-0.04340974848217388
1776714939.2704852,-0.033924553396552155,0.009493496502145982,0.049667617623669655,-0.03536709422988352
1776714939.2904785,-0.03338478943460971,0.04360637551010395,0.04910593418936593,-0.02115968930591744
1776714939.3105545,-0.0327096335461999,0.021551712913225995,0.04843731350538908,-0.04465855533307092
1776714939.3304918,-0.032327280340211706,0.012255568282001653,0.047387177793318434,-0.05636664377339973
1776714939.3505797,-0.032131577194031806,0.011453109577517509,0.046219554183013226,-0.050947099386633415
1776714939.3704576,-0.031941033105890415,0.008507110664707815,0.0454117520222007,-0.04700511772296462
1776714939.390459,-0.031230304796289153,0.05507782395147241,0.04457905407422855,-0.034427045243468624
1776714939.4104004,-0.03016923232541835,0.045442720976229145,0.043684238933516174,-0.051893052044454005
1776714939.4306414,-0.029770120287596267,-0.0031529154185112457,0.042677811424366566,-0.07011264375524731
1776714939.4504504,-0.029916540942501672,-0.005034710261650602,0.04127237167314027,-0.06226184696448252
1776714939.4705536,-0.029820312605235783,0.01814809352477889,0.040093246995745936,-0.05038321727696422
1776714939.490549,-0.02904362521528226,0.05031207623565431,0.0391743643108488,-0.04047677616078928
1776714939.5105577,-0.027958941830783957,0.04826464141610197,0.03832119354962905,-0.040920792928024516
1776714939.5305142,-0.02755060956607347,-0.006518991665002957,0.037347961207541004,-0.051618278316184915
1776714939.550552,-0.027611826308887828,-0.0029867597803764495,0.03661494106711775,-0.036907205185944605
1776714939.5704558,-0.027273582864951296,0.039635087673433655,0.03605203106060969,-0.018020944380243945
1776714939.5904586,-0.02631212944242587,0.04749052586248162,0.035645574903720154,-0.022344489680817342
1776714939.6104574,-0.02534175543358623,0.042881596529024624,0.035210085199150865,-0.020227994186784476
1776714939.630456,-0.024825715960126622,0.007907239450353196,0.034699510762491934,-0.02760244841393214
1776714939.6505249,-0.024802135233429785,-0.0038307411967226646,0.034157485842436996,-0.02398299174604461
1776714939.670468,-0.024635529647117915,0.024147771118115252,0.03392607978063136,-0.0030616516281503914
1776714939.690454,-0.023863926877418756,0.04910147557801264,0.033901926220503614,0.0009825588495932375
1776714939.7104747,-0.022934548087482385,0.03717535104051356,0.033862756661065946,-0.006730814786708131
1776714939.7305076,-0.022535619289750168,0.00021723132110820775,0.033712555556416904,-0.006140356308060313
1776714939.7505498,-0.022651874214991416,-0.01475038427178993,0.03362867207534863,-0.004240690752263979
1776714939.7704842,-0.022659889771351874,0.014626642759725646,0.033612047874574315,0.0030917882459684243
1776714939.7905538,-0.022191523835866752,0.02926734583139394,0.033719054040295585,0.007174278138021711
1776714939.8104851,-0.021733381916568522,0.012283285270156,0.03388352695249333,0.008904935717933243
1776714939.8307388,-0.021490472264451832,0.010020099819914398,0.03410444332861448,0.01134918130075746
1776714939.8512332,-0.021402715334801946,0.003996008368097929,0.03419917754022865,0.0023917427452936763
1776714939.8705199,-0.021467186393349057,-0.009453103218147192,0.03417733093120632,-0.00610505633928736
1776714939.8905053,-0.0213592981674524,0.01772883799771812,0.034121821092798474,0.0023303642055957086
1776714939.9107263,-0.02075906537958297,0.03902254942218285,0.034274669476733535,0.011822445442858445
1776714939.9311159,-0.020149407822849498,0.01487582364811451,0.034520442288788374,0.011720881877414532
1776714939.95051,-0.020158806003020974,-0.014263066882592657,0.034618301845229786,0.0012408789314668628
1776714939.9705472,-0.02067561992700366,-0.03010058949670659,0.034570502500253855,-0.005747807887394235
1776714939.9904864,-0.020983371489883565,0.0032583154572753056,0.03455834407424738,0.004796369557510866
1776714940.0104513,-0.020547536122021468,0.03626598771794019,0.03477960821804326,0.016133587318527404
1776714940.030778,-0.0199865274706365,0.013387926533467653,0.03513506038022765,0.016709303430058747
1776714940.0506186,-0.02005892619313062,-0.022045945942286517,0.03533253797440081,0.008282031117595859
1776714940.0705698,-0.020724347538787907,-0.03678074074855833,0.03540636898665442,-0.0007745753169477454
1776714940.0905576,-0.021155240139717167,-0.002261423989172305,0.03545241865733096,0.007028585538107299
1776714940.1104465,-0.020777336217640656,0.03664177074691872,0.03574341000842404,0.020368921940580487
1776714940.130497,-0.020098361526653716,0.024601480989306555,0.036150167692327775,0.01763447850969453
1776714940.150556,-0.020035098024381897,-0.015567587180105237,0.03634873846063384,0.005608154366398457
1776714940.170552,-0.02062210258784611,-0.03647173213859558,0.036448484025411225,0.004986470034259588
1776714940.190503,-0.021000012436367718,0.002958174350457393,0.036713715786630616,0.02114739019028214
1776714940.2108512,-0.02060605397201412,0.032733618672459726,0.03723150111214424,0.02788952444813221
1776714940.2307632,-0.020000783123598237,0.020636273623262938,0.037814079385398075,0.024986749706244385
1776714940.2505276,-0.019852354224549132,-0.0032405880075814866,0.03819586378891466,0.02006520913201522
1776714940.2704847,-0.02011916808455226,-0.018184355801665324,0.038521134990444114,0.013535287550385411
1776714940.2904863,-0.020313284929063233,0.0024859448271297505,0.0389386227895713,0.02682598012626923
1776714940.3107836,-0.0200259682193612,0.024469002051399028,0.03961654988447713,0.0370269289534049
1776714940.3308184,-0.01956018718753126,0.027596694949555536,0.04014951204032557,0.02625038294611798
1776714940.351011,-0.019149039174456296,0.009831664258828143,0.04064064165424107,0.021222706686786677
1776714940.3704946,-0.019274574516451287,-0.020356806540980994,0.04107522471120505,0.0235314756309751
1776714940.3907242,-0.019660410962582746,-0.015121286472634159,0.0415945882692791,0.02477892199875087
1776714940.410752,-0.019726230202187885,0.009597609816069635,0.04214228641777273,0.026499090967154026
1776714940.4305842,-0.019600369209729476,0.009133587745003682,0.04253727888367123,0.021472562259575834
1776714940.4504619,-0.0193786453541241,0.008465157032442508,0.04296211920852705,0.01974561130857863
1776714940.4704475,-0.019309443365262115,-0.0010726303904939616,0.043371014894216735,0.019768219100073772
1776714940.4904578,-0.019518263339952276,-0.017367805863509826,0.04368785545858628,0.01250030369510223
1776714940.510467,-0.01970232103087885,0.0002643152289154224,0.044032383455404514,0.020112644259511592
1776714940.5305953,-0.01964036156395217,0.011604573037573736,0.04440356770449622,0.025771675601983512
1776714940.5504918,-0.01930002438691472,0.016087244298341248,0.04493107049469059,0.023076377879656246
1776714940.5705605,-0.018908494756658456,0.019027100466833667,0.045421815715860334,0.023336776810071402
1776714940.5904539,-0.01892220725307944,-0.018033710079272097,0.045764803687955304,0.010895750748934036
1776714940.6104577,-0.01932853784828251,-0.01844597475664065,0.04596251197220405,0.008503939803178429
1776714940.6304393,-0.019403296399671137,0.013157533922283006,0.04618575104155878,0.018962226286979328
1776714940.6504729,-0.018945999725078336,0.0261710745581031,0.046638192022535156,0.02453311826602722
1776714940.6704633,-0.01847526163690172,0.015341540773472225,0.047209805747789824,0.028073575055239247
1776714940.6905015,-0.018536474389509852,-0.018382964928051325,0.04764028178766073,0.015692894335373547
1776714940.71046,-0.019127478266092547,-0.03212102191706151,0.04788568377545477,0.007796251550962308
1776714940.7304637,-0.019257369688061188,0.017197339847877025,0.04827905490010126,0.03043082355049817
1776714940.7508633,-0.018913310898878696,0.02905336499945573,0.04880724930014792,0.03414002640188038
1776714940.7705603,-0.018418775430874126,0.009520323298569687,0.04946519248481283,0.027171423599862105
1776714940.7905533,-0.01844370850209861,-0.009896592421091074,0.050026905097682116,0.02660198401818878
1776714940.8104622,-0.019016172822106422,-0.040649084727292624,0.050489515892519585,0.019908800839722518
1776714940.830486,-0.019390227994589643,0.004937966674751992,0.05111073537449361,0.03759045199708372
1776714940.8505552,-0.019141430666703825,0.032363791478484394,0.0517408813716261,0.0425919913745858
1776714940.8705504,-0.018732597211981634,0.0024841981272977626,0.052474189005380145,0.025646501863208687
1776714940.890474,-0.018754177955923018,-0.0070516940473870846,0.05307229470570527,0.03127671908948193
1776714940.9104736,-0.019185240562021207,-0.027687281353387216,0.05362935801255836,0.024142476492832743
1776714940.930966,-0.01958893989152225,-0.024682188268612633,0.05399773259274082,0.01749942307193289
1776714940.9506524,-0.019593798796100584,0.02323403554254292,0.05449756391557643,0.030017771673258586
1776714940.970464,-0.01927408073343078,0.006080563062284702,0.055027822661554544,0.020982246023702272
1776714940.990471,-0.0192505146735572,-0.009422059127820341,0.05545994983176258,0.01864964519068263
1776714941.0105457,-0.01954304837380392,-0.013293821829736957,0.05583303392619121,0.018944804891456446
1776714941.0306156,-0.01999127541746578,-0.030289107289986357,0.056080391384475355,0.004517524167022474
1776714941.0505617,-0.020205809627389153,0.001842713260062287,0.05625933759848861,0.013517331886561706
1776714941.0704534,-0.020047830651477964,0.01511004226047099,0.05658207108009823,0.018181510989441735
1776714941.090467,-0.019973501778155277,-0.008354938701830093,0.056818988520294156,0.002880615208205789
1776714941.1105614,-0.020015342931781283,0.0032424558556686175,0.05685385001617603,0.0008883282988930707
1776714941.130458,-0.02037104884705577,-0.03122761854150484,0.05672331219672786,-0.011926048939303352
1776714941.1505916,-0.020791659540162804,-0.02973789086246218,0.05655135076259594,-0.010179956218305114
1776714941.1704888,-0.020879185797977123,0.024305581885427405,0.05649030935452807,0.002695659004658124
1776714941.1904604,-0.020455612612248538,0.011212809861070386,0.05629011992787014,-0.02280680375553515
1776714941.2108448,-0.02044340189645056,-0.0135901069437225,0.05560253316063368,-0.04604169631622704
1776714941.2304711,-0.021129145142952478,-0.0454686766811451,0.05441275552639907,-0.06708862164427862
1776714941.250586,-0.02182686449851516,-0.04186995955934931,0.05310800738790874,-0.0919763127532659
1776714941.2705357,-0.022039697069314815,0.020090310532657286,0.051012318745893945,-0.10975153636556242
1776714941.2904809,-0.02174864770396258,0.004814032518165617,0.048364292066253645,-0.1458522238169771
1776714941.310457,-0.022159879537963063,-0.046505854655982864,0.044885765972797975,-0.1885447353177197
1776714941.3304777,-0.022906674418350946,-0.0405337418172304,0.04159044403732033,-0.20701272320066846
1776714941.3504663,-0.023629557233999343,-0.02213936412964433,0.03696585450512296,-0.23548982083810732
1776714941.3704815,-0.023649758448459776,0.014981625385666136,0.031761602770068155,-0.26503584199374464
1776714941.3905509,-0.023207264032005036,0.024752247433585145,0.026025751913222518,-0.2860158090515048
1776714941.410453,-0.02323565267761666,-0.02682523550322871,0.019729528520460983,-0.3177075100171077
1776714941.4304879,-0.023776515881518162,-0.02422189663077072,0.01292298990503258,-0.33534846432107523
1776714941.4505746,-0.024162474051852685,-0.014338921079677575,0.007166512153898994,-0.3512371034125565
1776714941.4705577,-0.02426033020504044,-0.0007061624813140405,-0.0002764098163359239,-0.3653944177277684
1776714941.4904675,-0.023999321775873557,0.02637758549755083,-0.007892877119021143,-0.3652249283918127
1776714941.510565,-0.023714785544061374,0.002859180416396115,-0.015677634994308715,-0.38221378485092056
1776714941.5304606,-0.023647203744899745,0.0064564626275920856,-0.023705189510663943,-0.3875373929872006
1776714941.5504673,-0.023382717567324213,0.02559398252548442,-0.030210084883496465,-0.39101726043121593
1776714941.5704756,-0.023059630711153033,0.006436147291086242,-0.038502561957247244,-0.4041327760495927
1776714941.590554,-0.02295868707538958,4.164353952582078e-05,-0.04687845557864548,-0.39728283565646494
1776714941.610457,-0.022920580936945135,0.006510343230637025,-0.055035099899378576,-0.38607470342184025
1776714941.6304784,-0.02291443332774823,-0.006754844215979036,-0.061534045966325265,-0.3938080968431683
1776714941.6505802,-0.023044115531746064,-0.0063593291949417124,-0.06975325986017977,-0.3956609242255814
1776714941.6705058,-0.023267358811045677,-0.011851368177602115,-0.07792434303378974,-0.3870041468581601
1776714941.6904976,-0.02340850086810912,-0.0021985231981740544,-0.08599848288745934,-0.38812519896821807
1776714941.7104914,-0.02332474792279672,0.014647184889560225,-0.09245568683429138,-0.3877699498331122
1776714941.730542,-0.02313397915173502,0.002889269518553575,-0.10053627614422905,-0.3868796140839589
1776714941.7505155,-0.0232596813354619,-0.01568933009851138,-0.10856471671579188,-0.38383050095921595
1776714941.770585,-0.02380936149721283,-0.03226737051902864,-0.11646447444587138,-0.37550775797077746
1776714941.7905014,-0.024398289793649518,-0.021302342369669575,-0.12420942876635808,-0.36661724508936816
1776714941.810757,-0.02426651545370681,0.031742035181766215,-0.1315598502159167,-0.34088376921026997
1776714941.8307478,-0.02354687334082135,0.032812738248907736,-0.13858667444481165,-0.33267821954621407
1776714941.8505232,-0.023303673956630543,-0.0034028018650707204,-0.14425507030445472,-0.3494468427707912
1776714941.8704824,-0.023627234242172973,-0.022610283546369084,-0.15176037399692133,-0.3681550951301106
1776714941.8910043,-0.02377496546142395,0.011210119010140324,-0.15936921895038,-0.3593800340753597
1776714941.9108992,-0.023154170496580664,0.044350805164053805,-0.1665756801813319,-0.33224913969700515
1776714941.9304514,-0.022402948288596278,0.027564089641079453,-0.17348500147218004,-0.3335429257304863
1776714941.9505367,-0.02204218158130157,0.010184888750580948,-0.17909225014810037,-0.3411297446601379
1776714941.9705102,-0.02197562677588038,-0.0016576159921060096,-0.186122697761683,-0.331663850416318
1776714941.9905152,-0.021921986733683042,0.007522781753001508,-0.19290428277637311,-0.3174148536463215
1776714942.0104518,-0.02138360410128498,0.0440631446042156,-0.1993709613583764,-0.30370029162604795
1776714942.0306911,-0.020455962429669853,0.040666625773235966,-0.2056414532654692,-0.29946779544923996
1776714942.0505345,-0.019982573428467404,0.01226500666024407,-0.2106275195627795,-0.30121716289983114
1776714942.0705,-0.02009507722773575,-0.021296067204724392,-0.21685447269559394,-0.2960222626860567
1776714942.0905173,-0.020734484722680357,-0.034991034227784545,-0.22295021859796874,-0.28689636146553166
1776714942.110477,-0.020979943360387367,0.010150685374668088,-0.22866864349817395,-0.2625879800414327
1776714942.130562,-0.020542732928740873,0.04257655848136757,-0.2329159484142091,-0.2469208843995463
1776714942.150515,-0.019997706275071248,0.005567313008205378,-0.23808280222987585,-0.24863412346766744
1776714942.1705031,-0.02030289798167681,-0.03504150086576624,-0.24320834077094433,-0.2426644066359006
1776714942.1905916,-0.02103924922401599,-0.028407862168046166,-0.24818456074565914,-0.235691249804184
1776714942.2104669,-0.021118318421136817,0.020269622433322428,-0.25292170439180955,-0.219710205062158
1776714942.230473,-0.020330269596359724,0.05110345249747728,-0.25710119091433764,-0.1812318678886864
1776714942.2504463,-0.019914294373121234,0.0036065572697326423,-0.2601101217654626,-0.1751171887804992
1776714942.270667,-0.02018014352565485,-0.030325897783132424,-0.263793742979472,-0.17873441711206817
1776714942.2906013,-0.020454353960029058,0.009855762613529453,-0.2673355180291938,-0.16016535644400332
1776714942.3108428,-0.019833565752107988,0.04795553793556998,-0.2705673152932819,-0.15068161948601855
1776714942.3309348,-0.01853897077864393,0.07221664627281599,-0.273595384314405,-0.14222575881551847
1776714942.3509903,-0.017414700740402744,0.035199059638265334,-0.2766538224224738,-0.15150945933135607
1776714942.3706112,-0.017026711968617388,0.00814299798736054,-0.2792805551616081,-0.16456061047755688
1776714942.3904424,-0.016478254298608722,0.04270509966933565,-0.28264717188502253,-0.1570973310206124
1776714942.410946,-0.0155860423226007,0.04557541390331157,-0.28580096520145115,-0.1439923708800941
1776714942.430778,-0.01457701605324427,0.04553567118745349,-0.2886329675011041,-0.13107359256676276
1776714942.4508562,-0.013762797795964728,0.05703073389542984,-0.29076860143453537,-0.1250848232289581
1776714942.4705606,-0.012947781553955387,0.022361428192186776,-0.2935606498671155,-0.1418595777064675
1776714942.4909217,-0.012422932977625398,0.027465870877211078,-0.29651633754956896,-0.14069290330363904
1776714942.5106652,-0.011625059235938304,0.05045048792031781,-0.2992472849801092,-0.1206226042046018
1776714942.5304995,-0.010857712086477768,0.022484359715417804,-0.30183053170603347,-0.1285049399563577
1776714942.5509484,-0.01031303814096743,0.025524073874753087,-0.30459251164669143,-0.13749026256913666
1776714942.5705833,-0.01000257515702213,0.02130490645969759,-0.30689857214573824,-0.1362739123098935
1776714942.5905235,-0.009645283293097022,0.008189982326101373,-0.30953565920611037,-0.11718807847372925
1776714942.6107976,-0.009447020191336176,0.012989232603961568,-0.3117131940812775,-0.09235746853365234
1776714942.6307294,-0.00940003903659091,-0.006971128878108281,-0.3136304955032799,-0.09339091829218227
1776714942.650536,-0.009336189552832759,0.00902931129742782,-0.31512467807194317,-0.08765369925833821
1776714942.670475,-0.008855076125301873,0.036291564111929034,-0.31673222408381907,-0.0668754191515818
1776714942.6904905,-0.008515209940352854,-0.00741218386902151,-0.3181526316872316,-0.06972832083830971
1776714942.71046,-0.008860885517610145,-0.026551711352903375,-0.31961185892488253,-0.07102779394925518
1776714942.7304592,-0.009398825543343411,-0.018347075086071016,-0.3210463550346472,-0.0653395227407384
1776714942.7506783,-0.009673609568142703,-0.01435148277330998,-0.32210158074055106,-0.061103035066163214
1776714942.7704747,-0.009616472123333344,0.014890297698111996,-0.323095971621414,-0.03746308342134852
1776714942.7904644,-0.00960644354226818,-0.012727150526546521,-0.32385857682927943,-0.03594527388306412
1776714942.8104665,-0.010144261602488968,-0.04062708259449935,-0.32482017761136794,-0.05475687762040171
1776714942.830461,-0.010701621111203076,-0.0034264355417159345,-0.32566244099468394,-0.022703380002881968
1776714942.850837,-0.01055756958180151,0.020683588915519333,-0.3257346522360454,0.015164541393836828
1776714942.8705535,-0.009787523637303917,0.04871338295116315,-0.32525697393543207,0.026344103356030324
1776714942.8905568,-0.00888429392371445,0.03324566966794259,-0.3249029996165659,0.005667378066449014
1776714942.9104502,-0.008732823213929274,-0.017356438012191576,-0.3249328297262649,-0.004786256398622291
1776714942.9305038,-0.008897787535759767,-0.003983784713394726,-0.3248282991405749,0.016955473455279035
1776714942.9505532,-0.008534403278592624,0.04018252017811054,-0.3242294448479557,0.03898777841465273
1776714942.9705014,-0.0077610050955631196,0.032453878532123476,-0.32367676921146826,0.01288202185187437
1776714942.9905531,-0.007288647070420678,0.00867290126597647,-0.32353427695771136,0.000630023956488035
1776714943.010469,-0.007629585737900492,-0.035193477649283274,-0.3235042598976231,0.0059106810009695865
1776714943.0305645,-0.00809447612533478,-0.028147264103418702,-0.32332159665269355,0.013072760687396157
