Abanesjo/go2_pendulum_ros2/src/go2_pendulum/go2_bridge/data/center_joint1.csv
timestamp,pendulum_joint1_pos,pendulum_joint1_vel,pendulum_joint2_pos,pendulum_joint2_vel
1776715174.5216932,0.0,0.0,0.0,0.0
1776715174.5263715,-0.025864424233020024,0.00025525905736087373,-0.36098102379856123,0.0003278613219834803
1776715174.5463684,-0.025876993471115585,-0.0011636181844105892,-0.36099556492731966,-0.00010185388881045476
1776715174.5663748,-0.025867755783272897,0.0006533024965443834,-0.36093659518352206,0.005585717789220901
1776715174.586372,-0.025876678571514003,-0.0005007193380796304,-0.3607632090480115,0.010594681090148494
1776715174.606283,-0.025897622137316598,-0.0023614421350631604,-0.3606134873763863,0.002583524609333976
1776715174.62651,-0.02593259395316984,0.0010556075488800665,-0.3606707312891305,-0.00890467457803168
1776715174.6466987,-0.025900965598683472,0.0025890562481232227,-0.36085809531010005,-0.01302298724149309
1776715174.666375,-0.025807601397224433,0.005160825512256953,-0.36106488261966285,-0.005626298073349245
1776715174.686288,-0.02576068594615493,-0.0003737995657772525,-0.3609683881740419,0.014739752617519475
1776715174.7062874,-0.025812694687398968,-0.004245045694662455,-0.3606489790680117,0.012938882364229354
1776715174.7264428,-0.0258776785029137,-0.0008979700144316483,-0.36062117445538344,-0.010423934508421162
1776715174.746391,-0.025867538270235156,0.0014787874470282014,-0.36084623265733884,-0.01641843915113883
1776715174.766389,-0.025800961148820148,0.004172941096424354,-0.36103776598861337,0.0003594838782106091
1776715174.786341,-0.025782742394597796,-0.0016393597289284106,-0.3608851672689639,0.014152592880443127
1776715174.8063262,-0.02583541167079155,-0.00360482869298194,-0.3606017473613422,0.011171527110953594
1776715174.8265765,-0.025875068148373252,0.0013890889082975033,-0.3605619529775428,-0.007448546907308451
1776715174.8464205,-0.025833112002632396,0.0021655531911083242,-0.36074566105525174,-0.015338445016907398
1776715174.866337,-0.025834768695903322,-0.0013600015055720283,-0.3609073210470758,0.0005064809162844686
1776715174.8863366,-0.0258782816546564,-0.004151186692833764,-0.36072725287558527,0.016309977762819283
1776715174.9062414,-0.026018292418364813,-0.00694691766408706,-0.36043129389048684,0.009464983383249859
1776715174.9268677,-0.026074782806711695,0.0009391955532845192,-0.3604641585476701,-0.011111743990591672
1776715174.9463882,-0.026009303644845584,0.007065928115935399,-0.36067271459019307,-0.015162276455444879
1776715174.9663832,-0.02594246719698497,-0.0022097981486382395,-0.360824280358639,0.0015374667036294198
1776715174.9863641,-0.025979494964251094,-0.00261115128365301,-0.3607147210205802,0.008770245745290062
1776715175.006287,-0.02601391257837436,0.0016301080345143826,-0.3605981533142017,0.0009750162992547828
1776715175.0263786,-0.02595863313569602,0.0031561320272558285,-0.36062240620752783,-0.003412271111956855
1776715175.0463905,-0.02587740223923175,0.005231684514992299,-0.3607472665771005,-0.006342281268034933
1776715175.066377,-0.025824935787047136,-0.0019487657593004748,-0.36078608084777136,0.0021161677786829536
1776715175.0863788,-0.02595077543379242,-0.007804378218301489,-0.3606758945903447,0.006700408089680199
1776715175.1065304,-0.026004611892627906,0.0011196600395290274,-0.3606300052603576,-0.0035206044318634167
1776715175.1263373,-0.02598079400002122,0.0022071789694813188,-0.36070468595019634,-0.002207332580082655
1776715175.1463757,-0.02591470788729386,0.0017966056042198891,-0.36073147590808574,0.0013206001685417412
1776715175.166368,-0.02585933761609434,0.0039967961745487335,-0.3607228333066667,0.0004989204860506025
1776715175.1863756,-0.025877575073906596,-0.006422516168019407,-0.36073924178897093,-0.002142737971678077
1776715175.2064147,-0.025954295976984055,-0.002288108848324963,-0.3608402387936569,-0.006383490273898396
1776715175.2264676,-0.02596347428859143,0.0019975592234067197,-0.360870931710384,0.0023834343661559565
1776715175.2469072,-0.025949290180784637,-0.0005421653867242471,-0.36073887079104394,0.008251583916230931
1776715175.266386,-0.02594881850590494,0.0020880387061992384,-0.36067933393284646,-0.0008293481780481393
1776715175.2863839,-0.02595601296085298,-0.0008251617674469719,-0.3607966139294674,-0.00942781993009656
1776715175.3062851,-0.025962913399806845,-0.001487402450690109,-0.36092879689384677,-0.0016685498343360639
1776715175.3263907,-0.025972884007191582,0.001005498886020459,-0.36087011914043976,0.0064013371305269295
1776715175.3463802,-0.025943703950187514,0.0014700312222247769,-0.3607780273948188,0.003918839425844256
1776715175.3663793,-0.02589869636642824,0.002514977960058548,-0.36077206773085385,-0.00320122666923206
1776715175.386364,-0.025912743264418732,-0.00472000099501492,-0.3608192006648546,-0.0017100173285695686
1776715175.4067025,-0.026006948440205777,-0.004380945888087573,-0.3608171669228113,0.002418135556554901
1776715175.4262836,-0.026007742009888712,0.004065809741166604,-0.36076622485718957,0.0018129391754557744
1776715175.4467146,-0.02595457749010987,0.0012178621516481525,-0.36062994779288904,0.009805477121394013
1776715175.4663653,-0.025907523983487602,0.004153666672382983,-0.36045624546228827,0.014211597638680518
1776715175.4863794,-0.02556840677362326,0.029824835976211425,-0.35963046531572107,0.07550640162426348
1776715175.5063677,-0.024884798190323902,0.040658276275574334,-0.3599736332395528,-0.04568405175376222
1776715175.5269468,-0.02379143520277102,0.05837067765460635,-0.3602565776371206,-0.02031744522157397
1776715175.5463681,-0.022849291635656382,0.0576429572250782,-0.35988481953903656,0.08603472482610086
1776715175.566366,-0.02145176515728199,0.06555085870004498,-0.3582087549875405,0.04482437528579464
1776715175.5863848,-0.02011441409507534,0.07170184001986754,-0.35797511845214935,0.0005588392644073625
1776715175.6063666,-0.018849590177702345,0.027946364856770385,-0.35798616261209004,0.00805774977287288
1776715175.6263404,-0.018365327743136053,0.021051130181074226,-0.3579825739607173,-0.01002304288602529
1776715175.6463807,-0.018163867832844315,0.0049708016752078865,-0.3582019131935869,-0.016641157735763024
1776715175.6663802,-0.01816114364967949,-0.007153941671192883,-0.3585271411850849,-0.014718660204891876
1776715175.6863914,-0.01839302401266779,-0.013247442554689175,-0.35898104655505975,-0.027962829316043658
1776715175.7065697,-0.018868326890079216,-0.033721595710189574,-0.3596750290311821,-0.03761700098817222
1776715175.7267406,-0.019822167063738454,-0.05599973235134532,-0.36036240905476624,-0.027996838647118993
1776715175.7466278,-0.021046292009198712,-0.06149488441881814,-0.3609680626141645,-0.029923561001657495
1776715175.7663708,-0.022117396801305884,-0.06344521227492411,-0.3615151825190154,-0.03621922117780163
1776715175.786382,-0.023546956682642055,-0.07487369488917925,-0.3621898289901765,-0.02699098326575844
1776715175.8063836,-0.02520736519060177,-0.08319237594901577,-0.36263217657062385,-0.015255867974875326
1776715175.8271196,-0.026935924631248002,-0.08232675893845011,-0.3628806815766983,-0.011554073428226674
1776715175.846346,-0.028211773058079714,-0.07228525903848353,-0.3631638301868234,-0.02023539677832864
1776715175.866348,-0.029697111659384257,-0.07095283757535384,-0.36367816711680667,-0.02397861907352561
1776715175.8863187,-0.031239033940680422,-0.07775327108604736,-0.3636504187995816,0.024158594549872126
1776715175.90632,-0.03272832277386002,-0.06378190757611085,-0.3631035382767108,0.028792025357940787
1776715175.9262903,-0.034020074888702775,-0.059101392784724247,-0.3625937108616618,0.017066022855987795
1776715175.9463162,-0.03503743063110905,-0.06236690979632675,-0.3621735737337896,0.03689815403253016
1776715175.9662929,-0.03605292038668172,-0.03501323508375563,-0.36145911560960287,0.03242187897672433
1776715175.9863126,-0.03646688317826893,-0.004911302069865842,-0.3606899979592556,0.034101673819239675
1776715176.006286,-0.03657746656885957,-0.007939537390045603,-0.3600092007064323,0.032605634966194286
1776715176.0263007,-0.03664479862495183,-0.0018039490409256231,-0.3596022622401635,0.013686761924781132
1776715176.0463245,-0.03648739962230875,0.019069588891751726,-0.3593508667559018,0.01249933984727547
1776715176.0662863,-0.03593800440846647,0.032588062496550385,-0.35902829223725896,0.017262119535479847
1776715176.0862894,-0.03520233693434274,0.039237267396905376,-0.35863202997988664,0.018832487705822132
1776715176.1063125,-0.034296794348433926,0.04791236472573497,-0.35835524551306885,0.006196674270509739
1776715176.1262884,-0.03328088304401294,0.05052797590246938,-0.3584363711137526,-0.013073412921288163
1776715176.1462886,-0.03241825167782186,0.05175273691321047,-0.3586785144833345,-0.016191647893038397
1776715176.1662893,-0.03121809629560983,0.062134969820110075,-0.3590597655293686,-0.019462055121209243
1776715176.186282,-0.029845593277036144,0.0612206337201536,-0.35947174644579183,-0.024619965298625646
1776715176.206234,-0.02931285513802334,-0.004971477000079244,-0.3601464904055278,-0.03639220246946806
1776715176.226295,-0.029752694374006843,-0.029357504659590028,-0.36090191547017747,-0.03651891782838623
1776715176.2464907,-0.029578534158316013,0.049602324911277834,-0.3614265872212626,-0.021169501392917622
1776715176.2663107,-0.027722620894276125,0.12082096402540712,-0.36167057386885704,-0.008515921412829197
1776715176.286282,-0.025681010976411518,0.06752995393915567,-0.362025785197999,-0.027245071195925785
1776715176.3063145,-0.024582460685162878,0.04115159954666969,-0.36294545548313767,-0.062005594149093124
1776715176.3262231,-0.023561096984760433,0.08176466557181826,-0.36401878350963696,-0.0676366999451603
1776715176.3463016,-0.021538719949425113,0.10902157737298164,-0.3655898504152715,-0.08279274390441782
1776715176.3662796,-0.01955345554389268,0.07764371622986985,-0.3676036328079703,-0.11115260715261699
1776715176.38631,-0.01826245639068417,0.045967523927410936,-0.37001490053415415,-0.11678212413993605
1776715176.406314,-0.01762718356677309,0.015423188907460625,-0.3724365771780654,-0.1093574387714924
1776715176.4264321,-0.01766149588786011,-0.022533253129469737,-0.37416117417248773,-0.05775261999234904
1776715176.4463072,-0.018382141991473977,-0.06127450098997504,-0.374783343455374,-0.014358960684621946
1776715176.4662852,-0.020219029157143905,-0.11584404111601693,-0.37505644169507146,-0.012931972221818855
1776715176.4862816,-0.023158055735024524,-0.16430912906256415,-0.37509949438614343,0.007501901353455187
1776715176.506281,-0.027076764690625223,-0.21208717590928167,-0.3746397958535279,0.038398594360176785
1776715176.5262818,-0.03084078091915137,-0.24052725115006024,-0.3739142821905353,0.045230511315253574
1776715176.5462825,-0.03624773888237161,-0.27628814237959015,-0.3728791294779251,0.04883521963656845
1776715176.5662923,-0.04239924676435828,-0.3119991835012306,-0.37228349832495045,0.006585233767922416
1776715176.5862725,-0.04906770778348053,-0.32795750006560376,-0.3727336655626,-0.04785859558989802
1776715176.6062887,-0.05615951704671318,-0.34979814288204214,-0.37391789721068613,-0.06191153512860059
1776715176.6262965,-0.0634681979987896,-0.3534972823147652,-0.37509519205732106,-0.049835009556864485
1776715176.6463416,-0.06931388427366,-0.34427032674818075,-0.37580638778929826,-0.039138059787673374
1776715176.6662834,-0.07639882784063706,-0.3348224958524378,-0.3766959505789395,-0.040941178334442885
1776715176.6863132,-0.083121080625042,-0.3079578088348508,-0.3769905859886198,0.013992672178897214
1776715176.7062795,-0.088082593237758,-0.2870663218074684,-0.37605806267445563,0.1040262721088474
1776715176.7262743,-0.0946651479486339,-0.23940498894051632,-0.37212897886429475,0.20407946996764426
1776715176.7465303,-0.09843011076111333,-0.21103755390846185,-0.3685037083933782,0.2317541372332832
1776715176.7663023,-0.10265367540274115,-0.19903668503539096,-0.3634022695832542,0.2553243773994447
1776715176.7863638,-0.1067626595540839,-0.2000717741809146,-0.35764279601023585,0.29539719537984577
1776715176.806317,-0.1112805296231571,-0.2357141469616283,-0.35134968745403417,0.30704706266109194
1776715176.8262804,-0.11547988526372882,-0.27160789611753994,-0.34621029270670844,0.3054894491382969
1776715176.8462977,-0.1215512069267966,-0.31071930083056065,-0.3399279871300793,0.29606065981597707
1776715176.8662755,-0.1285468155233936,-0.3651014580441544,-0.3340254768726484,0.26924798030795194
1776715176.8862734,-0.13683215843026397,-0.4309553320537514,-0.3286431675177127,0.2492502354834476
1776715176.9062712,-0.14634285028027527,-0.48162455824860334,-0.3235852252213145,0.2396904120719382
1776715176.926293,-0.15681662082761,-0.5207905892200055,-0.3184796602771177,0.2537182987172011
1776715176.9462955,-0.16574258235997683,-0.5515371488321832,-0.31392831319161774,0.29435239446280037
1776715176.9663348,-0.1776080184165272,-0.5865964649848958,-0.30710413460018815,0.3629599646269944
1776715176.986273,-0.1901968995816664,-0.6229772203519666,-0.2987381631531281,0.4422279482874487
1776715177.0064514,-0.20344555056408006,-0.6510750592610997,-0.28871383318085286,0.5212839291488411
1776715177.0262735,-0.21748126709970006,-0.6959450799954133,-0.2771682465549314,0.5841450352038597
1776715177.046346,-0.22939089025272497,-0.7352341021892324,-0.26705619543738734,0.6249409880753793
1776715177.066284,-0.24516361568370532,-0.775185466493479,-0.25374998336040566,0.6457638868848591
1776715177.0863519,-0.2617538326082369,-0.8170180044787344,-0.24056722543364464,0.6171191745591618
1776715177.1063018,-0.27916050511411783,-0.8510412720841459,-0.22807860289813026,0.5803550835757346
1776715177.1262898,-0.2969846715159915,-0.8555195335199162,-0.21628661833492696,0.55338667802959
1776715177.1463182,-0.3110995317452041,-0.833510791391452,-0.20719475090419626,0.5360454486857736
1776715177.1662798,-0.32791305027827405,-0.7752326368456759,-0.19620987402525933,0.5174001904713017
1776715177.1862698,-0.3432035887475806,-0.6889960124479998,-0.18583614680009924,0.48313770489363994
1776715177.2062678,-0.3564889128407405,-0.5844334995365201,-0.17578280110858002,0.4804702865254603
1776715177.226267,-0.3674159429826969,-0.46264645072938315,-0.16569915511565658,0.49198351955783537
1776715177.2463226,-0.37420769855349734,-0.35341939495430985,-0.15739947573039273,0.49701706947905605
1776715177.266281,-0.38019978359307605,-0.22651060694165848,-0.14697294459937138,0.5010534922834855
1776715177.286267,-0.3840570504678804,-0.14840643037372403,-0.13700370447271726,0.4544470173708766
1776715177.3062747,-0.3866267530136402,-0.09996106764248269,-0.12802547059269023,0.40667977974479896
1776715177.3264909,-0.38789674438397925,-0.05208608284751293,-0.12144119314731146,0.38632810790687866
1776715177.3463213,-0.38816814833052427,0.024289495351647483,-0.1136071432762581,0.3654413322744822
1776715177.3662736,-0.387023719498823,0.08358368003695715,-0.1061954433983613,0.34619511335765774
1776715177.386322,-0.3849041545297869,0.11813721261532395,-0.09942116425214081,0.30796617749653676
1776715177.4063187,-0.3819652999394678,0.16652357446387578,-0.09307007276107085,0.30511721147450743
1776715177.4265368,-0.37879895466409197,0.21380322015786413,-0.08771835784040345,0.339904846882094
1776715177.4462948,-0.3738294913033885,0.2590527316947362,-0.08016016642561752,0.38576848305353373
1776715177.4662688,-0.3681688703024615,0.27885227845114535,-0.07172885318037266,0.42097182862831783
1776715177.4862666,-0.36236674127552065,0.27411173559017743,-0.06273196344263507,0.44039552628103307
1776715177.5062995,-0.3569909218745623,0.2402410427561763,-0.05343635459599176,0.4493385750909374
1776715177.5263472,-0.35324517399641,0.20676998064656682,-0.045910464045886855,0.4540638238135262
1776715177.5463145,-0.34936214080143624,0.16677190475076287,-0.0363724450976005,0.46058498760117983
1776715177.5662732,-0.3463514963958484,0.12024906437695637,-0.026750370685635724,0.4633981701350044
1776715177.5863435,-0.34434705048587827,0.07044091218258763,-0.017243625214343267,0.4421658572094421
1776715177.6063042,-0.3434243878091181,0.017847226467157973,-0.008364313429936406,0.411830450430665
1776715177.6262624,-0.3434616781249713,-0.01952045700164029,0.00019857967087680755,0.4116815766774385
1776715177.6463094,-0.3439922135744752,-0.04068702370948174,0.007112372264727527,0.4243715077649619
1776715177.6663108,-0.3450381266725036,-0.05765467356264686,0.016126701223585838,0.43883572268763243
1776715177.6862683,-0.3462653619989751,-0.060900115708489744,0.02538327866468289,0.44533104616686525
1776715177.706264,-0.3477424527875552,-0.08171749453825883,0.03425986382355997,0.40649943011520545
1776715177.7262592,-0.3496857060686843,-0.10560642151038546,0.04240887268229939,0.3763413354708487
1776715177.7463918,-0.35198512243646307,-0.11306100761587512,0.050178651772048555,0.3695323254250982
1776715177.7663972,-0.35392716417471104,-0.11989049188396939,0.056158908833277496,0.3447739250232157
1776715177.78629,-0.35656809054578203,-0.1336600674383115,0.06260457472243595,0.26843091032389155
1776715177.8064432,-0.3596146784350963,-0.1565999963438096,0.06719918732103071,0.17062294356830598
1776715177.8263855,-0.3630027627659234,-0.1661818488337432,0.06992744323664198,0.09386942855663433
1776715177.846274,-0.36561904343457535,-0.14647222199995924,0.07104909119132954,0.043345151910373664
1776715177.8663247,-0.3682747221179028,-0.10870918936572305,0.07140490469534144,-0.008869546392701072
1776715177.8863018,-0.3703662503499061,-0.09118609484170959,0.07066031492079526,-0.05996143885892888
1776715177.906264,-0.37201819635821626,-0.06762298361607821,0.06896499087829909,-0.10058070242530945
1776715177.9263306,-0.37297388845884394,-0.02235046138548391,0.06678490508169933,-0.10556577789607138
1776715177.9462624,-0.3729976274746101,0.018138828120348727,0.06501358918285485,-0.10565972872541857
1776715177.966256,-0.3721513480190485,0.06313447002216477,0.06273793937882167,-0.10528869740846644
1776715177.986255,-0.37058491700580154,0.08406843379040452,0.0608219496486862,-0.08176843112132431
1776715178.0062551,-0.36883551963236094,0.08110471621371573,0.05883935384927593,-0.10722535930784324
1776715178.0264452,-0.367548079560663,0.07075324245921322,0.05686736904636247,-0.13995964521476656
1776715178.0462613,-0.3661526577860392,0.06013171502764281,0.054012788405092146,-0.13642120719551226
1776715178.0662663,-0.3651318461622639,0.037682071750910984,0.05107830175522468,-0.15016909396976613
1776715178.0862527,-0.3646784622557778,0.006983531816982191,0.0476687804458248,-0.17420809230255327
1776715178.1063166,-0.3646625955365547,-0.003620088113202913,0.04425997690203526,-0.15402960728475812
1776715178.1262517,-0.36467982578584096,0.0032685681810953326,0.04130723075581841,-0.12078079011901006
1776715178.1462567,-0.3646509961116132,-0.0001946792706335465,0.039432801970269,-0.1065162404355414
1776715178.1662595,-0.36479589656049416,-0.015309327890521862,0.03754483348811474,-0.07378348998334607
1776715178.1862984,-0.36533630640442105,-0.03583326922420027,0.0361732977414378,-0.057122656544007666
1776715178.206442,-0.36627911684576636,-0.05287815521612793,0.035222268395267285,-0.03567789718332279
1776715178.2262557,-0.36737121383790994,-0.05332630930068927,0.034695824141390635,-0.014232813310477294
1776715178.2462773,-0.3683985270969732,-0.0675613766176344,0.034547799905290014,-0.004102996434153794
1776715178.266331,-0.3700164766607785,-0.089304873526032,0.03470887219773336,0.01822647030685043
1776715178.2863352,-0.37185440905431133,-0.08529092838480912,0.03517346771963907,0.025886582533205735
1776715178.3062527,-0.3735902589515653,-0.08089235790514482,0.03583081822650137,0.03173587770447994
1776715178.326273,-0.3749241214655794,-0.0778219689055335,0.036353019053671685,0.03255835204179275
1776715178.3462489,-0.37654681036379617,-0.07589533355862677,0.036886255666386286,0.01828909190214438
1776715178.3662562,-0.3780901258285624,-0.07045041589308298,0.03723390414224927,0.019022566266579735
1776715178.3863559,-0.37919797497485447,-0.0353775819793134,0.037796659690686504,0.03539900724751609
1776715178.406246,-0.37955767695472986,0.00028173560854249935,0.03864809591423602,0.04521095267271581
1776715178.4262457,-0.379374124928427,0.016610312620329193,0.03946885171329732,0.031641986337880484
1776715178.4462976,-0.3790159858436385,0.02687905578750427,0.03988933802643362,0.01981498401802645
1776715178.4662488,-0.37828151549648786,0.044521149207425115,0.04033921333855943,0.022585909452253458
1776715178.4862468,-0.377083274440997,0.06889509326824772,0.04077019573929151,0.020032323968936727
1776715178.5062456,-0.3754274713861935,0.08675527781286574,0.04105224655794473,0.005075588565671196
1776715178.5262465,-0.37398427274501134,0.08442737242565879,0.041039739200521355,-0.005428060387638711
1776715178.5463727,-0.3723614724640993,0.07143725384331967,0.04080383766479942,-0.01766746286397769
1776715178.566248,-0.37089256418359356,0.06993068842701389,0.0402785648729545,-0.031173122463443156
1776715178.586346,-0.36939525105072646,0.0737434950198379,0.039553764536837045,-0.037753734636264025
1776715178.6062508,-0.3679277377664172,0.06661505477756302,0.038798642773410545,-0.03341605134286127
1776715178.626245,-0.3666541447795431,0.054574812818181995,0.03821121186544417,-0.024378288010060187
1776715178.6463525,-0.3658076106379029,0.04770017439456842,0.03782911800610654,-0.020267198134635594
1776715178.6662595,-0.36488049086150637,0.041257502102534094,0.037317726863236346,-0.027104770476248888
1776715178.686253,-0.3640816359402023,0.03529345512572246,0.03686947228734051,-0.015898803453862034
1776715178.7062645,-0.3635178046910991,0.01886994418689847,0.036859513127227836,0.015134575571456338
1776715178.7262473,-0.36328228844223764,0.0025248120373249083,0.03746091715416891,0.037583840352941544
1776715178.7463303,-0.36333000792824466,-0.009623432885970784,0.038130227422408666,0.04201887345323678
1776715178.7663476,-0.36377162572623056,-0.03321968482708115,0.038866591327635217,0.02839578105547988
1776715178.786256,-0.36463487901025704,-0.049785162305940434,0.03944373738478213,0.02828106981197334
1776715178.8062482,-0.3659272581917019,-0.07040410160467259,0.040129636059573495,0.03974492085233218
1776715178.82625,-0.3675517970414778,-0.082643904648952,0.041088504788573246,0.04979930965978012
1776715178.8467572,-0.3691777267591283,-0.07263527030068206,0.04204649481980283,0.041524419251828176
1776715178.8662658,-0.37039009167347803,-0.07151044144297036,0.042560877416894224,0.0187850864421525
1776715178.8862505,-0.3719234191243745,-0.07624436146162283,0.04276514656774505,0.0013985983864775176
1776715178.906533,-0.37343460335176465,-0.06598996789253797,0.04278029521732991,0.0029020381218353986
1776715178.9263046,-0.3743654893813407,-0.04576818669661753,0.04294494825942127,0.013156627823367573
1776715178.9465759,-0.3750554531070327,-0.011005598218290391,0.04312087172622608,-0.00395072983390149
1776715178.96625,-0.37513208413812993,-0.0002941214830314287,0.04284695230266546,-0.03204673915958248
1776715178.9862964,-0.3751695518607536,-0.0015201367209649597,0.042027682730591306,-0.04318965805981265
1776715179.0063086,-0.37508531549083746,0.010929039438402288,0.04112597464129428,-0.042042241549875375
1776715179.0262628,-0.37471593278209314,0.033927369338459634,0.04040400572512867,-0.04426603649728442
1776715179.0462809,-0.3738276682933389,0.04854040827926753,0.03943703763933663,-0.050703145659422647
1776715179.0663428,-0.3728188190206121,0.04577437729983447,0.038186764033867504,-0.06881398614549207
1776715179.0863588,-0.3719545657399962,0.038377766184039874,0.03667151355504507,-0.07605270770625769
1776715179.1062436,-0.37113406259239523,0.04392022752270219,0.0352097167403537,-0.06120751472216225
1776715179.1265101,-0.37023755936931,0.06331600997602038,0.034302688654139386,-0.04821889714131296
1776715179.146265,-0.3688003751386487,0.07368275036503769,0.033416484268610325,-0.03673726468578406
1776715179.1663003,-0.36738589924491094,0.05749988932058803,0.03273741825024091,-0.0281910827935309
1776715179.1862595,-0.3664202862979644,0.03618558188855836,0.03216073598937923,-0.025771660677558844
1776715179.2062457,-0.3656634943395267,0.03563037888856835,0.031621783176162,-0.024357966619637683
1776715179.226353,-0.36502438630101275,0.041939281802575445,0.031423007351890575,-0.002713752081153417
1776715179.2463243,-0.36437620130803344,0.020202635906947375,0.0314635853810883,0.00974326062402929
1776715179.2663035,-0.3642838825846042,-0.010695047877588015,0.031590034284241564,0.0009710736803188597
1776715179.2863424,-0.36452397396239744,-0.01269293971641794,0.03175840254721618,0.014265494110935042
1776715179.306401,-0.36485172576203456,-0.017186755158557165,0.03195335950152185,0.006667625585342896
1776715179.3263912,-0.3651723692807699,-0.023379734286052223,0.032109319512382134,0.008469622134390897
1776715179.346449,-0.3657145166011751,-0.02746320571984384,0.032532695540488335,0.03300719143323841
1776715179.3664045,-0.3663345771869859,-0.0334936096979519,0.0332191296406585,0.030357321423716097
1776715179.386285,-0.36698955744018513,-0.02813555227775666,0.033793846465173194,0.024254812840997925
1776715179.4062765,-0.36754403336222685,-0.022524294378550636,0.03432982318384804,0.028180361996139602
1776715179.4262323,-0.36783735366718084,-0.014492832947194945,0.03483542455444375,0.032942229312636864
1776715179.4463634,-0.36806085936158944,-0.007639345578805745,0.03559996251415048,0.03940372102436142
1776715179.466331,-0.3682357034581677,-0.009675661960578896,0.03640100122746401,0.03556132954983937
1776715179.4863672,-0.36838061588834736,-0.002911436987488303,0.03693248171663763,0.015466425781619011
1776715179.506254,-0.36838683920476234,0.001744247275865085,0.037074541943026035,-0.0023585634778848924
1776715179.526333,-0.36836522990680753,-0.0006076253668969578,0.03692524698223598,-0.013334456111152124
1776715179.5462801,-0.36832706517213565,0.0030290322857478014,0.03656164809605898,-0.022360114338051032
1776715179.5663652,-0.36827203844417866,0.004387165766635004,0.036055451238888356,-0.0259939263745044
1776715179.5862846,-0.3681423294527188,0.008884986935525419,0.035402948331625786,-0.03829817406583541
1776715179.6062634,-0.3679038760550668,0.014825267152229316,0.03444398376380359,-0.04957792985417574
1776715179.6264625,-0.36766143617919655,0.015042763578511309,0.03371635582074041,-0.03938547525433152
1776715179.6463716,-0.367223087879867,0.025789341347220107,0.03301163153812022,-0.025296293902535877
1776715179.6662555,-0.3665710478589468,0.03623213400334868,0.032591246651961406,-0.018346876584578467
1776715179.6863458,-0.36579342523386976,0.03564362748398353,0.03221808523846148,-0.019750460339147458
1776715179.7063448,-0.36523910819777305,0.03210342031629643,0.03187836056700878,-0.024039419716498908
1776715179.726508,-0.3645666929408395,0.030278728944515,0.031541900524026764,-0.008965165330638764
1776715179.7462988,-0.3640034980700615,0.02698192262793775,0.03142588436745508,0.0011672747975279285
1776715179.7663121,-0.363290984127653,0.03849105233446992,0.03149703416405102,0.00586529191924505
1776715179.786306,-0.36259229076096566,0.030722680118687062,0.031492723440354115,-0.004626686840936325
1776715179.8067708,-0.3622122319254551,0.003640400573832858,0.0312922887930807,-0.014606598345267466
1776715179.8264232,-0.3622197838075752,-0.003651926815061657,0.03106254963694735,-0.01288894416564422
1776715179.8463163,-0.3623430625832488,-0.009319789294433223,0.030751132386091663,-0.018191620299283354
1776715179.8662915,-0.3625906291870171,-0.014518490610037293,0.030224248164693296,-0.030866753141605738
1776715179.8862784,-0.36297823000417173,-0.02470199824550212,0.029681059450439085,-0.022856795056596907
1776715179.9062436,-0.36364785772293906,-0.039271484976092674,0.02928037569047888,-0.015222807936826774
1776715179.9266264,-0.36455440589169974,-0.044549990897152725,0.028731743968592162,-0.034666814764675744
1776715179.9463432,-0.3652332168678172,-0.03697788314989703,0.028156644991897566,-0.03416791181474407
1776715179.9663324,-0.3659602633743255,-0.03314624868759264,0.027610770795818123,-0.017883568511581516
1776715179.9862652,-0.3665863762228387,-0.030246575295513223,0.02742401083927888,-0.005224228549487286
1776715180.00651,-0.3671333722424801,-0.01913340606099334,0.02746952600532019,0.006006522219366331
1776715180.02648,-0.36734008344327523,-0.00658975265003825,0.02747490560989323,-0.002850936662191189
1776715180.046429,-0.3673488720437905,0.007721974808702958,0.02731190967228214,-0.011103788241484724
1776715180.0663629,-0.3670643578876904,0.01786551245437762,0.027211649626531147,0.0029866344867225947
1776715180.08626,-0.3666474201434945,0.023306849041381694,0.02722930041189867,0.0008313427027966391
1776715180.1062686,-0.3660117555698723,0.035600738889173256,0.027323989092201482,0.005004449431717697
1776715180.1264255,-0.3653695696026369,0.04492749188827072,0.02738059466536169,0.005524224783144613
1776715180.1464303,-0.364395618891929,0.047272756721007614,0.027415750886504525,-0.00427694758764062
1776715180.1662567,-0.36335293475406266,0.052504759002871326,0.027397794301184816,0.004153052051553752
1776715180.1862535,-0.36214730238328097,0.06058372401950107,0.02782850837674066,0.02973665264194414
1776715180.20637,-0.36079589014825203,0.06841877609451563,0.02842030538046479,0.027858931641729118
1776715180.226248,-0.3593683304684917,0.06707238019174344,0.02884518770709346,0.010752623230002825
1776715180.246311,-0.3583540381996849,0.05673104138365459,0.02905920442400817,0.01761293658315123
1776715180.266324,-0.3571372709105563,0.058189780206345576,0.029361671868348357,0.013608909501365313
1776715180.286293,-0.3559043926511939,0.06163843329546892,0.029652890291920288,0.012451409422047907
1776715180.3064716,-0.35493565269727984,0.05344299858864621,0.02990711329347733,0.01924323983105479
1776715180.3264015,-0.35374527877404793,0.04316052248322522,0.03032603234177145,0.011940128635943778
1776715180.3462625,-0.35305028257432747,0.04057664736302402,0.03046714435618165,0.005997556259544692
1776715180.366252,-0.3521955832224216,0.043380872203377496,0.030626737402557093,0.009156064125844174
1776715180.3862438,-0.3511783799838827,0.05527957749370083,0.030813568095905155,0.010699928996499325
1776715180.4068482,-0.3497981139134584,0.07902577674605771,0.031071064156291392,0.012774411167605665
1776715180.4263916,-0.3477915306793534,0.11547444549079433,0.03135589733507745,0.015070007570997662
1776715180.4463418,-0.3455469131999921,0.15545484058102155,0.03162637215154657,0.01570042095933541
1776715180.466337,-0.34171922257903375,0.21374792893221128,0.032023600943534805,0.019691735237323302
1776715180.4862373,-0.3365954125517883,0.27824087605467385,0.032464687656018676,0.023742597567414522
1776715180.5062535,-0.3315523650977145,0.3259365565298713,0.03303396294268318,0.04014177900804819
1776715180.526341,-0.324193108297327,0.38010456625323086,0.03399462739795607,0.05000257119578763
1776715180.5463476,-0.31572508267805044,0.4337170954067122,0.03473085308694804,0.019266845472000235
1776715180.5662565,-0.3060394758052939,0.49348012350467496,0.03527952813758297,0.028838794881152652
1776715180.5862384,-0.295324492314879,0.5327380112804913,0.03562937454265668,0.012115689191967025
1776715180.6062458,-0.2839766708666255,0.55268437491553,0.035634847876353945,-0.015475617712846945
1776715180.626383,-0.2746770852718531,0.5653273501250878,0.03542341650250174,-0.007432354415782799
1776715180.6463387,-0.26274774195997863,0.5791574433050241,0.035103155132831916,-0.026286305329876664
1776715180.6663408,-0.25060220587824755,0.5859007951056834,0.034489724013373385,-0.0368003198776497
1776715180.686242,-0.23846778405296643,0.578425970714507,0.0336770663076658,-0.0354005858066596
1776715180.7062416,-0.22644038098294605,0.5760239883794864,0.033031459716998654,-0.026534752132037875
1776715180.726356,-0.21681515298532933,0.5797729573301547,0.03266310151267432,-0.010822792631154682
1776715180.7462466,-0.20467698823087982,0.5858012924880943,0.032473076994874395,-0.007935222103655756
1776715180.7662437,-0.19241430543774765,0.5918480363173789,0.03259173894564791,0.017075428034565743
1776715180.7863402,-0.1801427123848246,0.5880753482707294,0.03311985788330237,0.0359089912213284
1776715180.806403,-0.16785752498375173,0.5899378194416025,0.03397057935160654,0.04520163899011362
1776715180.8263085,-0.1580092201604666,0.5932709777107609,0.034916769592303304,0.06540850906913159
1776715180.8463385,-0.14569251953056536,0.5882498109301022,0.036345969963638994,0.07067398210659454
1776715180.8662622,-0.13344433086974802,0.5854331054140836,0.03764779966607307,0.05481140034948041
1776715180.8863428,-0.12149435323822226,0.5633907265092819,0.03876988743317952,0.05235347549260802
1776715180.9062383,-0.10995712237336788,0.5429287302634545,0.03984133595970708,0.05005547770412068
1776715180.9262638,-0.10094655436437981,0.5393108915961125,0.04064206850609925,0.044470522905663765
1776715180.9463437,-0.08993834832896588,0.5164300375380894,0.04154997477525186,0.04050653501261456
1776715180.9663408,-0.07950378481186472,0.4832875409675397,0.042171877770451664,0.019964639898393602
1776715180.9862525,-0.0697915747921467,0.4497985293898985,0.0423990406712007,0.0025441699248111432
1776715181.0062516,-0.0607714449342405,0.41552243443325343,0.04246954469047052,0.004290979885400878
1776715181.0263746,-0.05238395976668252,0.3893576456925495,0.042444660840296314,-0.005471387722878904
1776715181.0463474,-0.04613106614438185,0.3614067522980564,0.042279325126682706,-0.01587518143002893
1776715181.06629,-0.0389553084625118,0.32714604013877546,0.04189928165960254,-0.0194558628066564
1776715181.0862515,-0.032384564973525945,0.30438804336623526,0.041503780705863566,-0.017817657198804168
1776715181.1065047,-0.02750555961065853,0.2841253759670234,0.04119988759512081,-0.01845650712249168
1776715181.1266754,-0.021715729806077173,0.2713592785629824,0.04073832607140822,-0.025233748387697916
1776715181.1463468,-0.016216686841974706,0.2587305016266639,0.04024663790883415,-0.02170072893073939
1776715181.1662467,-0.011025078543477843,0.2393323118512895,0.03990298946708861,-0.007949652940759472
1776715181.1863763,-0.007074897235228389,0.23597007510653423,0.03985907508461331,0.00068809715589431
1776715181.2062533,-0.0011997172484960366,0.23195644292333006,0.039979188583416744,0.006678749416246521
1776715181.2264411,0.0035381237491930277,0.21850247052160407,0.04015065716371049,0.010355788429940255
1776715181.2463439,0.006991528280770693,0.1959256221151692,0.040424761933615744,0.02254420563916361
1776715181.2663486,0.010657143527054342,0.1551498595817856,0.04102222404738891,0.034300272865915055
1776715181.2862484,0.01350921531232513,0.11990716907254335,0.04173654539653479,0.03307701855280054
1776715181.3062472,0.015272225339597495,0.09129934126834836,0.04227527543948174,0.0299873422582691
1776715181.3262413,0.016623958180411513,0.0382527105278344,0.042829446787276466,0.02357265428729602
1776715181.3463473,0.016913273351780757,-0.012334412061374457,0.043164155256011943,0.00953597834150087
1776715181.3663437,0.01618058901950093,-0.05543623602368824,0.04330982974966352,0.0058198215253398855
1776715181.3863401,0.014670044156785035,-0.08785795795532172,0.04342966371928152,0.0052749277185172305
1776715181.4062383,0.012641421712383426,-0.10578850199340342,0.04334220794005722,-0.012320160362532181
1776715181.4262304,0.010730659949821869,-0.1248957860954562,0.043136740368811925,-0.015664428445504253
1776715181.4462428,0.007904531755111776,-0.1468343666045215,0.04279290021471789,-0.014764094335716016
1776715181.466239,0.004803681078627463,-0.14949689862321192,0.04252814142069217,-0.012102717102416394
1776715181.4862766,0.0016768294883108643,-0.1473589780613456,0.0423938097767965,0.0005277480234254506
1776715181.5062406,-0.001290827951230697,-0.13957160700520393,0.04240637164335298,-0.0018335134390917163
1776715181.5263467,-0.0035998944439741233,-0.1346775277104622,0.042277033188072854,-0.011895909789054943
1776715181.5463,-0.006409197218014345,-0.13546694054345265,0.04207195105730379,-0.006820806339185331
1776715181.5662737,-0.009066715369366297,-0.11822270249650957,0.04215831827182596,0.01689762101471566
1776715181.5863552,-0.01132783361841128,-0.09822233697541882,0.0425620386097431,0.020357515678704835
1776715181.6063397,-0.013287660096499659,-0.08998928843250498,0.04297666672603859,0.01713750119406597
1776715181.6263,-0.014752770874506937,-0.08571433911844864,0.04321077747505021,0.012498104686389344
1776715181.6463592,-0.016486936652299847,-0.08031536264053071,0.0434612624027269,0.011292585623971174
1776715181.666253,-0.01807322404587865,-0.07184215884780135,0.043728398760399426,0.016299977326180076
1776715181.686274,-0.01941055914643974,-0.05824842102917755,0.044040146863831106,0.012858820307056623
1776715181.7063446,-0.020625096032873068,-0.057419377948191304,0.04424355422955528,0.005669508297065529
1776715181.726255,-0.02173336868130747,-0.05068595916366731,0.04424905407221194,-0.005752464733817603
1776715181.74655,-0.02252389907924094,-0.04120365852069854,0.04410575874325767,-0.011759881278146589
1776715181.7663069,-0.023286974751915844,-0.03185525024921031,0.04390274622913048,-0.00821446080846125
1776715181.7864127,-0.02378800185826986,-0.015164769935143096,0.04374020133864409,-0.008271981367430223
1776715181.8063738,-0.023921716133628246,0.001255713575910991,0.043439499168015205,-0.020386182836977754
1776715181.826252,-0.023775579776531778,0.011543873904263369,0.042935365870686866,-0.027936278811652976
1776715181.8462963,-0.023560616349001702,0.01603313235414161,0.04244022790080662,-0.030338873472977257
1776715181.8662515,-0.023117017628043707,0.025161233281385698,0.041799228707247164,-0.031162330146216083
1776715181.8862686,-0.022545000555711514,0.03119664500888978,0.041205354116571495,-0.026715140013759714
1776715181.906267,-0.021937503345902654,0.025675346445448395,0.04071171998109262,-0.020667417029834267
1776715181.9263535,-0.02145135902563584,0.02177234794979506,0.04025823344681741,-0.023360551408932548
1776715181.9463606,-0.021119626446176792,0.016583978393898267,0.03980765199151538,-0.02706096884148855
1776715181.9663625,-0.020784039236578816,0.013830256925563597,0.039359196761999976,-0.016184941573877856
1776715181.9862692,-0.020518659114952504,0.010994834730265912,0.039112998629396864,-0.00593219332176588
1776715182.0062594,-0.020322171844690505,0.007623233018977139,0.03902339136257995,-0.0055289290938720925
1776715182.0262482,-0.02027026490607646,-0.0004925505309839109,0.038845743298896625,-0.01207678709574557
1776715182.0466228,-0.020258769094989183,0.0016352121249018359,0.03845461281436113,-0.024405603802225867
1776715182.066596,-0.020180237008491985,0.008555435336674508,0.03805545632136201,-0.02303326936952066
1776715182.0862656,-0.020064162722636107,0.0010949325192325735,0.03762210101503506,-0.016941758769473514
1776715182.1062589,-0.020130389516257563,-0.007375751084531271,0.03724372893625529,-0.021066832789202516
1776715182.126262,-0.020249784336933578,-0.0023753005773058736,0.036704571466082914,-0.030609955865387797
1776715182.1462514,-0.02024929118190496,0.0022278947198381485,0.03618300296272376,-0.03339110006462809
1776715182.1662588,-0.02019276851828521,0.0026158521966318654,0.03548780478261153,-0.031030098950645235
1776715182.1862512,-0.020296452426205515,-0.011867687407062746,0.034986261222512846,-0.016379276985224928
1776715182.206253,-0.020626012840274238,-0.018576886528930074,0.03478234601229557,-0.002153926695114411
1776715182.226327,-0.020808672226337584,-0.005549542149773129,0.034756358230925474,-0.0019962411427326687
1776715182.2463615,-0.020876214743588258,-0.0027733355838345797,0.03487251792081893,0.011581046546750129
1776715182.2663627,-0.021135449877128433,-0.023095360110899785,0.035190289610406496,0.020465159073629696
1776715182.2863533,-0.021603081021108653,-0.02003156076472571,0.035616198239654964,0.019059216408823562
1776715182.3064425,-0.0218545484743102,-0.009395309511655306,0.035964815860451436,0.024328612601382485
1776715182.3262508,-0.02225605006840182,-0.021378329062513968,0.0366946107927691,0.029742388848645218
1776715182.3462546,-0.022592249139678545,-0.021057761687790985,0.03718871134198316,0.02748345744335777
1776715182.366357,-0.022934592995942096,-0.009110400397723803,0.03763288295129549,0.01393138473544775
1776715182.3862484,-0.023107486460212066,-0.010323434635188936,0.037855450649114206,0.006054389852775691
1776715182.4062457,-0.023335189804807678,-0.015371672961032604,0.037978299906950494,0.009481980572231472
1776715182.4262507,-0.02363078745875461,-0.012048981489682337,0.03819508513419847,0.013262057465330213
1776715182.4462585,-0.023660019559271866,0.009232321274669372,0.03846607889693356,0.011914100059071855
1776715182.4662516,-0.023402893509996844,0.013989207130813822,0.0384766674039998,-0.01004216884363586
1776715182.4862843,-0.02327332640685691,0.0021881003039405655,0.03827495043061866,-0.019535870865049237
1776715182.5062675,-0.02319896571936926,0.004920144795689543,0.0380106953199597,0.0005108105704780541
1776715182.5262494,-0.022982309672279252,0.01593650068111513,0.038092423591143953,0.006131402450370083
1776715182.5462654,-0.022708011796742714,0.015918705700730257,0.038193131036872684,0.0048388123203942646
1776715182.5663576,-0.022343468360048968,0.01726620475825494,0.03813985914185865,-0.009884287086170479
1776715182.5862591,-0.022103854684557597,0.007231941221002167,0.037807019418203004,-0.022346485474369474
1776715182.606456,-0.022097009737964,-0.0060382715945589555,0.03755139270236925,-0.000993815780661031
1776715182.626271,-0.022221277203373017,-0.006333655815927375,0.037721362270466116,0.0203470859116687
1776715182.6462815,-0.02218280435720224,0.007585507384988019,0.03799977280978396,0.006854557608426237
1776715182.666279,-0.022085992595750427,-0.0015151487802428365,0.03789016296280559,-0.01764705351733631
1776715182.6862624,-0.022505489881061456,-0.03843578300974494,0.037524290729822996,-0.015046005315837954
1776715182.7065146,-0.023237383643514187,-0.028222689838410128,0.03723484421546383,-0.01277602752372349
1776715182.726243,-0.023490121525400476,-0.0006521111461964268,0.03713494694862521,-0.002158885201825181
1776715182.746243,-0.0234547503159274,0.0013146426091557306,0.03729488574207707,0.015401864951847699
1776715182.7663026,-0.023580091609063457,-0.015036335236279605,0.03745731758578234,0.0023572069161358067
1776715182.7862515,-0.023939302794422666,-0.01630641033383945,0.037446881412901804,-0.0025769519354759685
1776715182.8062491,-0.0240779333235846,0.002541481362534889,0.03762727129993701,0.021403734801901456
1776715182.8262544,-0.024000951020575166,0.009278894818179978,0.03804380483810504,0.02773255294318787
1776715182.846343,-0.023861776547137652,0.002486722506711031,0.03853996697264258,0.020155231400316775
1776715182.8663485,-0.023846620758024913,-0.0020550451408369724,0.038934458598927774,0.016740950541835983
1776715182.8863413,-0.02394851686642946,-0.009164464701838251,0.039187393355292074,0.00879685074981433
1776715182.906247,-0.024216902306413317,-0.014806549503544486,0.039237566224065226,-0.004678530222713181
1776715182.9262564,-0.02435907455318407,-0.0031407949735794832,0.039113911490160136,-0.008243938706517184
1776715182.9463418,-0.02443423498887811,-0.004121782804417773,0.03903005933425473,-0.00022489078335773127
1776715182.966255,-0.024791736449599238,-0.02971593446577364,0.03907262253586652,0.001056476711099777
1776715182.986257,-0.025217967888444007,-0.010401429045322805,0.03883825105803834,-0.025117256113654368
1776715183.0062606,-0.025199899564651223,0.011077726638498014,0.03821236228718883,-0.031542660113577356
1776715183.0263903,-0.025210133802771,-0.01049130290457255,0.03789909524681885,-0.004971730878117572
1776715183.0462947,-0.025497039907513817,-0.01616745599045674,0.03800408424134591,0.014029744072566783
1776715183.0662704,-0.025448159027300424,0.020339588430943065,0.03816513439326751,-0.001143013579364749
1776715183.0863566,-0.025026647850543947,0.018307446091087046,0.038049083866391484,-0.010234432325457954
1776715183.106326,-0.024924358991048872,-0.008903546005742474,0.03780401534823911,-0.01143082628881631
1776715183.1263776,-0.025061443346766087,-0.007042064682019095,0.037710533569854654,-0.0006092215615841612
1776715183.1463578,-0.02499410652843162,0.013381449794047415,0.037883092291309206,0.01681495517168713
1776715183.1663766,-0.02472159717403107,0.010428417476505414,0.03817918357316545,0.00998489569143908
1776715183.1862524,-0.024730736407714855,-0.010724382822298553,0.038242807133267914,-0.004532855160466406
1776715183.206243,-0.025034476781373678,-0.017030919578760823,0.03802685340758327,-0.014721961941912595
1776715183.2263942,-0.02526317613305172,-0.010646802315731035,0.03778661712378353,-0.013444455249710371
1776715183.2465131,-0.025396279293619487,-0.0034208261690278213,0.037763332599374234,0.009856258942165783
1776715183.2664337,-0.02542070069630417,0.0006806014744760863,0.03795734142054815,0.00853699788994218
1776715183.2862453,-0.0254573795831257,-0.004587195538851591,0.037930241996331146,-0.012198412411974793
1776715183.306372,-0.025667645095174305,-0.018005755093484885,0.03778193398166187,-0.007208754824931482
1776715183.326499,-0.025793182488076594,0.010625265483756752,0.037547084775118006,-0.00869731158068636
1776715183.3464792,-0.025475970089871174,0.029734064985221617,0.037455250865930184,-0.00476480842265424
1776715183.3663633,-0.025207039794719208,-0.005633654307591343,0.03755942537011559,0.014082884593243736
1776715183.3862429,-0.025475884915536894,-0.017792125672861536,0.03766232923622655,-0.006425555332764649
1776715183.406666,-0.02556719377757379,0.010747178920384445,0.037389716196743375,-0.021614876479520456
1776715183.4262664,-0.025368319384453095,0.01299580453263674,0.03711759332431262,-0.010101248563490609
1776715183.4463177,-0.02534071850568452,-0.010254599854431362,0.036995935220838105,-0.004218867208910196
1776715183.4664476,-0.0256451571214514,-0.017921839962940583,0.036808162966453645,-0.012728353314174046
1776715183.486244,-0.02592230986242794,-0.00604013193441387,0.0365352589141078,-0.012959633078850508
1776715183.5063832,-0.02594156468889356,0.002377921855232945,0.03629815071353767,-0.01258308169172008
1776715183.5267706,-0.02598216375045302,-0.007453589206829009,0.0360519059126282,-0.008350980518439133
1776715183.546375,-0.02613715512035185,-0.013890977908974353,0.035899931190004404,-0.008034514519126276
1776715183.5662873,-0.026330441456357552,-0.005422354755303199,0.0357096428464213,-0.010014719158982069
1776715183.586523,-0.026480800001423832,-0.009023035885275699,0.0356571853532726,0.003988296434007596
1776715183.6064284,-0.026594662491156836,-0.006548263230872403,0.03573453349255388,0.005379717283840013
1776715183.626405,-0.026573699301239526,0.007147274651236768,0.03575727855377832,-0.0041281548911271115
1776715183.646398,-0.026602828877890117,-0.010306453794261192,0.03565419106589815,-0.0035445844611919075
1776715183.666377,-0.02700782095702513,-0.025946578140759985,0.03574132932902181,0.008823556387922676
1776715183.6864429,-0.02726130580599745,0.0032871115009992513,0.035949429829463336,0.009656965749743174
1776715183.7065144,-0.027029997368898336,0.018122117538573054,0.036189043051789854,0.01105161451750393
1776715183.7264006,-0.0268441500588564,0.0016455724016074813,0.036335756137906794,0.00971665805704805
1776715183.7463162,-0.02698138287302133,-0.012794314519910449,0.036363235809406536,-0.004170971254278469
1776715183.7662532,-0.027121180813257414,0.0007815027769805666,0.036316549889529384,0.0006434490516606384
1776715183.7863905,-0.026858576386320714,0.02290148841590206,0.036448854298785166,0.009400535614361147
1776715183.806244,-0.02650533988689223,0.009669318996020415,0.0364530664765039,-0.009245290248459548
1776715183.826344,-0.026541677085323786,-0.014171514558628334,0.03627247573416016,-0.015079243315801766
1776715183.846385,-0.02685921886833543,-0.014000442075597322,0.03598525574141401,-0.008257605934049395
1776715183.8662508,-0.02702024914336318,-0.00020917770511251488,0.03584899069746107,-0.00847164215255923
1776715183.8868399,-0.02700383543932855,0.001360324589384454,0.0357060505628706,-0.00836424592455981
1776715183.9065995,-0.027082634189170365,-0.010713638186901478,0.035542505140657765,-0.006072994267740495
1776715183.9264417,-0.027382424444843137,-0.02403166665023422,0.0353947670613325,-0.008872277096938358
1776715183.946423,-0.02786117603666719,-0.0204323821613957,0.03517794479116496,-0.011975934383707795
1776715183.966496,-0.02802358201903659,0.006626380107341109,0.035035877726979484,-0.0026913857173654493
1776715183.9863865,-0.02772337902315018,0.017710293481803738,0.03485409624180333,-0.013294342649573382
1776715184.0062962,-0.02766077795843678,-0.006401789319126966,0.03462771633496374,-0.016638288865243156
1776715184.026322,-0.0280094889884457,-0.024636369540459835,0.03448072824362935,0.0014651583135606855
1776715184.046463,-0.02803085982046892,0.024105510693508095,0.03451146945413952,0.00016344643428437
1776715184.0668213,-0.027270358917262552,0.044603704620876,0.034433762806529516,-0.006741229495194956
1776715184.0862615,-0.026728849824077593,0.006445643322367481,0.03437456056109766,0.0023167023963335392
1776715184.106253,-0.02676060190245687,-0.005954575245691263,0.03446313098787707,0.0061180963223080725
1776715184.126221,-0.026685357051264416,0.01692243152175503,0.034629489346095985,0.011465099701029602
1776715184.1463675,-0.026037746969228212,0.04291424684898419,0.03484701757622395,0.011428010977811029
1776715184.166349,-0.02514633263272119,0.0390571267734401,0.035018804536665046,0.0054460792603019115
1776715184.186256,-0.02452265826909783,0.02214493993064917,0.03510294638848843,0.005216980327318932
1776715184.2062416,-0.02402214012125241,0.029816420740449656,0.035227163791813315,0.0067182066194002715
1776715184.226298,-0.023058883592920548,0.06583947566283865,0.03553144615290306,0.02000672567252483
1776715184.2467601,-0.021291439308693448,0.10251053197239048,0.03595790512700246,0.02075989915863502
1776715184.2662516,-0.019530870985674752,0.11112640975752046,0.036236911426209814,0.011418022430972355
1776715184.2863388,-0.017190392191239127,0.11310295035103116,0.036422745400161785,0.009413976504789048
1776715184.306247,-0.014567759287984155,0.14395909612226004,0.03680828183534358,0.02659002772573929
1776715184.326236,-0.01083331341414287,0.2114605038873589,0.03746936701029223,0.03734290134881002
1776715184.3463366,-0.006993127588105127,0.25026458041551314,0.0380798691568789,0.033943526012688144
1776715184.3663373,-0.0017986318683672702,0.24702191619280295,0.03873936600496053,0.028999550178441608
1776715184.3862476,0.003419909875051547,0.2546817394719494,0.039247116100559185,0.02032198363323763
1776715184.4063518,0.00795408553321875,0.29026776570478546,0.0395717731452241,0.017892908457873058
1776715184.4263031,0.014411291381805457,0.3265098378335535,0.03999584932100929,0.023273109816780407
1776715184.446344,0.021298532211393627,0.3318104895667716,0.04047430633122647,0.021358346545451698
1776715184.466284,0.02811871376503947,0.3229598266145203,0.04085462496065767,0.012403334012903194
1776715184.486333,0.034918727100356345,0.33382951113612164,0.040844256085670966,-0.010978334829586461
1776715184.5062785,0.040723680780755625,0.3614333935355405,0.040591457586950846,-0.019398458578407524
1776715184.526351,0.04838725627801152,0.3767729485034821,0.04033692589854572,-0.002679212889033014
1776715184.5462396,0.05628827924071185,0.37735217097773743,0.040399620765608865,0.006925603119415147
1776715184.566347,0.06434398497118665,0.39725531379679546,0.040469595545991416,-0.0016041311292912669
1776715184.5862525,0.07281789909729561,0.41685454771239216,0.04040205465402279,-0.004698907422639065
1776715184.6063492,0.07992938727279462,0.4349265198013632,0.040316838170715595,-0.0030043030419227845
1776715184.6263382,0.0890808130273933,0.4431089076067972,0.04032334439934458,0.002487618253116053
1776715184.6463418,0.09823679626386339,0.43418821417219233,0.04049878013185178,0.014103185359629108
1776715184.666343,0.1072386707903357,0.4323773503841669,0.04083119871785121,0.016426167211257267
1776715184.6862512,0.11633631188771305,0.4407631160669533,0.04107910511056993,0.008181154869387294
1776715184.7063527,0.12366301010666003,0.43848779728275833,0.041202764466182346,0.007516197444357414
1776715184.7262194,0.13261766263276958,0.41902403276584016,0.04142252051744506,0.013922018937394906
1776715184.746306,0.14107784147966929,0.3959912070288915,0.041798003857005606,0.021001297457860613
1776715184.7663941,0.14938034027975877,0.402243209006606,0.04224911957363158,0.02294336958482214
1776715184.786476,0.15789693170938401,0.41678079005972757,0.042758316973999747,0.02444806069063102
1776715184.806316,0.16642135833677124,0.4006115741446569,0.04326736996317118,0.026244437415059912
1776715184.8264537,0.17304804199482532,0.3941810508686258,0.043723453812466576,0.02734973396593611
1776715184.8462846,0.18138668034916383,0.40846125735704764,0.04440500563175022,0.038674484800027095
1776715184.866273,0.18996980914116335,0.4162275451256122,0.04530217635342449,0.04501139226788889
1776715184.8863518,0.19861991075912222,0.41382254276244,0.04621087242291513,0.041450479028329434
1776715184.9062438,0.2072033197670061,0.4086049461471746,0.046953899667786965,0.030513351504079522
1776715184.9263282,0.2139495341194696,0.40155118565502634,0.047407247940240566,0.023718506884883334
1776715184.9463472,0.22219629611808603,0.3892106259994854,0.04795133300830656,0.028662106582793417
1776715184.966339,0.23020274603318958,0.3796800694283754,0.048530559604181546,0.027238593769702335
1776715184.9862626,0.2380402722531754,0.37002360495645437,0.04895716489841036,0.012215490584395305
1776715185.0062492,0.24549264580756258,0.34520625361008517,0.049001718735735014,-0.004546927840018589
1776715185.026294,0.251044483762892,0.3218337520332053,0.04884857651543773,-0.013990845681903785
1776715185.04635,0.257615403738087,0.31169564021015117,0.04859279473595913,-0.00951436572619807
1776715185.066261,0.2640325086248855,0.3030461227126259,0.04844568337126676,-0.0052818806863855206
1776715185.0862582,0.2701256344291973,0.2805469644888784,0.04825056022803501,-0.012542401179369805
1776715185.1062584,0.2757341651283603,0.2582452445119835,0.04798659188814171,-0.010893412967795196
1776715185.1264496,0.27996454042713603,0.25049888435287915,0.04787584571754169,-0.0011617554439534994
1776715185.1462514,0.2860860851788569,0.23830018279354603,0.0480873308616888,0.015680142683521803
1776715185.1662524,0.28991294373916227,0.21924841062214018,0.048423237082439244,0.024946202475573998
1776715185.1863384,0.29420266291683966,0.19088045239484852,0.04909738808828578,0.0381616107960184
1776715185.2062533,0.2977952462726978,0.15316326256678547,0.04995842137265374,0.04489900050275861
1776715185.2262826,0.30002512851235297,0.11440374539363396,0.05068260201639735,0.04363992272434722
1776715185.2463412,0.30201234479599515,0.07448104125929345,0.051651914873444824,0.05015092273562588
1776715185.266277,0.30312290929231944,0.03455025849922644,0.05273570607340216,0.053123413428642574
1776715185.2862504,0.3033790613801315,-0.011523906267764006,0.05377072106411129,0.04447659345632218
1776715185.306347,0.3028975953821184,-0.044626024536775,0.054504126113301375,0.04130565056818308
1776715185.326335,0.30155173800840507,-0.08578403375996335,0.055287833012532345,0.03360987627745973
1776715185.3462374,0.29943520020714254,-0.11440587568254268,0.055788932317566355,0.014497949854539754
1776715185.3663406,0.29695032736413024,-0.12364434377704714,0.05602515751328228,0.008469774047828282
1776715185.3862476,0.2942341174079762,-0.13386480617109908,0.05619114651715773,0.0071186922981462675
1776715185.4062583,0.29133847538666047,-0.14443549215337181,0.05620193781393284,-0.007014166295145563
1776715185.4263387,0.2889515528501944,-0.13946141141609802,0.05602057186434639,-0.015609904608313796
1776715185.4462366,0.2862470292713595,-0.11884018445839817,0.055610756502758873,-0.022245790916352315
1776715185.466277,0.28407499509338185,-0.08880293641936676,0.05516017284443083,-0.02029665244964765
1776715185.486243,0.28241503202550955,-0.0697600221126814,0.054820761742848084,-0.011631914719803127
1776715185.506185,0.2811513466493771,-0.05114888932499417,0.05456741804410534,-0.012319864464694102
1776715185.5265749,0.2805208570985891,-0.025622066127992005,0.054364351942203265,-0.012738243634710461
1776715185.5463443,0.28029904174208775,0.0036317417834875743,0.054160049752201074,-0.0061359874382885815
1776715185.5663579,0.28060900355582685,0.023220745503804707,0.05412449325275046,0.0011598336039497226
1776715185.5862622,0.2812225352240662,0.035686143991259134,0.05418510571936731,0.005053177917601098
1776715185.6064377,0.28189655214018317,0.04422900388027906,0.05426866401328782,0.004874094532599876
1776715185.62626,0.2830399377434985,0.06481604951485931,0.054303849959289455,-2.9220700850235426e-05
1776715185.6464846,0.2844945114724329,0.07454029785094696,0.054318720140821376,-0.0005872889018681549
1776715185.666359,0.2860905610625535,0.07583641488104687,0.05431327786466442,-8.954954168624574e-05
1776715185.6862514,0.28768307910574853,0.07731347091111329,0.054254604274617466,-0.006716490343677439
1776715185.7063444,0.2892913138148425,0.07879281253998072,0.05409879245228264,-0.008807106625975225
1776715185.7263212,0.29063445584350645,0.0825546089979603,0.05392371300754965,-0.01077317360605054
1776715185.7463462,0.2923110347716177,0.07693805656459218,0.05368767238309932,-0.011919225593720384
1776715185.7662745,0.29379486178018677,0.06311271474871105,0.0534573584226304,-0.011228901531934787
1776715185.7863498,0.29499605328977463,0.05339075199971277,0.053166377447003574,-0.015299688763455027
1776715185.806252,0.29602079696519423,0.04511261587313298,0.052931531011655354,-0.008082612543915596
1776715185.8262577,0.2967021317134798,0.0387935323760048,0.05286505643683319,0.0025894344390640645
1776715185.8462806,0.29739748799388976,0.02746501177342131,0.05291806029320371,0.002346628039856219
1776715185.866346,0.29778599380821613,0.011684430074183405,0.05297770003572308,0.0028224228800677875
1776715185.8863888,0.2979884449253538,0.005876569433879375,0.053135801695303464,0.013245521092502016
1776715185.9062822,0.2979569170337063,-0.006170807080151386,0.053603432924622184,0.029845085927403814
1776715185.9262612,0.29765486156429155,-0.023788383788768908,0.05425027602736594,0.03229654420306355
1776715185.946338,0.2972476389151637,-0.02359560254432591,0.0547548837694074,0.026884679923732002
1776715185.9663208,0.2967852654937615,-0.022125574196033337,0.055265348906624615,0.023830958863623408
1776715185.9863648,0.2962939786330481,-0.025571206726567763,0.05579355484151605,0.026027447561529138
1776715186.0063152,0.2958180682850306,-0.031238030405186912,0.056238770241663946,0.02724660797539938
1776715186.0262551,0.2952150268702334,-0.027433687779098825,0.05668139942808362,0.015144025451588272
1776715186.0462842,0.2946830328537091,-0.021668854299144225,0.05690979781932521,0.006871709585467428
1776715186.0663548,0.29433725384554077,-0.013839954363898621,0.05701742316284887,0.004343102234151075
1776715186.0862544,0.29404295777361833,-0.013687790289708457,0.05704615171421937,-0.0026410773046540437
1776715186.1062453,0.2936793648382756,-0.02142494553523866,0.056888111534506326,-0.012534162391404258
1776715186.126198,0.29339359859042835,-0.012962538743808594,0.05664609205048077,-0.015998143726608516
1776715186.1464624,0.2933385679635795,0.005873610811292451,0.0563161188016638,-0.013577912067395365
1776715186.1662812,0.29348030592664875,0.007620028703516191,0.056142215052503955,-0.004719864151239678
1776715186.186253,0.2936534190536644,0.00895015458938786,0.05603659472266405,-0.005502177890191751
1776715186.2062547,0.2939028736477347,0.01700916331793223,0.05587788214877072,-0.01055046397252321
1776715186.2265716,0.2941683765395827,0.0166851709564817,0.05573533661216418,-0.005299599747765588
1776715186.246247,0.29474816615506294,0.028717637721334732,0.05574738543047474,0.004734376830708015
1776715186.2663631,0.2951943939685936,0.02706289493477354,0.05580091200107533,0.0033390375375853265
1776715186.2862577,0.2956712629006145,0.015606147428158468,0.055822459681893546,-0.0012969653758136135
1776715186.306247,0.29607904131824425,0.022938054989966816,0.05581467128476503,0.003050745899182361
1776715186.326285,0.2964681017517467,0.02532394320361564,0.05590223355030877,0.007395329525399674
1776715186.3462887,0.29694032023916916,0.020090821423325966,0.05615711093796294,0.016102921582146296
1776715186.3662455,0.2972808335769239,0.013313447305275505,0.056453574395251734,0.012932672139355034
1776715186.3862607,0.29746346162552184,0.004761580233081264,0.056655691839524805,0.005512851042441896
1776715186.4062479,0.29754196612879014,0.0021780435028612155,0.05676421589152061,0.008158545540046747
1776715186.4262502,0.2976335404090274,0.004557501452601698,0.05699514612559607,0.011905229858524491
1776715186.4462833,0.297649441004189,-0.0017855444218037864,0.05721078862613907,0.014079425246764893
1776715186.4662619,0.29753217387024283,-0.009632797293347317,0.0573914303069602,0.003633057987889793
1776715186.486282,0.2973159163064466,-0.008764272701262454,0.057406132445998334,-0.002039653003242159
1776715186.5062528,0.29717268304340694,-0.005933870549563847,0.05733616003336349,-0.0020296186117048642
1776715186.526529,0.2970728351088517,-0.006553369225952066,0.05729219291428814,-0.003713617001509295
1776715186.546335,0.29687420852686064,-0.012053228799251525,0.05720295262593051,-0.005415473201296983
1776715186.5663586,0.29664906762583043,-0.008710459229051781,0.057055115900233225,-0.009972423492020072
1776715186.5863667,0.2965425847394828,-0.0012132257692301085,0.05685100587739545,-0.010652568038554883
1776715186.6065078,0.2965621200638814,0.001395743432038521,0.05667203221663735,-0.006491903850205399
1776715186.6262562,0.2965169648736379,-0.005073544675372577,0.056450688164965374,-0.011893190861415048
1776715186.6462955,0.29639634252893027,-0.00874031914794493,0.056272055798935045,-0.012291303038994478
1776715186.6664124,0.29627495193101344,-0.002749721797453808,0.05607876804756383,-0.003886944619982624
1776715186.6862607,0.2962322019884721,-0.0020410880938461773,0.05611751021596256,0.005662883779940314
1776715186.7062678,0.296176581199873,-0.003289427931905786,0.0562850475558401,0.00964144939003625
1776715186.7263412,0.29609340714156385,-0.0041387461095449,0.05637520798743745,-0.00035718245006508
1776715186.746357,0.29593530031104914,-0.011979462988974343,0.056387985934990614,0.0006789087878016908
1776715186.7663457,0.2957420015224176,-0.0066376908946468305,0.056497105781616284,0.011664953090342933
1776715186.7862606,0.29578999163431935,0.010270046646708386,0.05676178279592872,0.012388816425219579
1776715186.8062494,0.2959448444386491,0.00199831715560872,0.05688579453603528,-0.0014892785777549655
1776715186.826343,0.2959313632565961,-0.004627407786817805,0.05676576000813238,-0.013916493844228828
1776715186.8463542,0.2958901503324537,0.0021554529738925243,0.05641932306514183,-0.01585392047636408
1776715186.866254,0.2959560434247761,0.005715080117248417,0.05629389619177348,0.002085446483409109
1776715186.88625,0.29613569134673273,0.01052704557503048,0.056326724767737535,0.0014589501847430963
1776715186.9062986,0.29630786736094994,0.006316752471580367,0.056268835264396425,-0.009107401333931092
1776715186.926582,0.2963754384109428,0.0018621479348129855,0.0560272146563784,-0.01076029849538146
1776715186.946444,0.29646601300532904,0.008622589797255609,0.055868604437951476,-0.0077154128977836856
1776715186.9662595,0.2966911370156788,0.01276572045606561,0.0559153729320728,0.012043346892057188
1776715186.9862506,0.29692872294078965,0.008912435183816347,0.05623173731792363,0.018239617212352843
1776715187.0062535,0.29701394542904735,-0.0007612383274261392,0.05650539158096095,0.006866934352353915
1776715187.0262573,0.2969617162880623,-0.0062748032913017004,0.05661427932390649,0.005988232485685113
1776715187.0463424,0.2968736440274781,-0.001412009726172725,0.056764842949599686,0.00919579310760299
1776715187.0662787,0.29683924798687844,-0.001436686156278899,0.05703019926595937,0.015106763936878792
1776715187.0862577,0.29676914977537205,-0.005005622771429019,0.05740186036164294,0.020554786473234776
1776715187.1062543,0.29668742456710895,-0.002968405379810135,0.05771613769947966,0.00915937423086055
1776715187.1262555,0.29658627464596465,-0.008903333470485442,0.05778060630176221,-0.0013058173316326804
1776715187.1462874,0.296397473256683,-0.01059442788692544,0.05772265837457802,-0.003338902191246357
1776715187.1663427,0.2962795867642899,-0.0020763679663764467,0.05768575130085652,-0.0006940630760824962
1776715187.186265,0.296176093210758,-0.007489810166788513,0.05767689096001806,-0.0009354975304502189
1776715187.206249,0.29601028518586636,-0.0085622546351789,0.05755550665294855,-0.010215702500282586
1776715187.226396,0.2958277638738935,-0.007451597853186831,0.057286006483295224,-0.015666320360939956
1776715187.2463446,0.2956874814288435,-0.011687678318024863,0.057028798842466845,-0.014610923686164401
1776715187.266403,0.2954207153764069,-0.013472140860798842,0.05677132861988081,-0.010260034012084224
1776715187.2862628,0.29512945967965165,-0.01531022546726124,0.05663755709577289,-0.0029063274180146093
1776715187.3062441,0.2948252699050705,-0.013134964008864158,0.056563945347951415,-0.003715531189704413
1776715187.3262792,0.2946171705310678,-0.010671393914196026,0.056490940311895575,-0.004565116309643014
1776715187.346421,0.29440204126303926,-0.009017167517210045,0.05644781403504948,0.0007170587252859073
1776715187.3662386,0.2942425651869327,-0.006041131435021607,0.056482023917663236,0.003001540984141432
1776715187.3862474,0.2942016102025201,0.0009188142906663144,0.056539160153588605,0.002231037370284128
1776715187.406247,0.29421880120402816,0.0018584923472326764,0.05660980028845394,0.005001060813638408
1776715187.4263096,0.29430051060527834,0.005303538103822891,0.05668249803213441,0.001290977366787377
1776715187.446319,0.2944383533897357,0.011494697753897998,0.05666659715772491,-0.0021947706247970877
1776715187.4662719,0.29479437231578565,0.02033940993776251,0.056596689805950604,-0.003974026719406359
1776715187.4863565,0.2952503071886895,0.022987775186653958,0.05653887372783953,-0.0034503149614769357
1776715187.506252,0.2956329839175035,0.012445654356039837,0.0564576964762475,-0.00458350451529177
1776715187.5263152,0.2957687523419823,0.002874196566643006,0.05639474528381001,-0.004734019547459695
1776715187.5463147,0.29567404649189355,-0.011201597490035242,0.05625894730546023,-0.007631253227847051
1776715187.5662484,0.2952470661525028,-0.03090859706000615,0.05603588643915887,-0.013555431571748239
1776715187.5862513,0.29427798445928804,-0.06316552006245779,0.05580795640263621,-0.006733977864269491
1776715187.6062512,0.292578307445849,-0.10108386574174988,0.055779264658662904,0.003463227311122141
1776715187.626235,0.29003524957225,-0.14236571714875423,0.05587130006950897,0.006359278973389282
1776715187.6462433,0.2873092786736987,-0.18362946418216197,0.05598260257125916,0.006675622687659116
1776715187.6662607,0.28298058170684826,-0.23217122027608905,0.05612659363248637,0.008689420951482646
1776715187.686257,0.2776639096559575,-0.27720711985342517,0.056389856318689056,0.017256771857868003
1776715187.7061968,0.27137053016799517,-0.3252614817515065,0.05705073718126016,0.04388135608543331
1776715187.7262595,0.2657155826091613,-0.35315796003071753,0.057867790869707475,0.05697654125858992
1776715187.746253,0.25807418523994363,-0.38125684348620736,0.05912414295554862,0.06064543722506649
1776715187.7663486,0.24973527986844846,-0.41948970551769305,0.060355780922056707,0.05892406812967618
1776715187.7862456,0.24061988467910947,-0.4536475785194042,0.06166859168973519,0.06381948555272426
1776715187.8062441,0.23088383510380867,-0.47794596033708714,0.06305442311025256,0.06864619796195315
1776715187.8262613,0.22278064824247945,-0.4971738498158811,0.0641336133487881,0.05812565216488183
1776715187.8463433,0.21206644493851823,-0.532140551527832,0.0650524699217009,0.031246302161735157
1776715187.8663416,0.20055050549419723,-0.5734309605898994,0.06544164158432865,0.00618861537656426
1776715187.886259,0.18836739649735298,-0.5952467825763237,0.06544211752525189,-0.00445238151066224
1776715187.9062505,0.17588865640303655,-0.6001567101125546,0.06526471201318478,-0.012298201346090193
1776715187.9262764,0.16332670275214595,-0.6076393835380163,0.06495544597142222,-0.01778415710825687
1776715187.9463475,0.15310761878452323,-0.6157413130590416,0.06458050754904643,-0.02531464103265313
1776715187.9663498,0.14030159925229074,-0.6116304391615297,0.06401680284393166,-0.02909654596223088
1776715187.9862618,0.12779378143960402,-0.5880965136815639,0.0634649677699819,-0.021369854153602624
1776715188.00625,0.11578684345314325,-0.5656622898554305,0.06317285726000069,-0.007795336887049975
1776715188.026257,0.10421860704092686,-0.5446305099301018,0.06307649128933655,-0.0001566500094325185
1776715188.0462687,0.09523622901292916,-0.5328429867492112,0.06306739256177636,-0.002298465257346921
1776715188.0662477,0.0841505979741324,-0.5305559620810918,0.06296870423129332,-0.00705162306679627
1776715188.086365,0.07315463284788298,-0.526010601214686,0.06273478264274665,-0.014558601377380742
1776715188.1062577,0.06231640186532102,-0.513188868348545,0.06252182051978848,-0.005795537916860549
1776715188.12631,0.051797751351433885,-0.49698409605511584,0.06253871238021944,0.00681355187414856
1776715188.1462593,0.043610095085171094,-0.4846867946658254,0.06263635098586903,0.004452819245133771
1776715188.1663406,0.033640646482234075,-0.4707750967312915,0.0625527690458608,-0.011935461147134424
1776715188.186257,0.02417376805867138,-0.4371399966062466,0.0622984669622871,-0.012476511483045183
1776715188.2062612,0.017100754636060207,-0.4097207606215794,0.06215547146712934,-0.003049201161776094
1776715188.2262516,0.007307521150326372,-0.3750432757991736,0.06225762768445314,0.005166213670852876
1776715188.2463725,0.001232285873762558,-0.351867449818982,0.06223733005282733,-0.004259565038090829
1776715188.2663648,-0.005876983853308733,-0.3328256307328602,0.06190123527490536,-0.02936294791648425
1776715188.2864199,-0.012733897624284809,-0.32353579141222116,0.06114008430370413,-0.04058698277358283
1776715188.3062618,-0.01919116136907976,-0.2978188554542799,0.06023792691805918,-0.044835155353342454
1776715188.3264244,-0.02397873152225526,-0.27230978906539915,0.059596934950235714,-0.03679036305568312
1776715188.346366,-0.029344361962452343,-0.24377841211554435,0.05881295454880645,-0.037125600104595646
1776715188.36644,-0.034055502469448856,-0.20539399605531844,0.05794404339876435,-0.04697892744089563
1776715188.38624,-0.03792463984371294,-0.16519632515625451,0.056915077070772896,-0.04598333680138261
1776715188.4062529,-0.04082235606353115,-0.11038713770678966,0.05618934648058682,-0.02326648641910256
1776715188.426617,-0.042380285805979794,-0.04140938759055353,0.05599114485632302,0.003984798961501279
1776715188.4463673,-0.04268154245914212,0.0038660285062043637,0.056143533182518406,0.01254949907307537
1776715188.4663658,-0.042109488822379144,0.048260432349591334,0.05636650424627285,0.009686934441501732
1776715188.4864461,-0.04080236801932098,0.07943757722185582,0.05654847111643914,0.007566419998962931
1776715188.5062745,-0.03887260874491939,0.10442841250266385,0.056704235669156014,0.01058646685562814
1776715188.5265431,-0.036958143913790834,0.12476284427967257,0.056882303775762325,0.011533075338616472
1776715188.546455,-0.03419663764675317,0.13602875867851982,0.057259536345844506,0.022457964953056714
1776715188.5665824,-0.031361691798860926,0.1348050576745496,0.057644149287557137,0.013122409755449177
1776715188.586239,-0.02853336785397536,0.13630421001405918,0.057750789449193665,-0.0058160695830677955
1776715188.606346,-0.025638468574241447,0.14197313823461327,0.05755840599651344,-0.008212035506985682
1776715188.6262584,-0.022641716389516856,0.14525210109600833,0.057354271026370654,-0.011019003078889228
1776715188.6464524,-0.020219126238067448,0.143651205323912,0.057152220671512766,-0.012773093348707382
1776715188.6662521,-0.017353918897397166,0.13119487359809967,0.05680659317350126,-0.019700239166351496
1776715188.686251,-0.014735824943187946,0.12037947611236673,0.056359434791921036,-0.02591221679013911
1776715188.7063193,-0.012764532488316214,0.11522044108362449,0.055847161129460435,-0.03387719586895843
1776715188.726691,-0.010571283374407853,0.09649084758655477,0.05503199573993964,-0.04430537261972409
1776715188.7465503,-0.008710536995703448,0.08161712838481287,0.05415776646857343,-0.03871217702713223
1776715188.766268,-0.007174893169563603,0.06857298286508735,0.053485264917224676,-0.02739356650240507
1776715188.7864232,-0.00589041909070687,0.054079918652719966,0.05295201875939427,-0.021827998091518058
1776715188.8064969,-0.004810136668297556,0.049111801660880736,0.052504907208876864,-0.022021961183435718
1776715188.8263495,-0.004051437676367658,0.04286062709777386,0.05219905677427009,-0.011854072473266891
1776715188.8463016,-0.003232142860159824,0.03710406964368761,0.052191834433389886,0.010916424108319583
1776715188.8662672,-0.0023888089985741167,0.04181733105753645,0.0526686613486408,0.033713497304922874
1776715188.8862553,-0.0015958707588475715,0.03283993713508577,0.05341995055093285,0.03747747215836619
1776715188.9066072,-0.0010716880854222787,0.01615004079498059,0.054161492414033244,0.03263552001026207
1776715188.926254,-0.000830027382081688,0.006087904012341662,0.05478434310812906,0.028623724219055846
1776715188.9462862,-0.0008535300074175762,-0.0066254291613138845,0.05531730478048355,0.03220252700255524
1776715188.9663317,-0.00115418973549874,-0.022138277376681358,0.05599764222036845,0.034495128794501756
1776715188.9862595,-0.0016638159683608656,-0.024673075284310834,0.05663289131201411,0.02326021343285309
1776715189.006294,-0.0022418475427315775,-0.029873662496273497,0.056821912994490534,-0.0032969603400595238
1776715189.0262568,-0.0027040217336422997,-0.026590924746119994,0.05662482665270549,-0.02109803745945857
1776715189.046936,-0.003176594711124834,-0.01601656331963025,0.05617615649132654,-0.018463532833865898
1776715189.0663939,-0.003379036971982308,-0.0009496334659665189,0.05589357258363194,-0.009457331815704406
1776715189.0862641,-0.0030616111112449786,0.028486538847802896,0.055647255302838476,-0.01551705691846339
1776715189.1062615,-0.002368977570396557,0.035417749074984115,0.05514114965876359,-0.03304011559670153
1776715189.126369,-0.001832403964640171,0.027532586314661833,0.05457428108874905,-0.035186005763331946
1776715189.1462915,-0.0012329085012656427,0.03296772778006767,0.053972316392824224,-0.020641612220309524
1776715189.166248,-0.00047581971060745086,0.03924255803292298,0.05366757789379381,-0.007997567941938594
1776715189.1862519,0.0003045707123505374,0.033223255714942834,0.05346234193347633,-0.011876896121259028
1776715189.2062647,0.0008689586937035565,0.021024762058976642,0.05320997323790118,-0.012798369906191459
1776715189.2264235,0.0011087808080581258,0.008639093854465017,0.05296456795440051,-0.0162811223818648
1776715189.2461946,0.0013122707669047684,0.009941790760531468,0.05265709076831271,-0.009857198345420537
1776715189.2662694,0.0015254564027435687,0.016900099433517096,0.052590299932566746,0.005428429165599408
1776715189.2863417,0.0018470956734301367,0.013735844641609232,0.052909777789405074,0.021915436547593592
1776715189.3062537,0.002051533877769517,0.006987251245347098,0.053386467333449164,0.02454084293406253
1776715189.3262074,0.0021705971708999216,0.005112334813225773,0.053801698957247804,0.012987886338708676
1776715189.3463411,0.0023097087099834004,0.009672614512184784,0.05399297325666039,0.010652220267752727
1776715189.366354,0.0025771365716740647,0.014816385956738743,0.05435209616531309,0.022839698568802774
1776715189.3863282,0.002808396832857548,0.007419471127820424,0.05489908648930526,0.029436205299209012
1776715189.4062426,0.0028301656685687767,-0.005064654099703185,0.05524772064723746,0.003464783891823836
1776715189.4266834,0.002639336843716,-0.012755438991449958,0.05511338289315119,-0.014758019868446548
1776715189.4464302,0.0023568654437740822,-0.014178893651409705,0.054892242315367254,-0.005808243084671899
1776715189.466346,0.0021452549114475885,-0.013377079888888869,0.05477982490785468,-0.007065105112105757
1776715189.486338,0.0017441588392073425,-0.024234860032745928,0.054531930319735245,-0.018832555335762002
1776715189.5062454,0.0011666915589650328,-0.03219503714374668,0.054026022599625884,-0.02614478786933072
1776715189.526645,0.0006378008121868401,-0.028770239484744754,0.053599067568521036,-0.025440474165115134
1776715189.5465028,5.535850102164951e-05,-0.02601662358147403,0.05318521061561192,-0.014244472804571973
1776715189.566294,-0.00044701633576634675,-0.024316633388885164,0.052866342617689466,-0.01612807885877543
1776715189.5862658,-0.0010128469601834132,-0.03195744523563728,0.05249347675738715,-0.01936807165838314
1776715189.6062574,-0.0018361502463815982,-0.04453042787093375,0.05217538722821644,-0.010620984769253994
1776715189.6263897,-0.0026880645862145543,-0.03597654937106631,0.052012363957282,-0.004458987985905827
1776715189.6463723,-0.0034056288826719372,-0.03183458324173033,0.05183996366776089,-0.01126315692353791
1776715189.6663136,-0.004022707316039765,-0.04341322282553547,0.05162222539013647,-0.013333404595529508
1776715189.6862679,-0.004937052949974547,-0.045445506521726714,0.051464984049076276,-0.001233874478417607
1776715189.7062776,-0.005844383814731202,-0.04026979684174212,0.051572305475879515,0.010049047852649096
1776715189.7264447,-0.006562685270220811,-0.02963354681593578,0.051798510469946,0.011447418087453948
1776715189.746418,-0.006923991075818518,-0.013292437351625327,0.0519823590351168,0.010456237511029254
1776715189.766373,-0.0072402541580631795,-0.014704162510949113,0.052257189279997444,0.013549227912591305
1776715189.7862618,-0.007518010701271312,-0.012797287446965594,0.052474445238503906,0.008458271923571598
1776715189.8062835,-0.00762298652621708,-0.0015799397741977916,0.05267667946510596,0.014094743732568776
1776715189.826408,-0.007614269666674379,0.0023442377154765034,0.05307618214360458,0.025982471177451505
1776715189.8464189,-0.007437381772761852,0.011487836062234583,0.05351731157802719,0.013518882939384913
1776715189.8662457,-0.007331332895560005,0.002015485180600185,0.0536383499363889,-0.0018855332231750288
1776715189.8862917,-0.007375734245591506,-0.009454144971503653,0.05362093981753688,-0.001502795730223938
1776715189.906348,-0.007450539134966373,0.004620703868325197,0.05355746647250158,-0.0034986688252435783
1776715189.9263115,-0.007384329078997089,0.0010540289732889792,0.0534215878705787,-0.009543623368947929
1776715189.9464874,-0.0074110644401846944,-0.007120498358126219,0.053079275655463304,-0.021427175310804625
1776715189.9664867,-0.007573713312653595,-0.005379698192548021,0.05254122577037475,-0.028855572044431427
1776715189.9862556,-0.0076756648073673045,-0.004446640410244968,0.052072467320058914,-0.015678541549101283
1776715190.0063283,-0.00761908324983521,0.009947540740594143,0.05185981530208406,-0.007688184698728534
1776715190.0267007,-0.007392235044659606,0.011312170238865521,0.05165374387761972,-0.010572519583016277
1776715190.0464256,-0.007305120040817202,0.00024145311558282367,0.051536638199011636,-0.0049233353596719875
1776715190.066457,-0.007236392719756863,0.006836868359718886,0.05159301680982774,0.009609239360876543
1776715190.0862577,-0.006950581351421802,0.021658827515492807,0.05185374410366253,0.013304378358009211
1776715190.1062582,-0.006549788168538087,0.012787748501575772,0.052062871569634905,0.007996680042756915
1776715190.1265965,-0.006484146101821599,-0.005917309377468635,0.05225766000353576,0.011067248466819307
1776715190.146341,-0.006634212968141738,-0.013907931970012558,0.05254908965138995,0.023102581589890397
1776715190.166253,-0.006914186262736206,-0.011236737526586361,0.052961036084638397,0.017852560661808015
1776715190.1865551,-0.007068859069765006,-0.008686264795219237,0.05326483374193728,0.01388416537986753
1776715190.2064285,-0.007392367209502702,-0.017001422875829068,0.05363090427195713,0.018948052755732164
1776715190.2269328,-0.007747355672426934,-0.02528876732039013,0.05387737756746548,0.01144852857003717
1776715190.2463727,-0.008302049679597138,-0.02404506973176634,0.054115477233324,0.012492422718500151
1776715190.266372,-0.008631066364936017,-0.007498128052481699,0.05428834249334091,0.0061535496321032945
1776715190.2865527,-0.008762383840843036,-0.006205419537817388,0.05438792886276494,0.0004593161284600633
1776715190.3064165,-0.009027047196987992,-0.0189987370712738,0.05446628865659029,0.006349888477268528
1776715190.3263829,-0.009319760248133805,-0.016834268018103414,0.054445373749527126,-0.005502767944554954
1776715190.3463218,-0.009646703864651909,-0.013736913247042796,0.054161458023280165,-0.022900012222824895
1776715190.3662705,-0.009900305283026595,-0.01258937635084827,0.05368904977878402,-0.020413975518532024
1776715190.3864806,-0.010212742438182784,-0.017492030345493906,0.05337091099630803,-0.011523386704397703
1776715190.4062803,-0.010680940372204835,-0.02703671411337452,0.05308232839822494,-0.017500410951153345
1776715190.4262986,-0.011003549553831354,-0.014066999997650861,0.05278074140224121,-0.022701628691211145
1776715190.4462504,-0.01113789580430604,0.001910860048942073,0.05236129807259676,-0.015139319648503485
1776715190.4663835,-0.011129229705142869,-0.0008433751948916449,0.05216608289687244,0.0010061176447920261
1776715190.4862835,-0.011139252076698788,0.0008909532625976102,0.05223065948821033,0.007551989604745207
1776715190.5062537,-0.011072732527268713,0.0042664984560722465,0.052293519543828,0.0014691269647792438
1776715190.5262475,-0.010938279921752645,0.008715582809712526,0.05237757056725278,0.004232920506850479
1776715190.5462554,-0.010751225515254125,0.0122489186587116,0.052573453004500295,0.018205365069762308
1776715190.566349,-0.01056128613266985,0.006666184496892755,0.053095148974326614,0.029357304369026394
1776715190.5865657,-0.010562571040523744,-0.005122487926362603,0.05346823871970002,0.018990829203430065
1776715190.6062427,-0.01075378017892509,-0.009398060812815065,0.053839886061639676,0.011715296370079065
1776715190.626391,-0.010948504954456761,-0.013316506855429903,0.054105226148841425,0.02309860523014093
1776715190.6464784,-0.011212841507847345,-0.013578396657642683,0.05463443786954156,0.024427725510503207
1776715190.6663713,-0.011500749018675226,-0.013533934763782882,0.05508975489010898,0.018064845663393475
1776715190.6862745,-0.011898834587318548,-0.022974084487365473,0.05528588903855531,0.0008110239258451724
1776715190.7062604,-0.012241704844702333,-0.01890346667003518,0.055194750110775556,-0.011270543964596591
1776715190.7264843,-0.012655279238464719,-0.015228357223489773,0.054993912123235025,-0.0014528896793595258
1776715190.7462828,-0.01288438869437841,-0.016028397051173884,0.05499763077289585,0.0018193795998262818
1776715190.7662766,-0.013154069592931767,-0.0092333313596865,0.054958013368519736,-0.009062267697775045
1776715190.7862554,-0.013355852248330155,-0.010039707309632655,0.054627387720442955,-0.021559699564647733
1776715190.8062706,-0.013568897887233753,-0.014297753437879701,0.05425339630934865,-0.022391216637648287
1776715190.826192,-0.013836005506437866,-0.010980476146165714,0.05393426128615543,-0.009798350275929762
1776715190.8462436,-0.01400307453773824,-0.0027743087667924035,0.05374078894035413,-0.0073149046286605235
1776715190.8662703,-0.014049026153231512,-0.003533979182597055,0.05366709422690031,-0.0051558531589096235
1776715190.8862653,-0.014123801050231161,-0.004519587946311222,0.053568997659187,-0.0009276263072344193
1776715190.9064338,-0.014174544633386457,-0.000780006758444883,0.05366783111610181,0.008633186877769372
1776715190.926262,-0.014124625269335573,0.006029379111164149,0.05385754131185359,0.01379311933755284
1776715190.946342,-0.013965736786966717,0.013502144704553118,0.05404775471618694,0.00822269070758122
1776715190.9662638,-0.013691564131135002,0.012282500757945104,0.054296066933337425,0.014919405375024564
1776715190.9863386,-0.013515475751930621,0.004326744365109186,0.054573533119970805,0.011494409501242253
1776715191.006256,-0.013365156580004908,0.010708407997322707,0.05472016409026087,9.75471845104936e-05
1776715191.0263617,-0.013180216708112345,0.014812034777507407,0.0546243038973973,-0.008987301631109779
1776715191.0462484,-0.012844668428228345,0.013193221153000943,0.054422987984634436,-0.011355438856415379
1776715191.0662482,-0.012661595970335053,0.0038781938861676413,0.05413961203430943,-0.011996838088029121
1776715191.086271,-0.012669331091139206,-0.005336258369411512,0.05390114561807923,-0.015017923202868183
1776715191.1062593,-0.012735336976392541,0.002195418916098181,0.0535175924020032,-0.01991451356002938
1776715191.1262653,-0.012634757113592071,0.006608872458340236,0.0530821063279156,-0.02443310987423486
1776715191.1463463,-0.012526097610905777,0.004338751711287066,0.05271041826160093,-0.01657930790489312
1776715191.1663573,-0.012496467002461972,-0.0005389446776578738,0.05242908883679179,-0.010958792862481637
1776715191.186263,-0.01257421996568151,-0.004002494323462308,0.052208047566384155,-0.010431605760886808
1776715191.2062418,-0.012591561734484297,-0.0006121064228125084,0.052087239839390884,-0.0060165415390413535
1776715191.2263596,-0.012527121865810762,0.006720118690350635,0.051910961741439256,-0.007722817447606334
1776715191.2462602,-0.012459236356673125,-0.0009714428583274953,0.0517511484429884,-0.009776948147092374
1776715191.2662761,-0.012661085422247519,-0.01706683824676747,0.05161567250758743,-0.00222935776468125
1776715191.2862673,-0.013041343365424795,-0.01847764577966325,0.05163898284623232,0.001684379441953321
1776715191.3062556,-0.013363597160043098,-0.012042755788572924,0.05169175867994983,0.0032449793672978677
1776715191.326252,-0.01362455321414207,-0.01537209220389417,0.05166988912541175,-0.005072553689777548
1776715191.3463418,-0.013935108773005269,-0.022189664172620305,0.051566971884095925,-0.007958468119659973
1776715191.3662467,-0.014456934937429042,-0.028651067036018794,0.05135721373089565,-0.010516046258783912
1776715191.3862484,-0.014997391595832514,-0.023736159266358005,0.05112424417057617,-0.012806703530357982
1776715191.4062567,-0.015410044307477697,-0.014644634195663135,0.05097173294848353,-0.0020000534377108414
1776715191.426249,-0.015708355796219348,-0.012858566917097164,0.05090170740515643,-0.0022554979408045683
1776715191.4462605,-0.015983902517051098,-0.016588999978957138,0.050849915532507,-0.004148575971480661
1776715191.466285,-0.016347235979200413,-0.018449463224318,0.05082936404304593,0.004898095249755818
1776715191.4862506,-0.016679625506755412,-0.013558028036257157,0.05108595174260487,0.01706805753297949
1776715191.5062642,-0.01677003915929881,0.003490359863134604,0.0514720207633908,0.01899083170732821
1776715191.5263727,-0.016671772293450467,0.011835736603022569,0.05177758149049205,0.01655250119623375
1776715191.5467262,-0.016439321206507724,0.00375104197157871,0.05228179161671841,0.02106261726464284
1776715191.5663383,-0.016319966765745774,0.0077372097179754795,0.052541755590292276,0.012671849703569216
1776715191.58634,-0.016049974371051455,0.019117511678885882,0.05275812285285719,0.009074172404030412
1776715191.6062577,-0.015651685207022332,0.01806501019916186,0.0529313448864715,0.011269445537841621
1776715191.6262388,-0.01531893558253861,0.014002914168393353,0.053060286391123826,-0.002549730816646001
1776715191.6462839,-0.015125338662686746,0.009566109496701218,0.052939197740910465,-0.011594415938178615
1776715191.6663432,-0.014926680532003325,0.010154503762355313,0.052550054145431194,-0.024591288354186114
1776715191.6862535,-0.014657983631226293,0.016441250173159144,0.05199641080561028,-0.026382235702353873
1776715191.706327,-0.014330743532013392,0.013397212238039385,0.051515461225516423,-0.017144194658849865
1776715191.726243,-0.014075702247659697,0.011564252743155493,0.05128126753320128,-0.011745222694715868
1776715191.7463026,-0.013838004384321506,0.018968023645614347,0.051035140007591503,-0.01696983388696824
1776715191.7664385,-0.013357337646928055,0.026362643940555174,0.05059974972791689,-0.027094860659152842
1776715191.7863421,-0.012838582754748647,0.0236276059482511,0.050131991103191706,-0.01675045782941581
1776715191.8062449,-0.012366505796777939,0.02105537225651284,0.0499119744424443,-0.003364999946047248
1776715191.826361,-0.012005549477203357,0.021970306775570624,0.049821463508035464,-0.00540182966263017
1776715191.8463356,-0.011532370832333255,0.023183111153111634,0.04969364185173804,-0.005423081675035968
1776715191.8663673,-0.01105737230284571,0.021501192899430168,0.04962068665783065,0.0007799837254163222
1776715191.886254,-0.010779887861239585,0.0075531268239006355,0.04970658871401672,0.0033590696405156606
1776715191.9062543,-0.01073727509554008,-0.0016628705075428622,0.04974755865916333,0.0016728636503342553
1776715191.926347,-0.01071437431992418,0.0026069429744739157,0.04972726289182966,-0.0033218152589421512
1776715191.9463656,-0.01069211716305328,0.0007731196179157351,0.049657764929532694,-0.002377350112772597
1776715191.966388,-0.01071816602104605,-0.006151912661061208,0.04963524189371588,-0.0020291199690255224
1776715191.9863212,-0.011002919406161289,-0.019555483670960393,0.04947257733003696,-0.01358909055699628
1776715192.0062847,-0.011566720331756025,-0.03345045330501519,0.04919818153564377,-0.015689561709524874
1776715192.0266755,-0.012246594663257858,-0.04479177150094915,0.048919776454644306,-0.014673344114800979
1776715192.0465653,-0.013386158177885485,-0.067090409564414,0.04857709157192489,-0.020464723041528327
1776715192.0662587,-0.015005780559814677,-0.09031887699528526,0.04806207616982126,-0.028698896344271196
1776715192.0863814,-0.01712214102758274,-0.11391087763719296,0.04735565207179566,-0.039728523979741914
1776715192.1062462,-0.019693165582936052,-0.13209153210296692,0.04645418550326243,-0.04546595058004399
1776715192.1264622,-0.02201346830287634,-0.14625478228717192,0.04572612185646212,-0.04228378210574646
1776715192.1463778,-0.025210777319002616,-0.16179532158258478,0.04492351383354046,-0.031206174513080942
1776715192.1663508,-0.028704973715820543,-0.17504345106517905,0.044433430106734374,-0.017558292927607577
1776715192.1863666,-0.03260927845052768,-0.19786736532620824,0.04411569965790542,-0.013848098803578887
1776715192.2064836,-0.03600486261164307,-0.2104825990622698,0.04378733999743301,-0.022872205902026543
1776715192.2265456,-0.040557213060145814,-0.22492694569540506,0.04355732778124187,-4.620196907015317e-05
1776715192.2464013,-0.045571985117175695,-0.2577631231067842,0.04386024630756362,0.031765221029479096
1776715192.2663846,-0.05111072152486789,-0.27638137381130407,0.04445946468059663,0.021848109539576
1776715192.2864034,-0.05700659302241161,-0.2900059140955027,0.044779657981722745,0.009414046238990198
1776715192.3063447,-0.06206077767025811,-0.3149431245881086,0.044937272230579306,0.009775299666490211
1776715192.3263671,-0.06891931575145285,-0.34149628370313245,0.04518990994550551,0.01389990409805647
1776715192.3464773,-0.07619234223596763,-0.3571807735373418,0.04551248636621587,0.017573414220784844
1776715192.366358,-0.08387802394787894,-0.3809432812113218,0.045892367010749543,0.01775345364682296
1776715192.3862789,-0.09205993018676176,-0.40532240769796535,0.04626013289939848,0.015103861409733299
1776715192.4062438,-0.10075933180445729,-0.43059773752851704,0.046579130610543085,0.01450830316312579
1776715192.4262323,-0.10984712080894482,-0.44432776451356387,0.04689935929075939,0.017320211121233053
1776715192.4465501,-0.11931007054295184,-0.4626351783025372,0.047314313406179684,0.027293013127296595
1776715192.466367,-0.127238038887174,-0.48597009341355873,0.04784342125608475,0.03508812461438973
1776715192.4862757,-0.13750670456342526,-0.49912148230716363,0.048579101312799446,0.03604308697361583
1776715192.506593,-0.148082316346883,-0.5174569949039303,0.04931901023015882,0.03425733572555467
1776715192.5262794,-0.156874336499791,-0.5370771400828315,0.04986760164346352,0.03294037815913922
1776715192.5463524,-0.16818670501201266,-0.5478094339268139,0.0506247888772152,0.03817061312571854
1776715192.5665135,-0.17974443724941966,-0.5607624418520933,0.05134582602077175,0.03356918487257102
1776715192.5862398,-0.19157243777531152,-0.5772566789224867,0.052010155710017006,0.026983955461823472
1776715192.6062462,-0.20374593830925128,-0.5884325969231163,0.052511754934586916,0.022741566229319193
1776715192.626251,-0.21602219435937692,-0.5910351974810645,0.05282477906377188,0.0063975386620335195
1776715192.6464555,-0.22586299423266995,-0.5880426279065053,0.05293707256969836,0.009242210140803953
1776715192.6663802,-0.23819662484259202,-0.5970346988794779,0.05325962912050093,0.025336714748102035
1776715192.68624,-0.2507141652324367,-0.6014986803833301,0.05388979308351604,0.02937068294055628
1776715192.7063222,-0.2630893139440099,-0.5848252461983766,0.054289132727138624,0.006823154630098471
1776715192.7265036,-0.27269299839344147,-0.5651503832560079,0.054435518323936685,0.004355279868350048
1776715192.7462761,-0.2841723654517336,-0.539039894675494,0.05459630361706914,0.016487585529099902
1776715192.7662773,-0.2951229457125151,-0.5130839091202368,0.05499416189075444,0.018196369370111792
1776715192.7864788,-0.30553803242372596,-0.48623590416740803,0.055368916042425456,0.01835588057425891
1776715192.8067462,-0.31521481461224393,-0.4423310726341315,0.05573917434707444,0.013997173608280539
1776715192.8264737,-0.32240456781128246,-0.4167187474426508,0.0559867533433526,0.015421856706965997
1776715192.8463142,-0.3308750476210735,-0.394887857912668,0.05620118594052419,0.006330129791464301
1776715192.8663683,-0.33854701672413284,-0.3360094068161923,0.05618313503631554,-0.00819299047789565
1776715192.8862476,-0.34461823936853186,-0.24192311269980904,0.05591089304538789,-0.0200605836778186
1776715192.9062572,-0.34853478708482194,-0.13480055918903888,0.055303207560055814,-0.037644740399772586
1776715192.926438,-0.35000748581966656,-0.04681325602123121,0.054536277712149396,-0.05612376944925579
1776715192.9463987,-0.3501597971245446,0.032400943944878025,0.053099659313816314,-0.07737331192944583
1776715192.9662771,-0.3488032053818535,0.09781982415346713,0.05156608695807122,-0.07096847228849437
1776715192.9863305,-0.3460197610902033,0.16949811585734986,0.050207213929692615,-0.05758299869678307
1776715193.0062501,-0.3420504565542761,0.20595179866153435,0.04887840640758903,-0.07522618705621079
1776715193.0263712,-0.33862862127405724,0.20450951453437816,0.04745585608098997,-0.09354922135479432
1776715193.0463893,-0.3343073893154279,0.21082386260415997,0.045334856769424926,-0.10958501193918392
1776715193.0662725,-0.3295896971680395,0.24361241779892062,0.04317669772858068,-0.09151883997986054
1776715193.0862978,-0.3242560420005967,0.2634114618781961,0.04163650196487173,-0.0545444581902073
1776715193.1067753,-0.3189923821624402,0.24103493415256816,0.04057390640512655,-0.04425901044529837
1776715193.1265347,-0.31438517488563267,0.20178974475955103,0.03959964597132649,-0.05137163801594696
1776715193.1465514,-0.3111928110063771,0.18011916597862188,0.03870762823576497,-0.05432235660250326
1776715193.1662796,-0.3076417399279111,0.15537244101058778,0.03774571289068485,-0.041462723335508864
1776715193.1863527,-0.30483946764633013,0.11044962498803179,0.03710229777060969,-0.019727941579988487
1776715193.2064638,-0.303351890146232,0.0691699174942968,0.03692040274829536,-0.005491906401516214
1776715193.2264094,-0.3023439182653376,0.030076167526365438,0.03677527097273332,-0.006139765937752978
1776715193.2463562,-0.30209061046334273,-0.002714754710245071,0.036457135711326395,-0.02466943745213558
1776715193.2663984,-0.30252759783250804,-0.038202055269342616,0.03584004070862534,-0.029780333280019472
1776715193.286493,-0.3036063979886398,-0.06507619326342895,0.035379314243125556,-0.014808679824370369
1776715193.3062556,-0.3052078595987551,-0.08619654185441583,0.03525822352852699,0.0037629983573849862
1776715193.3264554,-0.3067233773371086,-0.09504189063518276,0.03535889020292991,0.005856019303243948
1776715193.346386,-0.3088684872135884,-0.10974712457585056,0.035486668696354945,0.0017776794743429442
1776715193.366302,-0.3113554638255159,-0.13370509207400172,0.03554944267386301,0.003978132448159893
1776715193.3864112,-0.3144871601197563,-0.16637202558727637,0.035738458412583836,0.01766232047091676
1776715193.4067073,-0.3182355872500213,-0.1939853685581413,0.03632868085618736,0.036385350789920265
1776715193.4263628,-0.3215683859019743,-0.20294058681770655,0.03676400176704041,0.021867940212567077
1776715193.4463542,-0.325995887671398,-0.22411964492519787,0.03700014863382005,-0.003556359079330454
1776715193.4662704,-0.3309557586330605,-0.24739261675128887,0.0368770041941317,-0.004164893064294656
1776715193.4867654,-0.33608968523903837,-0.2423765377096181,0.03682629031726904,-0.0022291623491600826
1776715193.506312,-0.33991713507584087,-0.21465102366747002,0.03694506404307312,0.015907424914454876
1776715193.5265691,-0.3440497328526804,-0.18174900845569275,0.03729769580476372,0.018729278959078874
1776715193.5462687,-0.34760889561742564,-0.15934277802290475,0.037440244381808055,-0.004755808501971603
1776715193.566299,-0.3507924118372103,-0.1438546683542712,0.03729695255441187,-0.011528359075124603
1776715193.5862443,-0.35339444323921737,-0.10499265940181035,0.037008739535878576,-0.01646715450676728
1776715193.6067386,-0.3550932250248008,-0.0596974642370407,0.03648690867589155,-0.03195015571259677
1776715193.626497,-0.3558498472848268,-0.031505264430675695,0.036120151828681946,-0.01710261274205481
1776715193.6464987,-0.35630751861191595,-0.009967867218027227,0.03560986773303637,-0.026743853979404653
1776715193.6664128,-0.356320072037815,0.004502402680542472,0.03472108036454685,-0.06441642179878629
1776715193.6862512,-0.35597614615468776,0.02967429125757981,0.03318361176609351,-0.07634381811442537
1776715193.7063606,-0.3552033003430454,0.0618129362099793,0.03195760875511865,-0.07281104671943948
1776715193.72642,-0.3536081280081478,0.09044821748341181,0.030653037624410524,-0.05266933129171496
1776715193.7463558,-0.3517649085183985,0.08574442603520238,0.029580219438608987,-0.052429141333139376
1776715193.766348,-0.3498786165377022,0.09443716174751637,0.028511405629123465,-0.04913961889099752
1776715193.786249,-0.3477908705258494,0.10651440242257493,0.027689306386369347,-0.03152674517299575
1776715193.8062503,-0.34553520375725183,0.10654727546352483,0.027098512258748108,-0.02395310230817768
1776715193.8263724,-0.34387328626442737,0.0925975803310699,0.026748985104412162,-0.01816073808133048
1776715193.8463237,-0.34218165619094465,0.07031176110655435,0.026571826298275654,-4.508546545206604e-05
1776715193.8663487,-0.34078452160473505,0.06451209690585602,0.026648556812963492,0.006538627968176558
1776715193.8863592,-0.3396129224583982,0.047570401370435,0.026759125543306325,0.0059177999845103635
