Abanesjo/go2_pendulum_ros2/src/go2_pendulum/go2_bridge/data/center_joint2.csv
timestamp,pendulum_joint1_pos,pendulum_joint1_vel,pendulum_joint2_pos,pendulum_joint2_vel
1776715060.9800596,0.0,0.0,0.0,0.0
1776715060.9947033,0.0026474317534311213,-0.00018293632283811982,-0.35660813320528667,0.00040219368276206424
1776715061.014849,0.0026652611529833243,-0.00010261995827115077,-0.35660520089117564,0.0003374405726397356
1776715061.0347745,0.002623297120350422,-0.004076944745238563,-0.3566307934781068,-0.00253545095291563
1776715061.0549302,0.002529821927280392,-0.005098068688945821,-0.3566769127963749,-0.0018922648153734123
1776715061.0751157,0.0025156994408667625,0.004255447416325282,-0.35666720597005375,0.0024221596732196815
1776715061.0948656,0.002585210972825822,0.004595442775247355,-0.35661086227799904,0.002441680170494065
1776715061.1149058,0.002602047620925113,-0.0024276121400865743,-0.35657567283457026,0.001556610477610132
1776715061.1347103,0.0025565058206072607,-0.0031040422180688707,-0.35657367355941383,-0.0024971628847236804
1776715061.1547554,0.0025275068667316276,-0.00048802965376340025,-0.35665494280310833,-0.005820626297579734
1776715061.1747591,0.00256176075369586,0.0024547418862644315,-0.3566087310617485,0.007489337486272785
1776715061.1947405,0.00258784549692304,0.0027755200320304565,-0.3564502149405,0.010896139151042483
1776715061.2147121,0.0026271989376917253,0.0010957741371047675,-0.3562915959515385,0.0012868538907631066
1776715061.2347095,0.002584234525854334,-0.004322902334325709,-0.3563532776868347,-0.0036105229445584364
1776715061.2547712,0.0025350120993215585,-0.000864796401877325,-0.3564663736336097,-0.0075512216662003695
1776715061.2747722,0.002591649822225911,0.007427898882074936,-0.3565536233246053,-0.0028305225293971947
1776715061.2947218,0.00268295926578567,0.0019204730843797669,-0.3564966463477028,0.005831004927262073
1776715061.3147225,0.002682326992468516,-0.0031593702584100302,-0.35637419281780813,0.004969854863665413
1776715061.3348103,0.002628078708924654,-0.00021020358795189806,-0.3563690721368592,-0.005759686000155417
1776715061.3549953,0.00260939559439285,-0.002328857919512148,-0.356478629025997,-0.006675840905529418
1776715061.3748713,0.0025965041181176163,0.00012911790221309827,-0.3565106671047926,0.004299204707141735
1776715061.3948376,0.002578526804531465,-0.0019341546703211601,-0.3563099274477558,0.013015374968445403
1776715061.4150867,0.0025168547277467155,-0.004439709104867852,-0.3562799811612122,-0.007159164214416647
1776715061.4348629,0.002465725862303653,-9.522793999794388e-05,-0.35641485471052237,-0.0076713617091788144
1776715061.4549172,0.0024668511954446387,0.001829013788891794,-0.3565088940962348,0.001315029829852321
1776715061.4748583,0.0025476803467580785,0.005887631159214191,-0.35648828047171616,-0.001073752604611844
1776715061.4948473,0.002632125699678305,0.0030722530351310513,-0.3564682164641303,0.0030884137304356685
1776715061.5147102,0.0026315718628324714,-0.0035706697699968834,-0.3564464309645733,-0.0006003057587464777
1776715061.5350893,0.0025969544578069784,0.001009955379290866,-0.35654347875320513,-0.008267448563880286
1776715061.5547247,0.0026527705111235953,0.0026561755448013223,-0.35661049313012183,0.0009616541716515048
1776715061.5748684,0.0026801485237231528,7.228168528322209e-05,-0.35661827173547045,8.62514549870852e-06
1776715061.5947504,0.002661245320789599,-0.0014093001283492362,-0.35662041934535366,-0.0030236204166649294
1776715061.614731,0.0026320046885240254,-0.003273209536873426,-0.35665038533704385,0.0018778941166335272
1776715061.6348312,0.0025993893072165184,0.00030790211082601295,-0.35658167252217476,0.0039031004456755447
1776715061.6548216,0.0026193312329080877,0.002275131231267137,-0.35656419360747604,-0.00011123797545531389
1776715061.6748524,0.0026616881358818246,0.0008800618879281899,-0.35659886514514433,-0.0043044812654773335
1776715061.6948233,0.002655708982741666,-0.0021598761747517337,-0.35664919198073797,0.001061831162970206
1776715061.7146976,0.0025590926762770797,-0.006408755750268342,-0.35651473825343843,0.009793241294103083
1776715061.7349124,0.002520074133034468,0.001481497446512531,-0.356350765652529,0.00559908316072244
1776715061.7549891,0.0025682682612846877,0.003922971466918161,-0.35634031541902655,-0.004859292457433773
1776715061.7748544,0.0025879709782780378,-0.0027257749123130275,-0.3564234554212347,-0.001674994414348152
1776715061.7948778,0.0025463647695474637,-0.0019838142508003037,-0.35642530620067625,0.002403256224423389
1776715061.8152452,0.0025196129828035747,-0.00017924954128977627,-0.356353718593168,0.0033509102527187196
1776715061.8352718,0.002532221601063531,0.0012346432403897807,-0.35631061395493263,0.0007878600026864913
1776715061.8548307,0.0026134196608891564,0.004301148511560365,-0.35636051435383564,-0.0035742574109618452
1776715061.8748481,0.0025711264713137254,-0.00579223509330113,-0.3563923647429657,-0.0003654428740333948
1776715061.89474,0.002526904599502452,-0.0022514112930005666,-0.35644904016449486,-0.0026525301648396837
1776715061.9151864,0.00252507988065314,0.002959043796038962,-0.35649227370690084,-0.00320454257075542
1776715061.934843,0.0025585119025406055,-0.002131453704531632,-0.3564707010618682,0.0050282318563001915
1776715061.9547548,0.0025564014744987006,0.0024967469501980515,-0.3564315916345386,0.0008138030111446426
1776715061.974884,0.0025399312749161563,-0.0021159323607513377,-0.35650917362054113,-0.007991544450664412
1776715061.9948587,0.002496833434499923,-0.0024428698880134677,-0.356657089881277,-0.005005387828904917
1776715062.0147107,0.0025132686505471317,0.0041332633288603425,-0.3566860411528051,0.0018119563037484188
1776715062.035139,0.0025771299128437477,0.002801964390281445,-0.3566340212788167,0.00362409398332586
1776715062.055264,0.0025875275079157477,-0.0020032634354868123,-0.35656493304744497,0.0019246836892781172
1776715062.074801,0.00254357019507123,-0.0025105636527847155,-0.35663522375574885,-0.007755789423030679
1776715062.0947628,0.002499308027227475,-0.0008612868134977121,-0.35675563337115895,-0.0047818671508081945
1776715062.1151137,0.002554485444493516,0.005579841988815545,-0.3567691264680091,0.003915288062748212
1776715062.1347454,0.0026198087149649925,0.004240102503903803,-0.35669300151582395,0.003248725514501727
1776715062.154848,0.0026173676463368536,-0.005207779595511107,-0.35664903900016076,0.0006505533468710301
1776715062.1749747,0.002499248567298607,-0.0047090676593481776,-0.35665638137736144,-0.0010283968741262584
1776715062.1946962,0.002501987361294006,0.004053435717586191,-0.3566647071545659,0.0009224798376947785
1776715062.214801,0.0025957832244473886,0.006567150814593296,-0.35661596523976086,0.002703526286785385
1776715062.2347023,0.0026848254960554385,0.0006246807021172626,-0.35658055421387724,0.0016842202474891543
1776715062.2547307,0.0026055650090765162,-0.005933429897446589,-0.35651511182872303,0.003714213444586223
1776715062.274703,0.0024955892713282215,-0.006734488114294877,-0.356489626798516,0.0009597232861970895
1776715062.2946904,0.0025057021422052587,0.007480102585577684,-0.35647739065378387,-0.0015265568146027864
1776715062.3146894,0.002654060981443037,0.0041635158851229355,-0.3565213395229755,-0.0004595428612896857
1776715062.3346941,0.0026175561860338737,-0.00933627780982548,-0.3565631076861213,-0.003874985666602937
1776715062.354688,0.0024448823817280725,-0.009504455081942146,-0.3565525313672108,0.0037661539095232843
1776715062.374686,0.002374845396030564,0.005436909288074171,-0.3564997785232664,0.0016118440522456812
1776715062.3947754,0.0025864045779654472,0.013259263943284116,-0.35655773301755944,-0.007850421323815526
1776715062.4147468,0.002725279694830591,-0.0013778382423816453,-0.3567625304844784,-0.008720898017744672
1776715062.4346843,0.002603857763875463,-0.009665812090464975,-0.3568687977497138,-0.0023547740021014896
1776715062.454771,0.0024790459747295285,-0.0037012849288114583,-0.3568092257602944,0.007493357962027103
1776715062.474729,0.0025089700306382013,0.00572931762387544,-0.35666833851232443,0.007047260024084734
1776715062.4946864,0.0026349762637905413,0.006986263254245185,-0.35659784324588883,-0.0013313657634408393
1776715062.514684,0.002672051609372092,-0.003458951423228506,-0.35691169498215786,-0.027235921075226655
1776715062.5346913,0.0027591722096809565,0.0031526896876186584,-0.35686709656305304,0.03474660345367053
1776715062.5546994,0.0023932555552097605,-0.0321488370333811,-0.35541990476246965,0.13415577007681745
1776715062.5747316,0.00163325579845946,-0.04470356173931861,-0.3530427777902159,0.095599942594917
1776715062.5947063,0.000728015149185619,0.00803639468527536,-0.35218248660297946,-0.004233138291720229
1776715062.6147056,0.003499168377214491,0.2045864491109327,-0.35087595533424376,0.11518913338130576
1776715062.6347349,0.006272064953079706,0.1732715381175297,-0.3493628061227774,0.09323126821070216
1776715062.6546926,0.008184579395505796,-0.05462981139971358,-0.34837713939996495,-0.02972599155592104
1776715062.6747365,0.007509204990480077,0.004061977035802054,-0.3486982376651309,0.0035718918623572904
1776715062.6947608,0.007645811725279463,0.008387433908373022,-0.3485970347268612,0.0053877993716424655
1776715062.7147038,0.007882795418309881,0.0114836076738211,-0.3484081791651218,0.009951909259334535
1776715062.7347775,0.008028047766485302,0.0024493942052515073,-0.34829865692062406,0.0014572687168893372
1776715062.7547479,0.00792245244368901,-0.015564638768029493,-0.34840373935235935,-0.013364142578087046
1776715062.774777,0.007703937465639174,-0.003955513978000827,-0.3485328420581441,0.000752018284643996
1776715062.7947528,0.00776460384106516,0.010742922483309287,-0.3484803041403185,0.0067281115221253796
1776715062.8147123,0.00795088739076481,0.006145613995699455,-0.34841641834303677,-0.0033104431052681793
1776715062.835033,0.008077235294831668,0.00435799254802589,-0.34841214055917963,0.003443354071025806
1776715062.8549414,0.007896449503398385,-0.01832208849380045,-0.3485025358001871,-0.00963822905814049
1776715062.8746727,0.007664598675156273,-0.014592122343843196,-0.3486146097272772,-0.007722606865184556
1776715062.8952117,0.007644784047695665,0.014229635994196334,-0.3486744080619703,0.004873447435161493
1776715062.9146957,0.007842769664853576,0.004836762322885251,-0.34860985424241325,-0.0008019481923838834
1776715062.934779,0.007969665082844963,0.0036165350796189405,-0.34857933012123554,0.004142140652473647
1776715062.954717,0.00793089473681608,-0.0036813288401644044,-0.3485974897489177,-0.005322249481232166
1776715062.9747052,0.007746198821340531,-0.014124642897423413,-0.348780949282932,-0.011496849984004909
1776715062.9946976,0.007621410217881595,-5.013181985059206e-05,-0.3488580423390736,0.0020023728007104724
1776715063.0147042,0.007651248762297383,0.003366317564512642,-0.3488201335926955,0.0026368256474058605
1776715063.0349789,0.007748798465345724,0.00445443362402392,-0.3487612506090586,-0.0006850490997934999
1776715063.0547788,0.007748715644845955,-0.001422631364404934,-0.3487337716899285,0.00416552577600382
1776715063.0746863,0.008115563563353276,0.026830531469062877,-0.34869782684288225,-0.0017427724206957595
1776715063.0946984,0.008940933519983818,0.056648796475451256,-0.3486281073743114,0.009170040293830506
1776715063.1147528,0.009536833603852168,0.018095829643837224,-0.3486632713246218,-0.006750316255363598
1776715063.1349409,0.009346099244637921,-0.01539769151910043,-0.34895978530487004,-0.017095326399144684
1776715063.154788,0.009560189505064019,0.029430668187324913,-0.34881402211503165,0.027980432029170443
1776715063.1747413,0.009987932490835207,-0.009436998265066169,-0.3483265207158437,-0.004462119957313715
1776715063.1947207,0.009746868636548793,-0.024661977134012355,-0.3484393787973291,-0.010905624080849607
1776715063.2149668,0.009699288461551471,0.019630025977189804,-0.3483331058387473,0.019979011128530177
1776715063.234707,0.010017129769418886,0.00983964969577742,-0.3481007288970466,0.003896970973703451
1776715063.2551172,0.010206072728996492,0.004043202396077968,-0.34803919112421994,-0.002800570032011951
1776715063.274812,0.010206211128116554,-0.002174744133637215,-0.3481232029097785,-0.0020867348346420567
1776715063.2947109,0.009888104080287386,-0.027839222850995066,-0.34831378465859697,-0.01715373429205458
1776715063.314722,0.009751318741588279,0.01485171450289953,-0.34839611320527875,0.009442699759940276
1776715063.334952,0.010094875485473786,0.03310684366028952,-0.3481900435585066,0.019844334885334436
1776715063.3547359,0.01036847922307212,-0.007781435818431898,-0.34801620559994423,-0.004392559121006445
1776715063.37479,0.01017244250734474,-0.01016539411286373,-0.3480497687216818,-0.0009151471466589678
1776715063.3947802,0.009965429052025273,-0.004938945282804658,-0.3481129338705138,-0.003142032622167945
1776715063.4146895,0.009982340811371747,0.0042599504327957664,-0.3481627800035184,-0.0029952923202771764
1776715063.434773,0.01019628355259929,0.01709986750460788,-0.348143770965154,0.005784942330780196
1776715063.454969,0.010238486328493319,-0.008839229948736836,-0.3481959027796542,-0.00960707020246665
1776715063.4746814,0.010173471581093229,-0.003095482097922455,-0.348318517155079,-0.0032482072345593194
1776715063.4946854,0.01022255060099262,0.0077021356733069785,-0.3481342751362416,0.016337724397432862
1776715063.514727,0.009706518675819186,-0.04718114248257738,-0.3484852586760847,-0.035658783668199745
1776715063.5346837,0.009287906510799346,0.01085435378288217,-0.3489255948492478,-0.007245433054409389
1776715063.554865,0.009494789622627557,0.03515831444559209,-0.3488323563525474,0.030891875090475418
1776715063.575057,0.01015804266474898,0.009911443824973793,-0.3484616819146483,0.012078627548236742
1776715063.5947764,0.010150957830343154,-0.002557285587312788,-0.3482869941424548,0.0038247037646496063
1776715063.6147227,0.009823720403479588,-0.030083944671381826,-0.34846149000801485,-0.014121517251900917
1776715063.6346886,0.009550226048072982,0.006225675407803711,-0.3486224118325355,-0.00887617389263995
1776715063.6547024,0.00977380038593588,0.01936184724049536,-0.3486825794490277,0.01416270334611669
1776715063.6747143,0.009922805339014067,-0.0043151491883740255,-0.3484543830021166,0.006042659582548571
1776715063.6947808,0.009946739196103008,0.002720649945272678,-0.3482515602414601,0.012463569620858483
1776715063.7147784,0.009785736047287377,-0.012547576854586202,-0.3481841396985186,-0.006526768338672606
1776715063.7347732,0.009547789365646661,-0.012925333624587226,-0.3483501363546005,-0.008340271111269781
1776715063.7546885,0.009742992505612799,0.03433036307731832,-0.34829323969935233,0.014859859943401332
1776715063.7747855,0.010247649096812791,0.011380166173096371,-0.348123375095911,0.0008314752973255235
1776715063.7947733,0.0103600562548204,-0.005354678427564465,-0.34810118772389287,-0.004830654366736575
1776715063.8147807,0.010222297412927909,-0.007003776150973626,-0.3481924322194885,-0.001496796795757871
1776715063.8347285,0.009802815819607102,-0.020692838845890044,-0.348383907480986,-0.011201307064888089
1776715063.8546855,0.009356198754176282,0.03464025424969282,-0.348503413266911,0.011880242549144548
1776715063.8747797,0.01429506526047521,0.3485104070099618,-0.34724412514435055,0.08768537198373405
1776715063.8947728,0.016333039999457302,-0.06645857142086564,-0.34673376925124955,-0.01959366229075099
1776715063.9146893,0.013243296761226441,-0.31866135649670235,-0.34752161799453674,-0.07593090105159117
1776715063.9347112,0.009246578315495942,0.022189826973144075,-0.3485326054315411,0.001004172576627882
1776715063.9546921,0.010013478851123926,0.004741459227417904,-0.3483853596221018,-0.0002590389152508088
1776715063.974718,0.010319548590709916,0.02327557902263347,-0.3482312134077658,0.013153613973145961
1776715063.9951165,0.010347327164412307,-0.01860703850224575,-0.3481940358130037,-0.008020521256230428
1776715064.0149863,0.010085878139415777,-0.007554841427984019,-0.34832903551743855,-0.005965644882067966
1776715064.0346973,0.009989089372630348,0.0012462949518228308,-0.3484575702378623,-0.003160169078095798
1776715064.0547252,0.009916262371553703,-0.015255937235580587,-0.348544649355914,-0.012141169645709105
1776715064.0746408,0.009954042359762456,0.017575371045432706,-0.3486001852587848,0.009076642453145656
1776715064.0950842,0.010127140158680357,0.010410725398926065,-0.3485006929465078,0.007101350102422854
1776715064.114699,0.010166121800319302,-0.01074051971316373,-0.3484592368077556,-0.004448450390463821
1776715064.134699,0.009989401307448867,-0.005152609776868718,-0.3485361677272003,-0.001957815618563785
1776715064.1550925,0.009671247421374388,-0.020138730253738787,-0.34861682198846067,-0.005087174393576643
1776715064.1747832,0.00955430666136799,0.0009340445077798895,-0.3485960159610095,0.005800346845570625
1776715064.1946962,0.009815762036522218,0.023750403932633092,-0.34842111146691856,0.010542515876152403
1776715064.2147002,0.010114313573164186,-0.0018654727238745332,-0.3482978458017083,-0.0018001937262659418
1776715064.2347705,0.010016880998061233,-0.005720786696474883,-0.3483136728036418,0.0015286682151203212
1776715064.2547095,0.009723802601853498,-0.01944142954855012,-0.34841143356357596,-0.007794618064481784
1776715064.274775,0.009518563161098701,-0.00255357201079116,-0.3484891686047574,-0.002331995834137568
1776715064.2946944,0.0099407669601527,0.04103900879203661,-0.3482783829802803,0.021651208017941292
1776715064.3146906,0.010364629191407456,-0.001379715460381549,-0.3480548571820445,-0.000163292726515607
1776715064.3347704,0.0101429671145357,-0.028802133949620636,-0.34813693100499143,-0.010054318398242001
1776715064.3547592,0.009700656649643456,-0.001486188025991115,-0.3483043871981363,-0.00040675389308730825
1776715064.3747716,0.00978757833096177,0.009067492829130962,-0.34830818471400427,-0.0027487946840464295
1776715064.3947723,0.010159474060844543,0.02271137887289668,-0.34819640044763994,0.009987866521128375
1776715064.414775,0.010372194108226318,0.0006506198311417057,-0.3481185257047613,-0.0012540618307490536
1776715064.4346926,0.010200198567927463,-0.016769807103978508,-0.34825031253300576,-0.013157722894266088
1776715064.454683,0.010102502430220602,0.006698596594049332,-0.3483613485047163,0.0032584171459534295
1776715064.4747787,0.010111810858765495,0.0009758603048810564,-0.3483542181324355,0.0008853129224754008
1776715064.49478,0.010193844086281253,0.004689220217667888,-0.348360241485016,-0.0014067133376899355
1776715064.514898,0.010349884692544744,0.01545411431661475,-0.3482752138197057,0.00925545104841674
1776715064.5350528,0.010401761842436056,-0.009380744475238116,-0.3481951306411627,0.00014422119342194506
1776715064.5547776,0.010308352708027024,-0.0007056550960564886,-0.34823388618631573,-0.005909400908842621
1776715064.5746727,0.010241127983061933,-0.00014916336849352466,-0.34839620016902606,-0.006060982037205065
1776715064.5946994,0.010145748961897943,-0.01221235466695492,-0.3485247972688144,-0.00603581351460003
1776715064.614703,0.010172419442127056,0.01491079044791891,-0.34846132544458785,0.01055691892650712
1776715064.634701,0.010334380131744876,0.0006615007018656409,-0.34837807494770484,-0.0008011921276854794
1776715064.6547017,0.010244869548245413,-0.011262478394135737,-0.34842342332758836,-0.005698641729770304
1776715064.6747277,0.010062165230337901,-0.009257819513356434,-0.34850050417632006,-0.00025382247385352663
1776715064.6947048,0.009767803398711285,-0.017088884768927663,-0.3485544866639636,-0.00537517593956971
1776715064.714699,0.009736582236496618,0.01193229028440956,-0.34848427536015514,0.010049250276951915
1776715064.7347245,0.009995192990428056,0.02288868211027567,-0.34833339884435255,0.010638076089142245
1776715064.7547007,0.01024146554154488,-0.0061490399780413825,-0.3482826711507856,-0.007040800228967026
1776715064.7746935,0.009949194402733163,-0.019248995515693142,-0.34834392481860027,0.0012727732720509977
1776715064.7947104,0.009527320142733456,-0.014887515719797493,-0.34835017599842816,0.0022341172182338553
1776715064.814713,0.009047164060618191,-0.003072312554673825,-0.3484596353744423,-0.0037582609890850494
1776715064.834948,0.011538677896387371,0.20060160862920784,-0.3475285177583648,0.07903237001058949
1776715064.8547068,0.013207259862514774,0.02053568958823327,-0.3468178390580521,0.010276972728313294
1776715064.8747027,0.011893845090706252,-0.2012525725049787,-0.3473440823856061,-0.08160061018247444
1776715064.8947093,0.008941598938524538,0.014405470646408576,-0.3485663181758754,0.0015686945262730623
1776715064.9147882,0.009617937810848114,0.025118712300326543,-0.3483402514334313,0.010753094150629638
1776715064.934694,0.010315583049911856,0.035292943530607496,-0.3480290869249486,0.014739374526292814
1776715064.9547772,0.01054710318937642,-0.01287372719967167,-0.3479649428766213,-0.009575148850822002
1776715064.9746947,0.009972796503764881,-0.037736084753076334,-0.3483167600006522,-0.021845426558024017
1776715064.9947784,0.00965463385082428,0.007625629672874799,-0.3485173750272695,0.0038610696850830406
1776715065.0146925,0.009990946377285221,0.02452796768716054,-0.3482423616540148,0.01959768747211288
1776715065.0350556,0.010363872731585932,0.005173382577405496,-0.3480154381375779,0.003725013102479635
1776715065.0547848,0.010151821559580254,-0.024856280213609673,-0.3480763416689041,-0.01210256172059021
1776715065.0747838,0.009671391619967142,-0.022352305983438892,-0.3483099563518842,-0.008586290806842478
1776715065.0947638,0.009667252531517106,0.02339330485097048,-0.3483034756904301,0.008149427994967984
1776715065.1147084,0.009953383610022397,0.003140814921137866,-0.34816055265922896,0.005029250292986509
1776715065.1347818,0.00993305096599973,-0.0038986700343230027,-0.34820680783524616,-0.009089094628240812
1776715065.1547134,0.010021963711230262,0.014091359328309315,-0.34828187906503405,-0.00226242008156452
1776715065.174709,0.010172884503560898,-0.00045214510772619357,-0.3482325395983046,0.006517026761630129
1776715065.1947536,0.010044617054297381,-0.013794375663677309,-0.34818834665065806,-0.0032569467043928046
1776715065.2147272,0.00986222512706752,-0.0002528854930185856,-0.34833113699387525,-0.008606372733315104
1776715065.2346864,0.009896286968754877,0.004283311154446964,-0.3484150519445526,0.0025405696682593293
1776715065.254761,0.010077021787150638,0.011475750586173315,-0.3482338339618678,0.013204284680313094
1776715065.2747746,0.010301883840825834,0.011977167389352734,-0.3480437341665835,0.00808636460614598
1776715065.2947826,0.010216423422136793,-0.018666541220913754,-0.34808823447195913,-0.009796652516562143
1776715065.3146975,0.009802724562331978,-0.01905381694501933,-0.3483087070700915,-0.008199340638473496
1776715065.3347344,0.009237902825277821,-0.022358430938542163,-0.3484684272682409,-0.0027278221998175978
1776715065.3546324,0.011799403954043858,0.2049653835127631,-0.34738507397988505,0.08336294547271061
1776715065.3747764,0.013263541042885296,0.080013057542909,-0.3468112906427291,0.02681721707817275
1776715065.3947732,0.014037226264711425,-0.06280994670383264,-0.3464865082559939,-0.018088725460072785
1776715065.4146912,0.013217661823167318,0.0960323467145556,-0.3465038242582246,0.0491342270374755
1776715065.4348135,0.016650462355255913,0.1255279909457509,-0.3456259940736531,0.0006293163168802351
1776715065.454772,0.01871566878551843,0.1150891967325908,-0.3457322339565877,0.0026067774857021497
1776715065.4747741,0.019916543563695925,0.002388752637592549,-0.34574474337019045,0.0018905609452143368
1776715065.4947722,0.019601942043634912,-0.018875729752181818,-0.34581157452596045,-0.009858072310009236
1776715065.5146859,0.018363959449872312,-0.08531327192380829,-0.3459228193605579,-0.0008281583133741277
1776715065.5346987,0.01661060106883412,-0.08326526417617469,-0.3458238926465099,0.009496800907034308
1776715065.5547795,0.01580441014492254,0.0002591441801662389,-0.34563926334253825,0.010108000083470126
1776715065.5748465,0.017701099214002987,0.08951630443211084,-0.3457023392414067,-0.010753606771991997
1776715065.5947282,0.018662969325480283,0.041287735458642554,-0.34589688305495014,-0.01429200905944672
1776715065.614702,0.018908049903960403,-0.030874579834156243,-0.3461277606160773,-0.00431245110750722
1776715065.6346924,0.018476683488155284,0.006852289590532773,-0.3462251512310467,-0.005371635550686538
1776715065.654719,0.018774503484426046,0.022487510909476677,-0.3462057832100262,0.003709108628758173
1776715065.6747322,0.019307174134388753,0.023719308205154645,-0.3460542841254761,0.010842828094709711
1776715065.6947532,0.019830027688109618,0.02922550884199375,-0.34585140692926886,0.009051812247240387
1776715065.7147038,0.018612162125664446,-0.13135028652734593,-0.34618390435562935,-0.035640222625469176
1776715065.734787,0.014339004709156037,-0.2742536315192815,-0.34733300684070867,-0.07379682583085323
1776715065.7550516,0.010372366595659838,-0.08912931964672087,-0.3483692302840482,-0.02034411918294221
1776715065.774771,0.009773878350110156,0.049058671645789045,-0.3483757603430305,0.024688206072200236
1776715065.7947373,0.010375671552020432,0.007722026673052919,-0.34799810667802644,0.011222668789501622
1776715065.814692,0.010355114937647535,-0.010509674652285635,-0.3478713820787176,-0.002033939946038843
1776715065.8349016,0.010036861494586463,-0.015894095793646715,-0.34799153152556533,-0.005658428625180623
1776715065.8549812,0.009426259005716633,-0.044222444309528354,-0.34820170452203475,-0.01570600833488689
1776715065.8747337,0.010338090240289848,0.1154193390572894,-0.3478357279668234,0.0462108285142625
1776715065.8949516,0.012969200696924355,0.13442980281879827,-0.34680248826247717,0.051093988478793984
1776715065.9146972,0.012934096246631877,-0.1394751948087421,-0.3468635706986291,-0.05617646849320368
1776715065.9350884,0.01100415641604115,-0.163844329311937,-0.3476419184080207,-0.06606672175755612
1776715065.9551806,0.00935111761836118,0.031412242521370204,-0.3483467169875654,0.009246307825288902
1776715065.9750574,0.00978655979439483,0.009288984849304523,-0.34830529698432067,-0.004270958013393833
1776715065.9952283,0.009997340694596991,0.0097167714624175,-0.34837002441474285,-0.003352342836413058
1776715066.0146863,0.009846726268882857,-0.025064820787896895,-0.3485574121096091,-0.016332895871966513
1776715066.0352464,0.009453745742143724,-0.025272079096514865,-0.3487985644831375,-0.016286718896405095
1776715066.0549474,0.009072530917966695,-0.003251453264508611,-0.349164028994323,-0.012763650372025648
1776715066.0750792,0.008951025615622579,-0.00907274291580831,-0.3494111452769886,-0.015513176515324245
1776715066.0950327,0.009531893001718802,0.08826683640652969,-0.34933451503021495,0.03254723517843516
1776715066.1150277,0.010597039247965106,0.04577399307797281,-0.34882114476230086,0.026013229189558285
1776715066.13486,0.010440377574039511,-0.07743483585886801,-0.34875626584789254,-0.01988030206125313
1776715066.1550605,0.009122031898254123,-0.05521922673360566,-0.34904541993130755,-0.012019276539396051
1776715066.175195,0.008994525876548951,0.010776291788886661,-0.3489276412586414,0.014322558933245744
1776715066.1951308,0.00966145389350905,0.08094979872115196,-0.3483412679901233,0.049910627375195804
1776715066.2151794,0.011289205956660709,0.08610676929947762,-0.3473200242033449,0.053419238776726496
1776715066.2347312,0.011384932411211995,-0.0774675892501856,-0.34697853139218693,-0.02305929067096124
1776715066.2546418,0.010036846333052126,-0.059588374130162894,-0.347298787799446,-0.01082589078340479
1776715066.2751172,0.008935281635535247,-0.06539338080467444,-0.3472884280779098,0.011580627286538192
1776715066.2949553,0.01140195852327399,0.23724601601526593,-0.34642380606970236,0.058807333678703055
1776715066.3149774,0.01770648331542886,0.382420015353955,-0.34505963440803256,0.07566030333619311
1776715066.334962,0.02313881348453911,0.04241035074468422,-0.3439143443705206,0.019477161485327854
1776715066.3551188,0.01893166389570296,-0.33281764211047715,-0.3441301719699712,-0.009505975067265027
1776715066.3749368,0.01632344887705618,-0.013003765731142106,-0.3436212954887629,0.049631491776879644
1776715066.3947525,0.018793738553900836,0.34017398879785987,-0.3421205726108709,0.10769652212428238
1776715066.4149756,0.02444924876174963,0.04059539619935021,-0.3397233805344504,0.10120962760963526
1776715066.4349818,0.02449617930916152,0.033173248751933226,-0.3380735506292245,0.11121291374418629
1776715066.4546835,0.024366660254669905,-0.03649492329251325,-0.3353327836844018,0.10786099212800382
1776715066.4747088,0.02405730108403372,0.002314465649786976,-0.333285667045703,0.13861215391332238
1776715066.4949083,0.02490146339976685,0.07118798753430802,-0.33002964409522667,0.168995505098417
1776715066.5151007,0.026114457606314805,0.05073507640193203,-0.3267630062818273,0.15195846376700972
1776715066.5348084,0.026486553445911373,-0.01314714433799373,-0.3235764815721345,0.20427049414009024
1776715066.555115,0.02198360970648879,-0.28280901361154154,-0.31927194651329205,0.15517371219812093
1776715066.57502,0.018102585694783326,-0.21078950241004185,-0.3167962178333135,0.12106443272624356
1776715066.5951889,0.01604516570748922,0.029960053170420817,-0.31373403124850247,0.2018670058815346
1776715066.615014,0.016843784050972678,0.009180244964435771,-0.3093347797381195,0.2035518650957744
1776715066.6346774,0.017088318779227934,0.011249411604974849,-0.3048665263462489,0.22617990439173485
1776715066.6549437,0.017221415657649553,0.011536387800491849,-0.3009161495854327,0.2526125224133692
1776715066.6747324,0.017200124414912824,-0.013544374336049242,-0.29548006952584294,0.2691134315238334
1776715066.6946955,0.017196708732198075,0.016978405943253123,-0.2896037730196661,0.2979735752203011
1776715066.714716,0.01780175918805272,0.03703660111441246,-0.2830190371787753,0.3336706453558166
1776715066.734692,0.01807517441292437,-0.00923592843868213,-0.27571935712626994,0.3646551384620431
1776715066.7547243,0.01779274898394829,-0.0335102713141461,-0.2694408445617963,0.38534386458605263
1776715066.774735,0.016994135115164226,-0.0429403757878085,-0.2613603641100527,0.3895068776401881
1776715066.7947025,0.016194109352666457,-0.03712889956142138,-0.2530987793959527,0.4053910954564549
1776715066.8147085,0.015485117547720827,-0.029690538443226597,-0.24427721590446216,0.4436269912021006
1776715066.8347204,0.014673899929032128,-0.050722954431870235,-0.23475422305914528,0.466513960092646
1776715066.854778,0.013798728559404925,-0.058098173637659165,-0.22689138533966757,0.4775718024771016
1776715066.8747692,0.012421441623619396,-0.07276492392238265,-0.21685010218849637,0.487473078447367
1776715066.8947186,0.010767384339030368,-0.08321273855745628,-0.2064158506193497,0.5131948426142521
1776715066.914712,0.009202210020120883,-0.06647320529466735,-0.19532091903691373,0.5502461192993553
1776715066.9347,0.007770304616286911,-0.0741494079078131,-0.18380585756314086,0.5514884274519863
1776715066.9547014,0.006435352705508506,-0.08865697473590896,-0.17472049257077943,0.5378693907000841
1776715066.974998,0.004495124807122017,-0.09817418337765482,-0.1635808644591632,0.5339708967415338
1776715066.9950316,0.0022779982252197277,-0.11393273330802262,-0.1523054703489371,0.549146817199663
1776715067.0147326,-8.327890708070793e-05,-0.11310468742475105,-0.1407232698525631,0.5631685000734784
1776715067.0350373,-0.0024643929301179017,-0.11558330952413018,-0.1289821692063196,0.5617696456181283
1776715067.0553014,-0.0044798247663807005,-0.1261129974062493,-0.11967769680735321,0.5540831275472412
1776715067.0750372,-0.007076356348029646,-0.12234714906741143,-0.10806916838353431,0.5592329609909019
1776715067.0949533,-0.00964710317501968,-0.12174991712263833,-0.09641358919276287,0.5618399396769367
1776715067.1146936,-0.012062446855928806,-0.11039934672886545,-0.08478918523032586,0.5537370899497955
1776715067.1349614,-0.014053694541704435,-0.08056369841527858,-0.07324374771641798,0.5555159544135916
1776715067.155235,-0.015667500672469685,-0.07399695667434304,-0.06403862996330023,0.5606606716127052
1776715067.174733,-0.015461655961644265,0.0635244873897167,-0.05176102429285159,0.608565865460315
1776715067.1949697,-0.014631659574033489,0.02713857235165827,-0.03933628284916261,0.5845266555316353
1776715067.2146952,-0.01541241685929896,-0.13045906012304861,-0.02775156259188005,0.5168662392604687
1776715067.2350354,-0.017754151507009548,-0.08700867927240455,-0.017009372843887358,0.5177369105503824
1776715067.2553735,-0.019078241343642173,-0.06910499190322078,-0.008373410484794234,0.518222568777666
1776715067.2750182,-0.020659866652097528,-0.08764261190505396,0.0021843634958550948,0.4955227380870648
1776715067.294798,-0.02263852612792444,-0.10395396977383178,0.01208939325928121,0.4534158329833844
1776715067.3146925,-0.02504880424679356,-0.12245258352114369,0.02110055974317254,0.4154684074315462
1776715067.334982,-0.027515589348423505,-0.11396523653675446,0.02964999099181371,0.4063493249495298
1776715067.3552468,-0.02919051497853941,-0.0864824214306627,0.03644680962937237,0.4099757552425076
1776715067.3749225,-0.031087247364279244,-0.09689483143652969,0.04463335523537367,0.37377181418880134
1776715067.3950264,-0.03334156276307437,-0.12358476240904842,0.051783626225253745,0.31197336165466827
1776715067.414781,-0.036181975963680495,-0.14322829561728373,0.057964307578233926,0.2818638885182976
1776715067.435103,-0.03857998326344059,-0.14521937062367007,0.06258031737074349,0.2732124466768765
1776715067.455187,-0.0412377475838717,-0.11211709903784893,0.06812343682441374,0.2562622696292094
1776715067.474861,-0.04368166943729573,-0.12431233138236157,0.07293629198936913,0.20786423639548893
1776715067.495052,-0.04665090006071237,-0.1625556446615179,0.07670548904814566,0.1551964667803236
1776715067.5151038,-0.050080204524872066,-0.16190456709424478,0.07978982432956584,0.1442655556463306
1776715067.534786,-0.053243673000930976,-0.1399198074856556,0.08283015522476525,0.1475981843807186
1776715067.554905,-0.055351835458066836,-0.11346311905211123,0.08522540941977348,0.1382479647423986
1776715067.575095,-0.057471792820331616,-0.09164667296033191,0.08773866270082357,0.10235544672470132
1776715067.5947196,-0.059487515590046045,-0.10033015712987861,0.08955508318125442,0.07053068400094781
1776715067.614708,-0.061604358817033106,-0.10293826583831009,0.09073900049757427,0.044760467792892
1776715067.6347556,-0.06355474201910556,-0.08268914139803549,0.09136421964318893,0.014826347204213053
1776715067.6547904,-0.06469764071731171,-0.05561967137530108,0.09149771256109146,-0.0012946813167130644
1776715067.67496,-0.06559699372969374,-0.032146676516633776,0.091171885145762,-0.027921628301356305
1776715067.69494,-0.0662686674988704,-0.033873684082537575,0.09036601211661999,-0.049503217081146966
1776715067.7150788,-0.06696287917404445,-0.031275525387204905,0.0892399912046816,-0.05656410518765689
1776715067.7350917,-0.0674386619969902,-0.020687540830642198,0.08818040848717872,-0.0700329680529645
1776715067.7546964,-0.06739736117441773,0.022979536030595576,0.08626145156013235,-0.08541685900682638
1776715067.7751281,-0.06683036501195193,0.04667697777920499,0.08470295592886726,-0.10109104684473941
1776715067.7947786,-0.06583395878979093,0.046032245271183936,0.08225291495781747,-0.13709852409694953
1776715067.8146942,-0.06492319306125612,0.04182077525068173,0.07899241506327181,-0.17515531086144467
1776715067.8346968,-0.06408015786257808,0.04245509610082093,0.07500235664768236,-0.2072342893370771
1776715067.8546941,-0.06314888714881298,0.06472652807294421,0.0714208434510342,-0.22183266178813815
1776715067.8750176,-0.06150711473057298,0.09137433861489203,0.06666891143109377,-0.235069083916244
1776715067.8947082,-0.0597847632024598,0.07230955266331734,0.06149759114686201,-0.259413614909121
1776715067.9149776,-0.05837327176634726,0.061248692120141085,0.0559606498331801,-0.2745335210543929
1776715067.9351192,-0.05708866186520655,0.06383689817271543,0.050140072920714304,-0.282361465730119
1776715067.9546492,-0.05571735960433896,0.06695006168858914,0.044146274769105216,-0.29078676286650096
1776715067.9747763,-0.054454648210322074,0.08337658750646335,0.039438436734003074,-0.2738413130181041
1776715067.9947784,-0.05284052850745151,0.07102176931480378,0.033880871721782384,-0.2612821040264528
1776715068.0147069,-0.05157637909537064,0.04684937375500861,0.02829166280434638,-0.27666567135033027
1776715068.034735,-0.05064174012054476,0.045657050150331197,0.022458899972944354,-0.2810743828708947
1776715068.054835,-0.0500362123658782,0.03050814463983162,0.01779578252788889,-0.2750111165540786
1776715068.0747724,-0.049367254508640886,0.031568079415186606,0.012303558001122155,-0.25362128400143197
1776715068.094781,-0.04856756315882666,0.042634764551457205,0.007328116242811021,-0.22360698133564394
1776715068.114692,-0.047965463029891256,0.013689505500636884,0.0027632884017467297,-0.2135807026992898
1776715068.134692,-0.04780005638744214,0.0019273228465870873,-0.00137372037123139,-0.18204652209175387
1776715068.1546938,-0.047978657090032045,-0.015281179831781039,-0.004655107885244772,-0.12890874125165203
1776715068.1747272,-0.04831160344926804,-0.026233144411258985,-0.00644687483892566,-0.08546059347781448
1776715068.1947029,-0.048585772319405605,-0.0008040785498520941,-0.007531181284345975,-0.02423344588471312
1776715068.2146988,-0.04862573669404593,-0.0029635234565132673,-0.007819228283042195,-0.007105164404550935
1776715068.2347076,-0.04873959418230258,-0.011614208630535666,-0.007971543907979982,-0.012589042709288567
1776715068.2547193,-0.04893592938382761,-0.008095829031052965,-0.008150509923390153,-0.00591149744289465
1776715068.2747002,-0.04922702767900716,-0.017797759687072617,-0.008276758686278599,-0.0029668482128409404
1776715068.2947333,-0.049281273660406466,0.010372843665675174,-0.008064307059861523,0.025518690169102104
1776715068.3147848,-0.04899765808052764,0.0166059684275012,-0.0072546251918286465,0.05389900435405603
1776715068.3346891,-0.04909374345374381,-0.028077590132335434,-0.0059852564176535485,0.06955718907061806
1776715068.3548503,-0.049608665208821484,-0.03534198072028921,-0.00447863918010267,0.1073409827342405
1776715068.3747785,-0.05026334784343099,-0.0248719214849846,-0.0018580236911452525,0.1447894713450977
1776715068.3946862,-0.050541748589384435,-0.004101860989600692,0.0013972248116427785,0.16208896393997899
1776715068.4146996,-0.0503164151411134,0.02044647002923511,0.004948862515957254,0.1768159860126697
1776715068.4346921,-0.05023975037782305,-0.014078531454301907,0.008297333189303672,0.1436970016580813
1776715068.4548094,-0.050591006159165605,-0.03466840079023778,0.010606509796489983,0.12704963019208473
1776715068.474783,-0.05138167882222363,-0.03542060993238996,0.013175937910886976,0.12332846599090211
1776715068.4947577,-0.05220167794240592,-0.04125668725453871,0.015512957180679137,0.09947046847484813
1776715068.5147123,-0.05286348752924448,-0.023483973229956878,0.01746009427536671,0.08695266766290177
1776715068.5347006,-0.053530527129704554,-0.0415049092369667,0.01899201012375178,0.06432416668613364
1776715068.554711,-0.054697226817689674,-0.06846709673678925,0.020109913108408834,0.0436814711988303
1776715068.5747812,-0.05567723868761646,-0.04807963048632746,0.020863800310394913,0.04667808666183038
1776715068.5947757,-0.0565072826511072,-0.026757920016271364,0.021633257858570717,0.026243126205415815
1776715068.6147065,-0.056853342224868646,-0.010159502421830446,0.021912200398760844,-0.00166310639982592
1776715068.6347766,-0.05686710408882674,0.0070943824479197115,0.021788314652181975,-0.010850712063273343
1776715068.6547062,-0.05687609909759658,-0.00786887710758849,0.021503494463951167,-0.024536810609878043
1776715068.674727,-0.057066794224147795,-0.002578384931335359,0.02045508906820241,-0.057685273449402004
1776715068.6946955,-0.057026186961226286,0.013222970483349306,0.0192353436483753,-0.08390363921388391
1776715068.7147982,-0.05673803657374304,0.013984875736024222,0.017485121657149764,-0.083231255682395
1776715068.7347248,-0.056341931220739466,0.021750674527421077,0.015923589198936373,-0.06595041257333023
1776715068.754787,-0.056064286445917114,0.019391175622598095,0.014775837580244856,-0.0688308509692176
1776715068.774787,-0.05570429113148298,0.01588178122240036,0.013165972830936627,-0.08207503831686377
1776715068.794787,-0.05524086938520722,0.02877741981766152,0.011460932465037247,-0.07989883820650692
1776715068.814699,-0.054671801149906045,0.022754020074397974,0.009969398398319174,-0.06295133725222946
1776715068.834718,-0.05425653288901944,0.02651596992390806,0.009108323991670173,-0.04088440417962754
1776715068.854783,-0.05346849957656244,0.04589235511607792,0.008396663986602465,-0.030579465272307132
1776715068.8747814,-0.052758918263541454,0.023779697724860077,0.007552533111465055,-0.05176523578043891
1776715068.8947093,-0.052483613657407835,0.0012312171716066522,0.006434909139493718,-0.05307666543052166
1776715068.9147675,-0.05241127843464431,0.008290808131674737,0.005638673427422629,-0.023192616936402625
1776715068.934696,-0.052099913320237876,0.021558769897150887,0.005321909247845706,-0.008582090030419192
1776715068.9547431,-0.05166062354001595,0.030457812066092216,0.005177030874735297,-0.01178899077143064
1776715068.9747746,-0.05128568031446101,0.0034228647137920787,0.004637374768768193,-0.03750386617280364
1776715068.9946935,-0.05146825384931182,-0.020891221912370833,0.00378332216292032,-0.04497457642014231
1776715069.0147786,-0.05171482818769481,-3.231680752865951e-05,0.00311393826273303,-0.016245549411045467
1776715069.0347676,-0.051722800823231815,0.0035642237973959046,0.0028906789631175105,-0.009623707706108386
1776715069.0547707,-0.051782580872231726,-0.007805750854840365,0.002421429140645035,-0.027562574769156106
1776715069.0747743,-0.051921180118207594,-0.009907582419986793,0.0019805895791911304,-0.027227885755828525
1776715069.0946913,-0.0523009638820915,-0.02646970641266938,0.0016183097430120079,-0.006047345732049767
1776715069.1147025,-0.05291353668827288,-0.029722652556406604,0.0017706349919749459,0.018864155765867478
1776715069.1346943,-0.053379958136397954,-0.013882508837726654,0.0022236527761823927,0.024556216037328712
1776715069.1547852,-0.05354196720739707,-0.006595128281824514,0.0026392588423846783,0.02237855428978425
1776715069.1747053,-0.0536697728789062,-0.007887850009602348,0.0032152341192858355,0.03274419827892897
1776715069.1946974,-0.05401482463827192,-0.025474995551229895,0.003863790007592912,0.02956492054546304
1776715069.214709,-0.05466615245050316,-0.03338992420565623,0.004339828048423445,0.014586491668632986
1776715069.2347903,-0.05511064283430489,-0.018550357836798786,0.004507164832461141,0.007286096858191151
1776715069.2547748,-0.055287204849858454,-0.00019226573695835247,0.0046911350165111665,0.009418070533347245
1776715069.2747836,-0.05529085032590044,-0.0034799296812394187,0.004934582508049897,0.014658929615624696
1776715069.2947776,-0.0554971682807221,-0.017570067287283747,0.0051584377981142345,0.006251417879655238
1776715069.3146944,-0.05591706540872999,-0.02161285601534188,0.005152647901899288,-0.005737537625911981
1776715069.3346868,-0.056214723300706815,-0.0016502368207232943,0.0050428489487749,-0.0008409562232901853
1776715069.354682,-0.05599072280049191,0.019762120602124233,0.005212762245080491,0.017205190461929445
1776715069.3746948,-0.0556481830033603,0.020912639408605632,0.005559407719566768,0.023761177738270772
1776715069.394682,-0.055371624315970126,0.005150171761797578,0.005878335316995779,0.005921008030170392
1776715069.4146893,-0.055383426840816916,-0.0044200654541875495,0.005756138290433878,-0.01779172186851184
1776715069.434705,-0.055461792751536246,-0.0012234639605060438,0.005387916224571564,-0.017668640242020126
1776715069.454787,-0.05530068112734732,0.016579346152384766,0.005203918617922023,-0.004807988860538626
1776715069.4746904,-0.05480903001411506,0.02838993901947834,0.005178732548937998,-0.00046603052663875613
1776715069.4947722,-0.054418513072120575,0.007760436126173692,0.0049409710501410395,-0.022973845049902783
1776715069.5146825,-0.054449529695729,-0.007745933068712546,0.00423864082014087,-0.04164740317091534
1776715069.5347183,-0.05457830851968865,-0.003023268242654892,0.003504612222935734,-0.027940639492952425
1776715069.5546837,-0.054456326337561964,0.014470132086063181,0.003134982141454185,-0.007939445429416197
1776715069.5747137,-0.05414905849439704,0.02171042908168702,0.003045103022172312,-0.005104039045744337
1776715069.5946987,-0.05386753695381512,0.005442839952592121,0.0028065218719036727,-0.018014137456577657
1776715069.6147242,-0.05385398485514535,-0.005482982365345945,0.002309192895818788,-0.02829164858191682
1776715069.6347032,-0.053938687276316594,-0.0009145430767144858,0.0018206726703829691,-0.017576151188174204
1776715069.6547449,-0.0539358422592852,0.0014575579857599996,0.0015893040995309591,-0.005923641602216068
1776715069.6747878,-0.053833610817700536,0.010537834539158464,0.0015397570171957289,-0.0014510867055080763
1776715069.6946967,-0.053547551911395014,0.01571321796031655,0.0014204277353435557,-0.007576881238521156
1776715069.7146978,-0.05340235733666632,-0.004446932488454264,0.001194846692927647,-0.014936596131683837
1776715069.734785,-0.05358585274975583,-0.01794808891758387,0.0009323571806840258,-0.015348616515573085
1776715069.7547414,-0.05391004553719907,-0.006497732404906836,0.0006591189052547276,-0.006647567231730084
1776715069.7746859,-0.053945021672043035,0.002694452357835886,0.0005846575294216813,-0.0011628218304271009
1776715069.794785,-0.05385478913239476,0.005272129951701149,0.0006313652972911296,0.005629852455183166
1776715069.8147843,-0.05380468227695701,-0.001206040196556818,0.000760372437380683,0.0075718573595075535
1776715069.8347874,-0.054011546716955204,-0.02000101296951745,0.0008127212162800741,-0.0008994484502090007
1776715069.8546987,-0.05462402880156099,-0.024404043422501853,0.0007620386753199933,-0.0011358743123498411
1776715069.8746908,-0.054843813313479116,-0.002666707103111815,0.0008346639603364864,0.007762973801230687
1776715069.8947873,-0.054721063906352195,0.01254625147038585,0.0010394773903705556,0.01282993341860026
1776715069.914706,-0.054587083192963994,-0.0014000488467085515,0.0012591447489781562,0.008076606796787827
1776715069.9347823,-0.054810499993995315,-0.024906240724548778,0.0012860858529823512,-0.0048126474868235595
1776715069.954788,-0.05541903488881295,-0.03126692943293646,0.0010855848341106674,-0.01443676252479772
1776715069.9746504,-0.055719309088557906,0.001408790322913217,0.0009056391138035453,-0.003734105007463085
1776715069.994788,-0.0556069506023055,0.008691445767910366,0.0008083324375372234,-0.004259889040401763
1776715070.0147038,-0.05549017116658751,-0.001281202845338586,0.0006690427475158601,-0.010615905832706492
1776715070.0348089,-0.055605854438931714,-0.009264729952561973,0.00044187674575460055,-0.015325150408332718
1776715070.0546944,-0.056054772990616064,-0.023560026404960077,-0.00010245078919661501,-0.025847442557364132
1776715070.0747056,-0.05625177178271702,-0.002360431324763934,-0.0004059496384037744,-0.012656455592794793
1776715070.094695,-0.056050556415267336,0.020096358036947676,-0.0004875000108885161,0.005198664292575904
1776715070.1147382,-0.05576282207706883,0.005329956802914926,-0.00043118921154404824,-0.0010483123873719848
1776715070.1346996,-0.055744433203888236,-0.003837391926341832,-0.0005099558377544594,-0.007672852904109618
1776715070.1549518,-0.05589488431777405,-0.011272178124931365,-0.0006849074368525522,-0.012124805954550798
1776715070.174711,-0.05608517912305641,-0.006199430308904463,-0.0008953008389670419,-0.005767732207383859
1776715070.1946967,-0.055895470675940515,0.024833310995281743,-0.0007973551199972579,0.014392864061844913
1776715070.2146962,-0.055433313227658446,0.017416290017331804,-0.000612736457227643,0.001214402784408328
1776715070.2347128,-0.05522266017172512,0.0017776109658530492,-0.0007603662302586443,-0.01667385901403429
1776715070.254698,-0.05530777905133447,-0.005170627371847536,-0.0011950937284280847,-0.0201615172963895
1776715070.2747014,-0.05538503250542516,-0.004369223889837542,-0.0014683572144812808,-0.013650035014780772
1776715070.294687,-0.05520639769949174,0.020347649129655893,-0.0015288136186636522,0.0070939606024269936
1776715070.31469,-0.05486014759315016,0.011217048495539172,-0.0015221971426200639,-0.006985837050840212
1776715070.334907,-0.0548379759564991,-0.01072069859895966,-0.00187334107064595,-0.026324211576048227
1776715070.3547728,-0.05488580173768824,0.0021432682844103046,-0.0021549933269863963,-0.0109331791106408
1776715070.3750644,-0.05490253186972655,-0.0016733848515692873,-0.0023497364643606596,-0.006719212956047892
1776715070.394687,-0.054980130449135266,-0.005376626700922538,-0.002531022789936852,-0.012530512239249988
1776715070.4146824,-0.05493515106883907,0.013314135140977845,-0.002740806067120706,-0.004844599100546764
1776715070.4347146,-0.05474589595652393,0.0030516415143586884,-0.0028769085246947634,-0.008014710476228344
1776715070.4547129,-0.054572645223482985,0.00990536097883063,-0.0029490512508278674,-0.0027957346098580454
1776715070.4747822,-0.0544404685042969,0.005281126781641832,-0.0030484377083444363,-0.005845204014668077
1776715070.4946964,-0.054581207746909444,-0.018214529146677372,-0.0033576621051948923,-0.02185202428364573
1776715070.5146964,-0.05467404412571065,0.01009250885193963,-0.0035819784531204227,-0.0014279189958788345
1776715070.5347838,-0.054307507862897814,0.02175252526835214,-0.0035923532269664564,0.0019515879576670007
1776715070.5547233,-0.054064977232466005,0.0063645676303472065,-0.0036289424312839665,-0.010007279669662817
1776715070.5747848,-0.053974934646749635,0.0002433135325052016,-0.0038300268402370677,-0.00992556218891072
1776715070.594696,-0.05425110248091933,-0.021530428777068705,-0.004148296946877614,-0.021290614778427697
1776715070.614693,-0.05445747370180614,-0.0010443593135531781,-0.0045091751722667085,-0.01250025062658688
1776715070.6347036,-0.054233807297262945,0.03326725004128417,-0.004557803332235896,0.008091609665380363
1776715070.6551368,-0.0538097387192451,0.006242616728911299,-0.0044892150563335415,-0.001880723566924621
1776715070.675218,-0.05393402469438138,-0.019353982312034224,-0.004657928071001978,-0.016273030122203214
1776715070.6950355,-0.05442009797084317,-0.02323720588199074,-0.005137450520125713,-0.025610866017373998
1776715070.714944,-0.0547225923726447,-0.006859929770806822,-0.005560377314474911,-0.016243495672890178
1776715070.734724,-0.0545186603332733,0.030666197156671127,-0.0055972088631390604,0.012058217582606702
1776715070.7547033,-0.05396572882859352,0.02016245858309612,-0.005355284868329032,0.008352567476505611
1776715070.7747476,-0.05396491101673179,-0.02212262023941028,-0.005416908065345214,-0.015879332241685612
1776715070.7947552,-0.054396525444108335,-0.014698358056764949,-0.005795712944088465,-0.01594766159121428
1776715070.814706,-0.054605826786956725,-0.0015112341990547729,-0.006058564284969065,-0.008086598899607129
1776715070.8347304,-0.054314579921564354,0.030115678377224897,-0.0059873892561554875,0.013349138363451134
1776715070.8547387,-0.053657848521817486,0.029710565241164666,-0.005717520459865986,0.009858381335097307
1776715070.874913,-0.05366390948262413,-0.0328248858374966,-0.0059118055833474945,-0.02864569081967323
1776715070.8946984,-0.05422062155962201,-0.016796539432408608,-0.006379441190566812,-0.012303242516835552
1776715070.914713,-0.054305668404695195,0.013264100646410287,-0.006376175458753825,0.014690600302975657
1776715070.9347055,-0.053936565575251144,0.014906559202332748,-0.006084275856771623,0.005971753819577635
1776715070.9547555,-0.053705447959201194,0.013329583691986169,-0.0061112340733554815,-0.009080112461644366
1776715070.9747102,-0.053742532989020715,-0.01254443646893269,-0.006469514968164624,-0.020978518165363096
1776715070.9946904,-0.05386997466833699,0.002427179601732582,-0.006660063149168599,0.005326636249404056
1776715071.0146947,-0.05356539807072912,0.02660856697785055,-0.006318156993118537,0.023961190249472887
1776715071.0347037,-0.05324318215480407,0.002247546587006377,-0.006061253014285178,0.0009819577015766079
1776715071.054797,-0.05310585110538967,0.009707082665585731,-0.006106158561059786,-0.00450538124522799
1776715071.0747843,-0.052907174272810324,0.018856708579456594,-0.006080343134413012,0.010364435280514252
1776715071.0947845,-0.05262788034424875,0.004638902666635608,-0.005803425712776984,0.015639988005127718
1776715071.1146874,-0.05247485643192504,0.008245383345564156,-0.005429704590881243,0.016855534050768377
1776715071.1347048,-0.05246016044773881,-0.004988313348560813,-0.005288317819518017,4.7809982734316886e-05
1776715071.1546936,-0.05254365049918441,-0.009005703474489812,-0.005302520592650153,-0.004994812054387881
1776715071.174695,-0.05253790118199125,0.006906559705906534,-0.005208109908667593,0.014370200525281714
1776715071.1947014,-0.052558183504708554,-0.009778219878820188,-0.0049399860903736595,0.009652935937573846
1776715071.215021,-0.05292026514528635,-0.024018016689938776,-0.004892620020894141,-0.005685759754664491
1776715071.235145,-0.05349874067372885,-0.02764752599396872,-0.005156289066911407,-0.017296489671701134
1776715071.254764,-0.05392533551698071,-0.02512192266146912,-0.005432794770629596,-0.015494458154428715
1776715071.2750208,-0.05411376099271617,0.006308345328715631,-0.005414087620335904,0.017137766011876852
1776715071.2948015,-0.05406326058444775,-0.0014481676758927586,-0.005049890593579058,0.01560928695253539
1776715071.3148575,-0.05446824824757769,-0.036897651913358115,-0.005162069914696503,-0.027083279081966918
1776715071.3350255,-0.055112426460459496,-0.02105382145367171,-0.0056949953171057935,-0.02039928555098848
1776715071.3552175,-0.0553803124313195,-0.007543066350912925,-0.005879364205441043,0.0009954413929746785
1776715071.37473,-0.055492499233296924,-0.005601544877273629,-0.005760877459282757,0.0076112590514726755
1776715071.3949594,-0.05560435646406221,-0.007216664277159418,-0.00569508333552877,-0.002279359498947406
1776715071.414688,-0.05593856455182376,-0.0248579136199526,-0.0059414838667297565,-0.020692315961667603
1776715071.4347785,-0.05642430154674721,-0.021972401707180483,-0.0063180893356941156,-0.012978082055301633
1776715071.4549932,-0.05671135666116948,-0.009659104324185874,-0.006373670865355466,0.006719883204513492
1776715071.4750977,-0.05682389107129537,-0.003674704500589876,-0.006202124570177521,0.0101060310748694
1776715071.4950745,-0.056784410942072164,0.006169876085669906,-0.006021415496411737,0.0038914025138795973
1776715071.5148141,-0.05671176931909995,-0.0007332892408830338,-0.00608295017590422,-0.007733765350586199
1776715071.534637,-0.05683120544155751,-0.008324158083272165,-0.006282321458236455,-0.010501171977910662
1776715071.5553057,-0.05688542474678085,0.0018311807499248045,-0.006249995890812864,0.01321060135378288
1776715071.575141,-0.05676998714059888,0.009727670160344815,-0.005959456115077245,0.014790992125968717
1776715071.5948155,-0.056509313699430484,0.012770256610563996,-0.0058138288877963165,-0.004286927431916519
1776715071.6146624,-0.056158495405550804,0.019898077297800576,-0.00586486194824283,0.0038010405567708815
1776715071.6350453,-0.055970304767437716,0.005599745866993522,-0.005744598520417706,0.01129244582179979
1776715071.654736,-0.05605090820522164,-0.012259931439154853,-0.0055378560330861335,0.008630121081964433
1776715071.6753154,-0.05620151129476554,-0.0011984422230267022,-0.005467435812693785,-0.004076639497190681
1776715071.6947396,-0.05610885852941788,0.00902794625824302,-0.005616613558066674,-0.00895721700291155
1776715071.714939,-0.055860519438150034,0.010866821285972134,-0.005681860081093136,0.0031815470742358742
1776715071.734862,-0.055878256338755844,-0.009616416134108102,-0.005616270779892631,0.0073599386411159345
1776715071.7549498,-0.056351511483433786,-0.03536062062190565,-0.005718451473031562,-0.016126865116936437
1776715071.7746913,-0.05690425332580779,-0.01550703572624218,-0.006138449047936602,-0.023875921157788277
1776715071.7947845,-0.05703185100060939,0.004148991582524908,-0.006467664771329524,-0.005865278039285653
1776715071.8146837,-0.056922287181680416,0.0022186570689932406,-0.00639266664519209,0.00962999909495326
1776715071.8347623,-0.057010766200675494,-0.012183815989249225,-0.006307017482130039,0.0014317291792273236
1776715071.854664,-0.05777699795202749,-0.04451665299485394,-0.006732045558244942,-0.03320967137814197
1776715071.8747835,-0.058387619027584714,-0.027851266596104235,-0.00720373563728689,-0.02272578734377772
1776715071.8947847,-0.05852337150392965,0.013608647252408262,-0.007266771117984902,0.01633289907042172
1776715071.9146905,-0.05833416995330035,0.0022407604274502224,-0.006881150157461277,0.01700821798581527
1776715071.934689,-0.05850623974936985,-0.020755361589241322,-0.006856860310546976,-0.017080074074805534
1776715071.9547856,-0.058948219500799384,-0.026769140672542213,-0.0072951266401016035,-0.0332690694679288
1776715071.974784,-0.05944454760286648,-0.01946587189176091,-0.007816051377079584,-0.013279380064779328
1776715071.9947596,-0.05947938102553112,0.015071550349087193,-0.007647330855668698,0.027310892870295336
1776715072.014684,-0.05910170935863518,0.019447865160700656,-0.007160944741001337,0.017321758405150375
1776715072.034787,-0.058895849869776126,0.0027335758265662202,-0.007139989789131443,-0.015760422922944838
1776715072.0551224,-0.059088914250490204,-0.01457236011343932,-0.007540393340886384,-0.009831304649424357
1776715072.0746877,-0.05932337626931712,-0.012168543070990412,-0.007566790132304321,0.01043211530439787
1776715072.0947835,-0.05913034215644759,0.0276103451205916,-0.007204848699261197,0.020470146548171295
1776715072.1146874,-0.05838758044023569,0.040541436974389555,-0.006836790214121076,0.012869510037177092
1776715072.1346998,-0.05785457302009699,0.007726638444789269,-0.006753279407189115,-0.004405760341006336
1776715072.1547863,-0.05788395331876404,-0.0075256476670080286,-0.0067647042195108,0.0023714367608793953
1776715072.1748075,-0.05793532142582025,0.0053373235451528445,-0.00649422910064276,0.01849075052318117
1776715072.1946998,-0.05768584096346448,0.02311210865581559,-0.0061753129896526685,0.016762549268320995
1776715072.2146904,-0.05705227395162141,0.03369247448933824,-0.005896570241472611,0.009687839512931881
1776715072.2348075,-0.056601915413297454,0.010071747661860586,-0.005812320092858722,-0.0009053167615721419
1776715072.2546995,-0.05669159590268341,-0.01707427647413018,-0.005834038507473442,0.0004388947855474383
1776715072.2747,-0.056906559386469185,-0.008889237362684627,-0.0058120559602555695,0.003528419712490554
1776715072.294688,-0.05691841212626808,0.009511579693160604,-0.005752845838824407,0.0020502212693972316
1776715072.3146899,-0.056619148982526624,0.016282175445883645,-0.005714312680515684,0.0018283656734184653
1776715072.3346882,-0.05643018648142905,0.002838531788093873,-0.005676067698424462,0.0021631077159350084
1776715072.354855,-0.05643470969538332,-0.0052449576417860355,-0.0056091455789104225,0.005692236090636835
1776715072.3747146,-0.056523610355642656,-0.00231653034570084,-0.005500929093911554,0.0058098627039274015
1776715072.3951306,-0.05661822481237029,-0.0064785205339802365,-0.005441844367057808,-0.0009213291895404548
1776715072.4147408,-0.0566579551365171,0.0011824871111694724,-0.005356420455462876,0.008572335713737115
1776715072.4346926,-0.05653676723401783,0.009361649025421637,-0.005036794844627166,0.020231141567898167
1776715072.4546869,-0.05650546573896459,-0.008683683081008003,-0.0047919741856856345,0.0022342082924722163
1776715072.474696,-0.05675882579532636,-0.020672292508105095,-0.0048870692186648995,-0.013700497094956524
1776715072.4947858,-0.05722960191145629,-0.02039365185486508,-0.005179030793559459,-0.010669680934629914
1776715072.5146825,-0.057421741077135977,0.0012894705308699461,-0.005191897644440825,0.009277539821796943
1776715072.5346882,-0.057238789148073344,0.014182390057207228,-0.004853953547897054,0.01985568562932911
1776715072.554693,-0.057134487384493435,-0.0021076188283530306,-0.004654928289975873,0.004848777641391525
1776715072.5747046,-0.05733144477313247,-0.016653740855434557,-0.004754819774286181,-0.012893771867157719
1776715072.5947864,-0.0576115542762845,-0.007789624634263109,-0.0048100099563161865,0.00927834969753741
1776715072.6147745,-0.05758626323761665,0.008840209447686154,-0.004359211819327354,0.03247039424455287
1776715072.6347406,-0.05733002233665557,0.015576975452773978,-0.0037647937706676033,0.021458892601463272
1776715072.6551733,-0.057191178622809646,0.00281595363098619,-0.0035790877450463205,0.0019785966724719956
1776715072.6748154,-0.05723851948915183,-0.007723084034094219,-0.0035512765431140302,0.0015209059369098513
1776715072.695167,-0.05726397322825623,0.0029180988438349265,-0.003389451111652112,0.014991986154056862
1776715072.7150364,-0.05721771561156598,0.002975555322200646,-0.0030756413989816997,0.012600715240369842
1776715072.7348192,-0.05715766636347667,0.0021898047508413787,-0.0029599372644348006,0.000978422827232513
1776715072.7551422,-0.05704747084510249,0.011562068830088118,-0.0029521293993502243,-0.001528726214976791
1776715072.775211,-0.05683487941196466,0.007707951158672649,-0.0027920812999878536,0.014238818581474542
1776715072.7948954,-0.05685266893330669,-0.008790691731337591,-0.0025771167669289803,0.0069105194464266296
1776715072.8146856,-0.0571382028444237,-0.015852466755334277,-0.0025882620731787725,-0.008631607248478047
1776715072.834718,-0.05722497103774266,0.006942864881537891,-0.002724345331093654,-0.0006017957869435021
1776715072.8547966,-0.05700270610760598,0.0202959556144979,-0.0026643471018434417,0.00714653791065202
1776715072.874761,-0.056671497168017906,0.008262092928964931,-0.0024884948436572664,0.00833057638503011
1776715072.8950422,-0.05675479232583737,-0.013892559051360304,-0.0024871101385577953,-0.008267862163330789
1776715072.9147186,-0.05708676070468427,-0.017110352955290314,-0.00279185588551848,-0.020689261507717917
1776715072.9349241,-0.05721613520312245,0.006504313127488837,-0.0030811891377234084,-0.005522929891757994
1776715072.9552243,-0.056900211998506894,0.021182204771824642,-0.002995573229809841,0.012114468294151083
1776715072.9747255,-0.05668177975806374,0.007278868430139335,-0.002872252714267052,0.0037191000562895055
1776715072.994703,-0.05684576434480115,-0.0226105448499678,-0.003068028921894529,-0.022420543877176617
1776715073.0147758,-0.05734322568230581,-0.020701189412874327,-0.003536869129057426,-0.019447008807040124
1776715073.0347083,-0.057470692446851684,0.005268991567986547,-0.003663602634910018,0.005104535911792593
1776715073.0546696,-0.057184463722127356,0.02076379153877611,-0.003445866899957247,0.014618519610096569
1776715073.0746841,-0.05700099338682788,-0.009347010366960756,-0.0034034342978117144,-0.013229051382860521
1776715073.0947645,-0.05719671318095684,-0.015831741498490204,-0.003678415673721702,-0.02082950566359386
1776715073.114729,-0.057333201435064984,0.004149220242007895,-0.0039727657719349566,-0.005346822644799772
1776715073.1351738,-0.05715473296561489,0.014110659087404442,-0.00390780415449011,0.00936676531457541
1776715073.1551137,-0.05693119426206514,0.011285516192466927,-0.003770792475621159,0.006987835396657073
1776715073.174726,-0.05671363451917029,0.009938504834455103,-0.0037631308886532716,-0.006249489662490953
1776715073.194896,-0.05643859062663362,0.016256287012855503,-0.003894413380885298,-0.004217198561639381
1776715073.2151127,-0.0560412448622183,0.02137330377466279,-0.003883126843750284,0.007477115319184446
1776715073.2352679,-0.05576900172959877,0.011959527699555939,-0.003716487274962722,0.010631154417708122
1776715073.2551944,-0.05546059451604194,0.016250687553053672,-0.0035151788390456852,0.006332125116398931
1776715073.275078,-0.05500399580864428,0.02954648197455373,-0.0034917272230587325,-0.0024304684674328336
1776715073.2949646,-0.05436394845449259,0.02959135381755834,-0.003424896839749122,0.009455977018975017
1776715073.314971,-0.05385549226268801,0.01910184411958235,-0.003185388688059985,0.013937775184370364
1776715073.3349144,-0.053719809575016556,-0.005448774952628993,-0.003121708323641703,-0.008908125026291746
1776715073.3549037,-0.05376423845418804,-0.0010598999893708383,-0.0032592932753652618,-0.009490077466480907
1776715073.3749082,-0.05346757231240331,0.03088446682282525,-0.0032804490930988905,0.008871729105341923
1776715073.3947933,-0.05278555472412364,0.03264208894084539,-0.0030554790575027953,0.010806221951584833
1776715073.4146843,-0.0524162947594617,0.0016296734364202592,-0.0029427845870152866,-0.0012038087753116593
1776715073.4346573,-0.052509761261487695,-0.013085966076732375,-0.0030568085013867605,-0.011772641229036266
1776715073.4549937,-0.052666694170076675,0.0056989493108370315,-0.0032731079599154405,-0.0014686073991512973
1776715073.4751384,-0.0523297300401277,0.02535465907438636,-0.0031401011147517456,0.01416334210824927
1776715073.4946928,-0.052103797976952734,0.005084890881485005,-0.0030109515248548215,0.0026924891879255147
1776715073.514683,-0.05227139256369695,-0.02375474712634293,-0.003125240811446391,-0.012131443463734234
1776715073.5346875,-0.05276683552471235,-0.020426719152595862,-0.003278604114133158,-0.003963471054080698
1776715073.5550663,-0.05310625877062393,-0.01792058633250651,-0.003377143118257142,-0.0046699012594886135
1776715073.5747406,-0.053336903960806245,-0.006347336510736018,-0.0034027572071958423,-0.000491045432669715
1776715073.5947452,-0.053379488072250875,0.0015100075224403764,-0.0033389670679174407,0.009474880959368446
1776715073.6146872,-0.05339968072790446,-0.004415486269591734,-0.003259874733506022,-0.0002172846775737331
1776715073.6347053,-0.05338468317050235,0.005789069183190165,-0.0031535149229850075,0.010129027694662493
1776715073.654654,-0.05333480272721679,0.00255824526763071,-0.003000036276321512,0.00549978018099918
1776715073.675068,-0.053174196073132236,0.012254224294445615,-0.0029134541540123396,0.001005775832300321
1776715073.6949987,-0.05260614302876921,0.042369829595767794,-0.0027134826261796985,0.018365665182738203
1776715073.7146826,-0.05183552159118386,0.03018196937823875,-0.002337518359117357,0.017772018539440826
1776715073.7349021,-0.05135059578272138,0.014332583535724863,-0.002017606905280006,0.0085101634355409
1776715073.7550254,-0.051158918829085936,0.010139647561990067,-0.0019857933085683623,-0.0002166586651928832
1776715073.774819,-0.05103522179137103,0.004812654418904161,-0.0019153605377920362,0.006055212235292659
1776715073.7950728,-0.050573123307003726,0.036247183089169493,-0.0015720647009487027,0.028529792571837395
1776715073.8151782,-0.04981902369224929,0.03603747977442376,-0.0011261191947692338,0.010977364700701583
1776715073.8349922,-0.0493898232087746,0.0017652779182590062,-0.0011423535258079413,-0.011497699112926047
1776715073.8552866,-0.04940321804550811,-0.0010236571814793982,-0.001288513647609095,-0.0057497043708703
1776715073.8747241,-0.04945908918593568,0.0003842217842738582,-0.0013080285339860957,0.00659619887941795
1776715073.8947449,-0.04919340666971977,0.02267278235293574,-0.0010692244945731408,0.014630018442317578
1776715073.9147599,-0.04854433141576284,0.03592461343922637,-0.0008052052823690329,0.009787924757268026
1776715073.9348462,-0.048165347140782744,-0.0001467211034749949,-0.000877650841294108,-0.014680057500210857
1776715073.9548373,-0.04815349624266477,-0.0023626357024843225,-0.0010096291856287912,-0.005007524620264443
1776715073.9751015,-0.04801888060326397,0.019516319584477027,-0.0009549706225051902,0.012351521460384774
1776715073.9947278,-0.04757367177937459,0.02078493574390025,-0.0007749506932567597,0.0016264132596039722
1776715074.0146997,-0.04702351264934411,0.02931319242587538,-0.000750299083938357,0.0034765876818733414
1776715074.0346928,-0.04660519129521348,0.011010267052692868,-0.0006707210893984753,0.004803224746417704
1776715074.0547876,-0.046470397629505375,0.0016315002430596637,-0.0005943082343430669,0.0033730953150637125
1776715074.074703,-0.04631239426553321,0.015829370563934325,-0.0004985013729189812,0.003481322275253896
1776715074.0946882,-0.04599408982833988,0.01692832938889549,-0.0005685891193257318,-0.00908123025013079
1776715074.1147046,-0.045437110603941636,0.03643603344928584,-0.0006671236380739074,-0.00031923455492482945
1776715074.1346514,-0.044571190964003325,0.046599250635501105,-0.0004999285983012378,0.017330388193473916
1776715074.1547563,-0.04399065522417257,0.023678685603965022,-0.00031748827914014464,0.005290233576460641
1776715074.1747484,-0.04331525652762294,0.03325261151136072,-0.0002981030174449668,-0.0006273662538531684
1776715074.1946924,-0.042714602178362954,0.04492463900747376,-0.00030969918722368494,0.0019746336190934553
1776715074.2146883,-0.04170160880205913,0.048706157225789456,-0.00018854901966394765,0.009882426916408628
1776715074.234779,-0.04048058359266934,0.06794663830264686,0.00026091344025357203,0.03088287736598617
1776715074.254797,-0.03951689436882839,0.051334215358983123,0.0006574447031248016,0.01947686623504529
1776715074.274798,-0.03863169327064679,0.03308505719814854,0.0007337211958310947,-0.010908767020784412
1776715074.2947075,-0.03784954956167459,0.04412020802398077,0.000639287572642521,0.005370342489223098
1776715074.3147228,-0.03692500883100666,0.04458158293639303,0.0009971359285233436,0.028854620676682072
1776715074.3347971,-0.035814211127288595,0.05858930764055227,0.0016877040104635755,0.031925769929795324
1776715074.3547971,-0.03501728663846912,0.04164672777624977,0.002108161315662811,0.018835662007279236
1776715074.3747964,-0.03469033671022527,-0.009305807179482609,0.0021385892215176954,-0.011492148533646676
1776715074.394728,-0.03476492058163774,0.004509050414875038,0.0021025520546965153,0.006782314212938956
1776715074.4147277,-0.03451411263768187,0.02105847235457814,0.002376456876940969,0.021044079598720268
1776715074.434692,-0.03420092040261598,0.005190059054963461,0.0026980569929617236,0.0035945645377147804
1776715074.4550817,-0.03416832858557686,-0.000873763032245331,0.0026870587886861554,-0.0018759149690742074
1776715074.4747949,-0.03441594055404332,-0.02466205909248116,0.0025940635225757645,-0.007811667719668188
1776715074.4946682,-0.03498248884341691,-0.02932184532227905,0.0025586913478489143,0.0038036858722933047
1776715074.5146823,-0.03531187730754086,-0.002862122636211925,0.0026990174030606345,0.008961940406914712
1776715074.534682,-0.03555360891065375,-0.02095378028832459,0.002665453951579243,-0.011895271311577617
1776715074.554692,-0.035934280140122565,-0.030190860950167778,0.0024728368050685777,-0.011948604943182447
1776715074.5747993,-0.03658908825104032,-0.030477933534957355,0.0024280290571306045,0.007140437620543234
1776715074.594687,-0.037461951754398856,-0.05151470144701631,0.0025353948341904292,0.001646794180058946
1776715074.6146884,-0.038321015185742185,-0.03133427338529697,0.00241741459197638,-0.012153777565207868
1776715074.634684,-0.03895118430800591,-0.02523667162433224,0.002181180735170648,-0.010047977726109918
1776715074.6546893,-0.03940920882637508,-0.03414121315744026,0.002061820247664715,-0.0038290392079325646
1776715074.6746821,-0.03990591390724901,-0.013545985485940687,0.0021646227917895017,0.010004977733011611
1776715074.6946874,-0.040330270897198664,-0.023728115646001594,0.0022523832190874237,-0.0006069701735667548
1776715074.7146869,-0.04084021580207413,-0.02619819129646231,0.002115741585133556,-0.013739489538963917
1776715074.735168,-0.04109862622283143,0.0034835089542754605,0.0019479354539846021,0.00042569213209904533
1776715074.7547035,-0.041056527420106306,-0.0003702925363952142,0.0020156574494944782,0.005797654779593872
1776715074.77471,-0.0408752997982268,0.014915346963929738,0.002171791548945757,0.010654855599155258
1776715074.7950246,-0.04051332193714914,0.020669528824743932,0.002362426463921473,0.006103648873084467
1776715074.8147063,-0.040434251911949354,-0.014086471146719154,0.0022011405226832464,-0.019813833679137947
1776715074.834884,-0.04050106916409116,0.008981194226203665,0.0019584022991429523,-0.003368000244238667
1776715074.855249,-0.04022825181538452,0.029603750734148684,0.0020559271680542076,0.01882262741555521
1776715074.8751426,-0.03959040426007829,0.027976354294992095,0.002424053923069368,0.012743519026515217
1776715074.895105,-0.03897561858874637,0.026115305388667645,0.0025899697209922678,0.0006756229020620907
1776715074.915063,-0.03887079944228632,-0.01355024938227073,0.0023865222499321447,-0.016707670849552426
1776715074.9350374,-0.039094205045122954,-0.006506177385100065,0.0021210976143046876,-0.007261492423661779
1776715074.95517,-0.03893389372238241,0.03030747464896215,0.00216355214298443,0.013450567368432366
1776715074.9749026,-0.03836645988687171,0.006512003801139005,0.0022444093819009056,-0.010214734887783208
1776715074.994696,-0.0383972838377454,-0.016828564042460775,0.0020342117988586756,-0.020001817648047933
1776715075.0146935,-0.03890743306636998,-0.027483083732643673,0.0016041342175242253,-0.016817935149362157
1776715075.0347035,-0.03953314729487908,-0.028002454842996224,0.0011964462413200324,-0.020853812279606615
1776715075.054713,-0.03970805443684987,0.002250629953829117,0.0010376708890805187,-0.00445960435080051
1776715075.0746913,-0.03961127803621268,0.005645318544612796,0.0009587999020321764,-0.0031014330572529687
1776715075.094697,-0.03986868294644801,-0.032281800687024034,0.0006220625297629125,-0.03023771720830956
1776715075.1146896,-0.04053735391479549,-0.02915172531602478,-5.12060114136226e-05,-0.03253827789913486
1776715075.1347063,-0.04123527490123245,-0.035388998826166265,-0.0008624829663998576,-0.042633184591542486
1776715075.1547892,-0.04170787303409676,-0.027902329858332117,-0.0014736517634283458,-0.03582668034234752
1776715075.1746879,-0.04217571946306362,-0.015316425620244822,-0.0020724789120794883,-0.019621929359372202
1776715075.1947865,-0.04282969534978534,-0.04461383536715281,-0.002556451834664982,-0.028856913863132265
1776715075.2146885,-0.04367676872085891,-0.03576037803036812,-0.003117429610522359,-0.024129365350655962
1776715075.2348475,-0.044186457529651856,-0.019571374343164916,-0.0034920955391956427,-0.018261081177042972
1776715075.2546878,-0.04464141367065057,-0.02327280497035697,-0.0038614790205183003,-0.015742032524747866
1776715075.2747002,-0.04474963656347994,0.010277041651805319,-0.003972679789028403,0.005557591667535066
1776715075.2947865,-0.04443711780160473,0.02137989893696926,-0.003686624352189431,0.02123025805293848
1776715075.314682,-0.04400578380115669,0.014816119912365047,-0.003226953311661581,0.02118997712888676
1776715075.334756,-0.04358858525203281,0.02736289078523113,-0.002761450182611244,0.02413356772468103
1776715075.3546941,-0.04323144398809841,0.018767789633737333,-0.002371535126883124,0.02370836006280523
1776715075.374822,-0.04266285351296438,0.034604524465947584,-0.0017722153224469604,0.032105651928801604
1776715075.3947802,-0.041716225192975326,0.055092518004770274,-0.0010345290611576737,0.03715018755345165
1776715075.4147792,-0.0407409085649514,0.034105095125550086,-0.0004175518836881875,0.02118644998130601
1776715075.4346452,-0.040156570509386605,0.023197745522817254,-6.863161147278435e-05,0.011696513750363177
1776715075.454891,-0.03987789465144355,0.014612059090562818,2.397119863962349e-05,0.0017250687756800542
1776715075.4749303,-0.03953284622892238,0.019630441670083168,-1.0286317787064583e-05,-0.005913394767131595
1776715075.4947896,-0.03878336051861124,0.048857484905250576,-4.3944104716536045e-05,0.001192062911526156
1776715075.514705,-0.03803714052909307,0.020541562197945645,-0.00029180234955158865,-0.025211221852929996
1776715075.5347595,-0.038071245834815526,-0.022486293331099638,-0.0011583068930879202,-0.05787699833562132
1776715075.5547442,-0.038438144278033715,-0.01942164065769726,-0.0021666720220082777,-0.06320053800958574
1776715075.5747461,-0.038724782779696945,-0.005810274318725578,-0.0035968132016799288,-0.07150128945922687
1776715075.5951042,-0.03868911099522246,0.004313343044837256,-0.005146279482194169,-0.08026669477830135
1776715075.615121,-0.03883951703151027,-0.017921954303620924,-0.007167665303834938,-0.11229028570383419
1776715075.634783,-0.03951339962404457,-0.04488229860814699,-0.009835510939192254,-0.14449848437650858
1776715075.6547484,-0.040083427695345744,-0.02400656559389898,-0.012244607686224977,-0.14515164091076904
1776715075.674762,-0.04034892763299254,0.0006493284314687542,-0.015388002906444351,-0.1565187513377886
1776715075.6946971,-0.04039300771416827,-0.007565833967173349,-0.018951228668130645,-0.18585966533494339
1776715075.7147133,-0.04063083799770839,-0.01441707473807989,-0.02305436102200322,-0.206414177306576
1776715075.7347813,-0.04085166372280956,-0.012219897052289208,-0.026532005000244843,-0.21125221667693253
1776715075.754799,-0.040945864175108905,0.0008725252867397837,-0.03095841859321025,-0.21449610182691592
1776715075.774705,-0.040974030436258836,-0.004060921881189131,-0.035684328506669846,-0.23962700753683958
1776715075.7946947,-0.041112450649997835,-0.011067533279164057,-0.04093615917834886,-0.263886155820096
1776715075.814686,-0.04119159201549605,0.00428059176777934,-0.04638216918412274,-0.2584125178720943
1776715075.8346984,-0.041036109506892494,0.010365493601339745,-0.051714273979399775,-0.2545339658000773
1776715075.8546965,-0.04093193257155202,0.0031847298248026956,-0.05608970138731255,-0.27049277822979356
1776715075.8746967,-0.04104383903247401,-0.012947612551949261,-0.06202757891889285,-0.2981052663257824
1776715075.8946958,-0.04133898392191786,-0.014011878137767136,-0.06826207351310354,-0.29808865931885625
1776715075.9147298,-0.04134876404059422,0.013140844704813512,-0.07421981125888069,-0.27618816270590985
1776715075.9347427,-0.04101810434443365,0.018716304811541767,-0.08008993974910746,-0.29142747867189644
1776715075.9546938,-0.04078480516699295,0.005490989224573459,-0.08521009518419678,-0.32511402832594816
1776715075.9746983,-0.04087187684084842,-0.011951624327454682,-0.09215506236919599,-0.3399863396480518
1776715075.9947076,-0.04115462441498996,-0.012796023679752688,-0.09923737102499754,-0.3321071459483859
1776715076.0147984,-0.041075436542294744,0.020435088949849495,-0.10583393990871308,-0.30587445596725144
1776715076.0347047,-0.040608697425167414,0.0216827140644741,-0.1122676892317791,-0.3119877618966818
1776715076.0548003,-0.04041924143950586,-0.0022243232095176396,-0.11773711949864596,-0.34839448080715957
1776715076.0746953,-0.040574883948595375,-0.01072687585366923,-0.12511598565738863,-0.35673609266717116
1776715076.0948067,-0.04075088878853137,-0.002214042392170684,-0.1324173968785891,-0.3413923343765438
1776715076.1146863,-0.04058388516961423,0.016545435955742857,-0.13945517524576515,-0.33680038482480906
1776715076.134706,-0.04015931505010134,0.022724722966733668,-0.14659391980563097,-0.3505876240147799
1776715076.1547089,-0.03982742753868704,0.008899811918293782,-0.15411610978363782,-0.37107241952548164
1776715076.174785,-0.03954988534372865,0.018548158549369503,-0.16174975509774184,-0.36156606337936886
1776715076.1946995,-0.039239720714241706,0.023050524367907624,-0.167757988854236,-0.3554424702212265
1776715076.2146924,-0.03875960297109614,0.023810060575699857,-0.17528085033935895,-0.36527365105208515
1776715076.234717,-0.037892182031570375,0.057111617049356175,-0.18269595167323505,-0.348102159168453
1776715076.254805,-0.036941313865787195,0.06288851573208548,-0.18850810669963514,-0.34376968602170577
1776715076.2747202,-0.035776581563326706,0.045054507035285546,-0.1958180166288779,-0.3624188789722277
1776715076.2947967,-0.03486731175164495,0.04315790084572986,-0.20344919295430508,-0.3690180916607444
1776715076.3146985,-0.033938261723212404,0.04705239034858123,-0.21126831711610736,-0.3790515829935033
1776715076.33469,-0.032535091128133214,0.08474889041749963,-0.21900278387711336,-0.3643597192166358
1776715076.354916,-0.03106951350290083,0.09333279991853376,-0.225019340270398,-0.3555576635197447
1776715076.3746927,-0.02959349525402534,0.04530841793847391,-0.23269962428560292,-0.3843780737774575
1776715076.3946996,-0.028784205583878675,0.03280688576439161,-0.24087647867861123,-0.3999008656650487
1776715076.4146845,-0.028059917794106652,0.04423793255729622,-0.24896628430144996,-0.3775093737171491
1776715076.4346893,-0.026878418934727366,0.06540254047512013,-0.25679488836575926,-0.37100330519379743
1776715076.4546914,-0.025367042285010653,0.07827242477647255,-0.264407990733739,-0.36584806900880384
1776715076.4748695,-0.024473024365810354,0.03361869785907817,-0.2706774489296715,-0.3797831598009529
1776715076.494803,-0.024132655282969217,0.0024178548956388934,-0.27898990043418714,-0.4193381423553636
1776715076.514709,-0.023816165714704768,0.03356958771018352,-0.2876576175344936,-0.41257368474606615
1776715076.5347185,-0.023137152213098387,0.050113799999925955,-0.2945260344311048,-0.4071647013049817
1776715076.554748,-0.021734686421371184,0.055207622627720415,-0.3047681782410975,-0.41723415668291
1776715076.5747256,-0.021081110086291203,0.026434691298468996,-0.3118931059559275,-0.4340578400791829
1776715076.5946863,-0.02099662250464822,-0.014384289714208978,-0.3211907301122775,-0.4564748189702108
1776715076.6147025,-0.02095641799657141,0.01854647769646397,-0.33045399501138484,-0.427908152707971
1776715076.6347075,-0.02055946729508347,0.019504850602857858,-0.33887706147978897,-0.37904173298017574
1776715076.654766,-0.02042149878187904,-0.009407900699299282,-0.34493376774708195,-0.34661252933304953
1776715076.6747122,-0.020747780637493045,-0.020716041860813536,-0.351584797120463,-0.2916875352292453
1776715076.6947033,-0.021489682446388082,-0.04638975516454996,-0.3571334363223767,-0.23549726012706274
1776715076.7146919,-0.02246034813183275,-0.04644594976449668,-0.36115867320740136,-0.1510962218990175
1776715076.7347085,-0.023232156063810787,-0.02660527075938366,-0.36323526816723933,-0.04988127426684663
1776715076.7547894,-0.023756686519288174,-0.03487834890600637,-0.36374736227481186,-0.007910516010139812
1776715076.7747378,-0.024359716379068967,-0.026347663215813263,-0.3632117808214071,0.05479836237831748
1776715076.7947025,-0.024956768929571452,-0.030487619419238055,-0.3612854007381071,0.13029999171278805
1776715076.8147647,-0.025877049680116587,-0.058537105696587335,-0.35812028685066,0.16911762780466488
1776715076.834697,-0.02699137615631292,-0.04537361867998396,-0.3541491394908583,0.21112895029996248
1776715076.85469,-0.027710379674586588,-0.03658458772473629,-0.35045733887722985,0.23370686378071326
1776715076.8748007,-0.02836155635473171,-0.028357986691292858,-0.3453813974579973,0.24986609132955928
1776715076.894809,-0.02878589110036636,-0.014505905717907289,-0.3400487326213829,0.25707755990793857
1776715076.9146893,-0.029507360374102704,-0.04971684826438201,-0.3351638622528427,0.210948934850129
1776715076.9347084,-0.030442009701803628,-0.03839319560335519,-0.3311654573753127,0.17182669750568702
1776715076.9547117,-0.03071415025555692,0.00747872334595856,-0.328390285521031,0.1603456388067317
1776715076.9749207,-0.030419309054964705,0.019184136268359728,-0.32555526092534137,0.10972757146544543
1776715076.9947066,-0.029954890448486697,0.0210372946599139,-0.3239559033043006,0.040798551586783915
1776715077.0147066,-0.029666083057888645,0.009224268766800783,-0.32386779144804095,-0.030019834562403425
1776715077.0347056,-0.02957675940655426,0.0019924987286833312,-0.3251153813110894,-0.08730238990939632
1776715077.054659,-0.029114179973701006,0.0487270283934904,-0.326700227761777,-0.10414572942532085
1776715077.074906,-0.027854011089927234,0.07431363118285929,-0.3292902165665482,-0.1446599750790497
1776715077.0946953,-0.026528621567859526,0.0490945342260532,-0.33294644439072985,-0.2056831628643896
1776715077.114702,-0.025526841232032763,0.047949112519687004,-0.33748667414636324,-0.2287681066755407
1776715077.1346982,-0.024695288792963177,0.03518639703225686,-0.3425431687638991,-0.24992062061404807
1776715077.1547024,-0.02337426474510808,0.08333462618446796,-0.3474909433522061,-0.22923826718250362
1776715077.1747627,-0.023490596679646782,-0.02345288302850411,-0.3516690350012258,-0.24622366536185203
1776715077.194701,-0.021544245944834558,0.1739283313012402,-0.35605489441491284,-0.19432443821697398
1776715077.2146904,-0.015563089711266503,0.4333762302357209,-0.3594927409558946,-0.13102926717599717
1776715077.234688,-0.008441500700217847,0.1654728776857714,-0.3625697756344315,-0.18355143332969215
1776715077.2547011,-0.006793225088978178,0.06878989215820558,-0.3659515380511834,-0.1150204400817254
1776715077.2747126,-0.00530785250340088,0.0862985875515128,-0.3673690224895587,-0.049255657796273944
1776715077.2946968,-0.0039009312677342643,0.05197743078724071,-0.368129296651718,-0.023334227452744383
1776715077.3146956,-0.0033937376811680057,-0.0058710729919902,-0.3681381594061518,0.02495415056112793
1776715077.334687,-0.0032638600843409847,0.024872423481857787,-0.3667868136177317,0.10421034827776454
1776715077.354684,-0.0031599684177943286,-0.014752350883513525,-0.36434959768983954,0.12809008374908526
1776715077.3746932,-0.0032734187751046104,-0.012927910781037317,-0.3620253225344191,0.14377482593954105
1776715077.3947291,-0.003342163861673115,0.011452381075432026,-0.3586779086894637,0.18110060394143002
1776715077.414775,-0.003345400062327163,-0.012750969395497077,-0.3546548131171456,0.20387566985387695
1776715077.434702,-0.0034132929939323115,-0.0016567377259701956,-0.350145232439522,0.22344365117518783
1776715077.4546833,-0.0039423890543153805,-0.049786989875421475,-0.34667088609894603,0.19780494397106918
1776715077.4747326,-0.0055690542646374235,-0.10065763336728026,-0.3429977955016048,0.15583456025652886
1776715077.4947948,-0.006545376840333617,0.006889609269181777,-0.3395908455417603,0.17133031584815683
1776715077.5146952,-0.006245674031827131,0.017560508535119927,-0.33622395100619895,0.14989691550161455
1776715077.5346403,-0.006398059216007069,-0.043672314837462256,-0.33364593169108603,0.09064076032412771
1776715077.5547388,-0.007446348276631038,-0.06959448050983857,-0.33250694567540107,0.046094159875516016
1776715077.5747273,-0.009307950208002687,-0.09533845606785041,-0.3323179833572399,-0.018769959182137974
1776715077.5947006,-0.010106585921476726,0.014569870334454955,-0.3325194268409807,-0.007378787717924995
1776715077.61469,-0.0093645840787201,0.05214730190550408,-0.33294937958223647,-0.03157462532450839
1776715077.634695,-0.0093592019092064,-0.05802482861747797,-0.33448073674048806,-0.12131916639680462
1776715077.65482,-0.010325143626875657,-0.06393616601527438,-0.33673777541928474,-0.14541300611383734
1776715077.6747968,-0.01159660666407165,-0.044151117275869005,-0.33994714609970467,-0.1581013178898074
1776715077.6947002,-0.01209848719613437,-0.00925629126556364,-0.3432782033650268,-0.16146640230656661
1776715077.7146928,-0.011506530864404303,0.060109610837585446,-0.3466809229777841,-0.16824649920121737
1776715077.7346535,-0.010779275716775089,-0.007375064314728591,-0.34987441347336656,-0.1475240557171149
1776715077.7547965,-0.011825891667748098,-0.10857202589381769,-0.3524091888680076,-0.14452913624798447
1776715077.7747407,-0.01381710585622802,-0.08273231784082537,-0.3554982521860473,-0.15164056281944083
1776715077.7947023,-0.014867773998158196,0.0016324195109343326,-0.3585196300508979,-0.13335647056370803
1776715077.8147998,-0.014330882327650866,0.035625701480445145,-0.36032434505624167,-0.09416073616612453
1776715077.8347347,-0.013574107614680104,0.03709892132926107,-0.36190660290617016,-0.05638295217978251
1776715077.8546903,-0.013403752060026546,-0.024985623091368557,-0.3627973987531147,-0.03007245755383492
1776715077.874795,-0.012886341366665825,0.06239192668302429,-0.3627817279679749,0.0286482312440568
1776715077.89469,-0.014885348219310708,-0.18702686062102458,-0.36251679849375157,0.009577217285163142
1776715077.9146998,-0.019274497023353158,-0.2769436138733913,-0.36207396541036446,0.026628906807686592
1776715077.9347923,-0.023277122654732283,-0.04600220736785974,-0.36071078852156174,0.11429838702519812
1776715077.9548006,-0.023195792086544664,-0.028291356967302825,-0.358584091340196,0.12502989095889827
1776715077.974798,-0.023410295981534813,0.023970782205645802,-0.355820545060178,0.13897485971463164
1776715077.9946876,-0.022974421325507526,0.015558518231134452,-0.3528381556253302,0.14753650074108837
1776715078.0147095,-0.022617211009107026,0.018186146891296273,-0.3497227605234256,0.14919110768924837
1776715078.0346963,-0.021958256686634696,0.04110705495870857,-0.3465133202984064,0.15655973814806023
1776715078.0552373,-0.021269104434738922,0.02683450621670313,-0.34357487220462407,0.12313945592296016
1776715078.0746987,-0.020925189914322146,0.010563797480724987,-0.3418337049768977,0.0859931516314123
1776715078.0946968,-0.020595186362174785,0.023118466626336882,-0.34018384063261037,0.07193944348409309
1776715078.1146843,-0.020298366695643465,0.006694285936510169,-0.3389019580909569,0.051782726873720986
1776715078.1346402,-0.01961690251675238,0.046403725190870646,-0.338380785792973,0.0006682267688765675
1776715078.1546936,-0.018972547683863344,0.06594534113551931,-0.33855674941550395,-0.0232144272277367
1776715078.1748853,-0.01718396888167129,0.08258839980086286,-0.3393081269108418,-0.044558279760681385
1776715078.1947007,-0.01713049873697728,-0.009858865651547699,-0.3403690096732357,-0.06140446777791542
1776715078.2147014,-0.013380549678539213,0.26965956167424676,-0.34164484465827716,-0.06366425948633259
1776715078.234706,-0.007698235835257736,0.318700736313017,-0.343233468697114,-0.08898943623796773
1776715078.254799,-0.003843073230900301,0.06116708395800711,-0.3447908472332226,-0.10403586091049633
1776715078.2748017,-0.004190704347430853,-0.017277052176631766,-0.3474169321594285,-0.13882640482538844
1776715078.294691,-0.0049105525873562724,-0.15500563238579013,-0.35045046338484354,-0.16616177410212807
1776715078.315086,-0.01092003748007034,-0.3824883018902125,-0.35400754459323447,-0.16719620651628087
1776715078.334705,-0.016736396928541144,-0.18272804132993065,-0.35716922409639623,-0.13523111633725193
1776715078.3548021,-0.018605205807112155,0.05511184087002958,-0.3591326434399763,-0.09101839276947077
1776715078.3748024,-0.018032263680611962,-0.018623968303950737,-0.36083646763789556,-0.07262446116509436
1776715078.3947093,-0.01858967222067091,-0.033104192625898955,-0.36207738599995876,-0.04682243364728689
1776715078.4146843,-0.019233424644191414,-0.027872000979887693,-0.3626240843743773,-0.004982766230466895
1776715078.43476,-0.019741481770163723,-0.018343437521564622,-0.362420133980656,0.02337585767261907
1776715078.4548078,-0.020007772514957896,-0.017069133132201986,-0.3618888473163078,0.03917430859015458
1776715078.4746854,-0.020290998960276585,-0.012355593688976936,-0.36066198273132755,0.0771959661654329
1776715078.4948041,-0.02070628030439395,-0.02554192233685121,-0.35892883728960556,0.09099756910064372
1776715078.5146837,-0.021235792777531372,-0.02443246157715618,-0.3570092761477803,0.09118295380424168
1776715078.534815,-0.021575006445955953,-0.006743634318458522,-0.354903648053582,0.11195557186033223
1776715078.5547643,-0.02168070193860324,-0.0043240323746188344,-0.35246944505677424,0.12056996983766644
1776715078.5747123,-0.02152650257306455,-0.003010688382477797,-0.34996737627218033,0.12239032222721846
1776715078.5946968,-0.022515814520492155,-0.08353129354913773,-0.3477968124527659,0.13257031392064533
1776715078.6146936,-0.0236545799130523,-0.04832343017260595,-0.34561652017832223,0.07776457189396213
1776715078.634797,-0.0239745313732337,0.04180838174870796,-0.3446101941302355,0.015040867885707465
1776715078.654694,-0.022921037845469207,0.026208895106876143,-0.34337615458418635,0.09354297552059021
1776715078.6748006,-0.023773230019965355,-0.06732148558508778,-0.34434356481921763,-0.10848978825079258
1776715078.6948063,-0.026027169008505175,-0.1504014309169663,-0.3487311427771139,-0.31404635989029694
1776715078.7147088,-0.028059689414264465,-0.029833138346321036,-0.3532628049411527,-0.0956210623680831
1776715078.7347903,-0.02782425610483303,0.011106594867739822,-0.3538742519796055,-0.043357037224838635
1776715078.754947,-0.02753311916871462,0.017819444087502564,-0.35508291282826243,-0.07316747176287719
1776715078.7748022,-0.027290990935151693,0.011987889984306097,-0.3563928704014826,-0.08287116234077274
1776715078.7946994,-0.026981296008821876,0.014703193093324976,-0.3582087678583349,-0.09070433303445635
1776715078.8146904,-0.026612234251060077,0.02276940036305021,-0.3603731787109409,-0.11738868066245689
1776715078.8346977,-0.02619643647257032,0.015616662945204987,-0.3620445172801624,-0.04958101559738881
1776715078.8546898,-0.02594470611134282,0.010437222183628081,-0.3624390531912436,0.012399239050906452
1776715078.8748035,-0.025777704976768543,0.010348593005625906,-0.3627462413682717,-0.043191322208395055
1776715078.8946989,-0.025496937442412604,0.015505737980736872,-0.3641599297194448,-0.09936529418640716
1776715078.9146895,-0.025116305040653285,0.01949438529427809,-0.36578239898039944,-0.056386708989098144
1776715078.9346957,-0.02480632629206897,0.010346349533280716,-0.3666981554001789,-0.03345909114140211
1776715078.9547026,-0.02468068190573778,0.002742299687427535,-0.3672133311899261,-0.01744352749780531
1776715078.9747157,-0.024608595397113422,0.005944335851163052,-0.36739163534295377,-0.004280529584624659
1776715078.994704,-0.024433202352493955,0.010364048645515225,-0.367210398747562,0.021511080791355663
1776715079.0146937,-0.024260855518022317,0.0048293837427560715,-0.36654488532269125,0.04357372280339544
1776715079.0346935,-0.024315331135174166,-0.010442632771868146,-0.36536070042663094,0.06758338906543004
1776715079.0547721,-0.02451797982409805,-0.015802818571307775,-0.3641368426747502,0.08197624534062764
1776715079.0746958,-0.02492535717803763,-0.017265305375660095,-0.3624666892816921,0.07831210004982436
1776715079.094804,-0.025093337936442788,-0.0021568215197923235,-0.36077396713087506,0.08382892406919162
1776715079.114761,-0.025126644975532145,-0.00044515317106470775,-0.3589813647252326,0.088878359018979
1776715079.1349282,-0.025299698724625813,-0.02089206647252173,-0.35716503509534375,0.08322723372494734
1776715079.1547048,-0.025816342703345072,-0.02475739878818925,-0.3554781107344505,0.0774211614674436
1776715079.174698,-0.026090855429835916,-0.009173450290867816,-0.35427388586590103,0.06578151816630551
1776715079.1947033,-0.02617382182788151,0.0007479811630115296,-0.3532267599263572,0.03597149076227679
1776715079.2147279,-0.026382214514764524,-0.02400812393405756,-0.35265445656416206,0.01685799438115576
1776715079.2347424,-0.02688241808974729,-0.027806647176319504,-0.352327599411314,0.012626284376399344
1776715079.2547016,-0.02734782339741392,-0.023112539746276695,-0.35225117350417934,-0.003982181029614118
1776715079.2746959,-0.0276461804572083,-0.008214449498490817,-0.3526320514262944,-0.0327760155675052
1776715079.2947187,-0.027660820596120888,0.008209271886044034,-0.3535904291977446,-0.05519983636188508
1776715079.314861,-0.02762956950268842,-0.006396231081112577,-0.35479467110860424,-0.059840016440497745
1776715079.3346863,-0.027762659156989673,-0.007270118411518686,-0.3560632121934466,-0.06302890617511059
1776715079.354696,-0.02778096324634957,0.004716022439859496,-0.35715412297498034,-0.06872171672020744
1776715079.3747995,-0.027522786977000092,0.015409290598698028,-0.3585936346736069,-0.0712323338755636
1776715079.394692,-0.027365722242598752,0.002135824740678846,-0.3602444645914453,-0.08228339907680549
1776715079.4147983,-0.027404351761742867,-0.003804699190473923,-0.36193916153683026,-0.07898200273719125
1776715079.4347982,-0.027319866774658634,0.00977293804064254,-0.36341279663331405,-0.06299442919448728
1776715079.454691,-0.02707967102240142,0.008624977707865439,-0.3644677992102745,-0.04527035888264508
1776715079.474731,-0.026853604609677444,0.01013423197561196,-0.3651827688941332,-0.02593296867899575
1776715079.4946952,-0.026665671903556003,0.014026528455663587,-0.3656022917639115,-0.021424521785549322
1776715079.5146945,-0.02640322449541676,0.01361010362514152,-0.36593050328521115,-0.005250951235499679
1776715079.534769,-0.026124409733714795,0.013254911031547675,-0.36579226745097615,0.02060383561657808
1776715079.5547476,-0.025856670261808816,0.010239094919081815,-0.36516479647802436,0.03696627505964689
1776715079.5746973,-0.02577581120714043,-0.002104260865070748,-0.3644953055482787,0.04215709613952945
1776715079.5946918,-0.02578114304944133,-0.001023110758829368,-0.3634246638535201,0.05600786775132094
1776715079.6146874,-0.025627996600050187,0.017758256402053682,-0.36213027029386863,0.06975291972555686
1776715079.6346996,-0.02530882018963221,0.010820998821711933,-0.3606734802889208,0.06850055283367773
1776715079.6548028,-0.025291077526341407,-0.004177266553255871,-0.35963005233672596,0.06076061671793176
1776715079.6747074,-0.025368334560188728,-0.002002222054660399,-0.3582905930388262,0.06593803385071384
1776715079.694803,-0.025279127295924783,0.01569258783925119,-0.3568185048131475,0.07659641766679037
1776715079.714801,-0.02473119211854278,0.03359738410673453,-0.35541202814443457,0.05635735688354604
1776715079.734705,-0.024145892155788082,0.023038575887380702,-0.3544266837342771,0.03828908969898803
1776715079.7548034,-0.02394490572210287,-0.0018971935089044795,-0.3538701888190074,0.030240810422830666
1776715079.7747207,-0.024102790624472892,-0.010651732241214934,-0.35335909069458643,0.018905194240722567
1776715079.7949128,-0.02430763218408392,-0.007746333315764201,-0.3532067071868223,-0.004029741273676946
1776715079.8147025,-0.024364382955718068,0.0013915098647982876,-0.3535513029478329,-0.029320600996947555
1776715079.8347042,-0.0243192716887786,0.0015856839508687076,-0.3542567467223472,-0.03786180708819509
1776715079.854693,-0.024443388493366327,-0.01304287493510485,-0.3552121506052642,-0.05230224049831178
1776715079.874786,-0.02462037828364263,-0.008695345206757632,-0.3561333189521277,-0.059895665823285205
1776715079.8946974,-0.024749709691530626,-0.0013562349291871556,-0.3573592069019633,-0.057089029323648566
1776715079.914695,-0.024846767607244174,-0.009190034640401579,-0.35860714557446777,-0.0622566430222935
1776715079.9347236,-0.02491324008521643,0.0016669319486148915,-0.35996895461448286,-0.06552267338709039
1776715079.9548435,-0.024868073147959503,0.0037912803368627124,-0.3609663464517372,-0.05524186381832097
1776715079.9747345,-0.024953874337317744,-0.011693391971728279,-0.3619651118651478,-0.04123221644914454
1776715079.9947264,-0.02512627219122388,-0.0021667106879385556,-0.36277316623350475,-0.03718462287908619
1776715080.01472,-0.025438648731415478,-0.022589130219756018,-0.3635031146704634,-0.03236638654623425
1776715080.0346897,-0.026090920672645318,-0.04238762116837741,-0.36406402949283,-0.020797082153386937
1776715080.054693,-0.026773534855116573,-0.01243581060618286,-0.3643487384400497,-0.003304561060819111
1776715080.0747015,-0.026434900154815942,0.042156741686040375,-0.36418591521124144,0.018881686044027957
1776715080.0947058,-0.025605759522294914,0.04207415045095726,-0.3636275657738153,0.036026425803292295
