Abanesjo/go2_pendulum_ros2/src/go2_pendulum/go2_bridge/data/data2.csv
timestamp,pendulum_joint1_pos,pendulum_joint1_vel,pendulum_joint2_pos,pendulum_joint2_vel
1776714692.9665172,0.0,0.0,0.0,0.0
1776714692.9833665,-0.03900506922946611,0.0006717045759913054,-0.3614441852523136,0.0005513083774852934
1776714693.0030909,-0.03903983481774966,-0.004526283650321164,-0.36143959373678103,2.8236211297327785e-05
1776714693.0230098,-0.039154323975537766,-0.0051146217573436875,-0.3614894464000675,-0.0034031148310469383
1776714693.0429866,-0.03910419389863827,0.009213879007747908,-0.36150700920630374,0.000158597038347974
1776714693.0630994,-0.038899696258697804,0.011009898626634262,-0.3614546305083782,0.003652657682785332
1776714693.0829601,-0.038832385426702976,-0.005116301760523426,-0.3614836926967757,-0.007693782999844245
1776714693.1030958,-0.03899490965075554,-0.009384820504885996,-0.3616350677932356,-0.006296369727987194
1776714693.1229668,-0.03925674102555011,-0.012137620719982964,-0.361641035508361,0.005341353835266238
1776714693.1431806,-0.03926466735524331,0.007153568509531832,-0.36152687403402184,0.008102800545086497
1776714693.1631985,-0.038985182004633454,0.018496837018543516,-0.3613671873593155,0.00457343120337339
1776714693.1829433,-0.038887870157978864,-0.010575555202525719,-0.3614449221867551,-0.009414792335919353
1776714693.2029371,-0.03906556689110663,-0.00586307671122549,-0.36163295276594776,-0.007576387711089927
1776714693.2230208,-0.03916501769746314,0.0001730770153299116,-0.3616324364213612,0.010253460423412797
1776714693.243079,-0.03912834861235128,0.002341002812337012,-0.36142806228309277,0.012133707800111582
1776714693.263141,-0.03893129537052867,0.01549405719813536,-0.36130207510486967,-0.0006247072982767943
1776714693.283241,-0.038776607011351744,-0.0013209660516110833,-0.36141166953052034,-0.010837839073526645
1776714693.3029501,-0.03889040694811215,-0.009659727646178978,-0.3615836397592187,-0.003653692749352011
1776714693.3235278,-0.03900545798176621,-0.00010057067922783491,-0.3615589368361822,0.00589609082657061
1776714693.3429682,-0.039029441017296135,-0.0019252100491228274,-0.3614595918382139,0.005894441798422356
1776714693.3630672,-0.03897665865055973,0.004698978918033184,-0.36137183304008247,0.001779303273615751
1776714693.383055,-0.038884176371672866,0.004868394515641139,-0.3613767875545048,-0.0033926450894656845
1776714693.4029512,-0.03890197580302465,-0.007055219262518078,-0.36152402751742063,-0.00971111875889008
1776714693.423189,-0.0389863189468274,-0.0011254190161279765,-0.36157918394046235,0.0049008910230441405
1776714693.4432502,-0.03903546788067985,-0.0017884253989795262,-0.36143799686026723,0.013211920342168115
1776714693.4631608,-0.03905048249102047,-0.0002588241949238318,-0.3612990788284842,-0.000293211848831465
1776714693.4832067,-0.03893612018996395,0.011431273392783131,-0.3613841814401908,-0.007834424110956917
1776714693.5031638,-0.0388138216519887,-0.0018077151177274542,-0.36154541852678557,-0.004499649041843412
1776714693.5233788,-0.03893875522272181,-0.011601432714177157,-0.36158076914270854,0.001737049884536379
1776714693.543656,-0.0391111860990417,-0.0073234114645033405,-0.36152654450367544,0.0047184677341873815
1776714693.5631957,-0.03920021509214791,-0.0005842124122069775,-0.36147593640822384,4.45201585823618e-05
1776714693.583127,-0.03906474400343504,0.012409837375566793,-0.3614637952298142,0.0012859615219396048
1776714693.6029546,-0.0388273800449582,0.009249840119796418,-0.3614797735992493,-0.0018275814250936495
1776714693.6230388,-0.038834686620708436,-0.010223664200411306,-0.3615553063623994,-0.005425932381851739
1776714693.642951,-0.03900928835535078,-0.011346325091307147,-0.3616101917836505,-0.00010177165592151205
1776714693.6629987,-0.03917542549754273,-0.003910426426641439,-0.3615313738607471,0.006851900433495706
1776714693.6829705,-0.039127200097696546,0.007178152648226688,-0.36138914217391593,0.00608755712041642
1776714693.7029386,-0.038924334536879,0.012292152740124934,-0.3613544296089593,-0.002932536629279614
1776714693.7229812,-0.038824390832799274,-0.003125770976862355,-0.3615260807756039,-0.011686001836674675
1776714693.7430146,-0.03896245009362267,-0.012143461157858665,-0.36164097953485963,-0.004445331011326825
1776714693.7629397,-0.039144015658193435,-0.00476676248140194,-0.3615727322798368,0.010644760740850634
1776714693.7830083,-0.039108691165551934,0.007762654214490225,-0.36136144650647073,0.006949478622329641
1776714693.8030083,-0.03886015323134487,0.013142185449248833,-0.3613846288579043,-0.007390803305362015
1776714693.822947,-0.03874082779644267,-0.002832691919956179,-0.36159844866395385,-0.011659229776542324
1776714693.843,-0.03892763137530915,-0.018817492840262476,-0.3617029001590388,0.0004182079573049613
1776714693.8630168,-0.039149785384372845,-0.0018053030879330162,-0.3615619380564047,0.012017527562301122
1776714693.883007,-0.039037747050037166,0.013320227614143143,-0.3613552754112117,0.005961954969777139
1776714693.902942,-0.03886302038637203,0.001200732567152793,-0.361375962907048,-0.007748182303779272
1776714693.9230301,-0.03887900539886848,-0.0020131112095166243,-0.36153613970113035,-0.008623078269916373
1776714693.9430106,-0.03890843969557756,-0.0016627043573237826,-0.3616730978918191,-0.004915325507409696
1776714693.962987,-0.03899056129929679,-0.003913008851208821,-0.3617274038966506,0.0002606190411107434
1776714693.9829938,-0.038978309539782985,0.00317999592933034,-0.36162724529065593,0.008673711713239607
1776714694.0030072,-0.03894357639302005,0.00214319197786772,-0.36154048052752874,-0.0005589413402895538
1776714694.0229363,-0.0388423748477336,0.005601894921950956,-0.36160577911354574,-0.005394949789466752
1776714694.0433495,-0.03882533942116602,-0.0018619512162412616,-0.3616160043244304,0.004198032818438113
1776714694.0630097,-0.038936767135980335,-0.012732771237428844,-0.36155810474553113,0.004483225934104329
1776714694.0830054,-0.03910214548535916,-0.001040303313488325,-0.3614745514195725,0.00041812258521356505
1776714694.102936,-0.03903983640076741,0.005871698901379049,-0.3614647165755224,9.154886581175248e-05
1776714694.1229355,-0.03892486775136074,0.0027517543783986825,-0.3614885021638569,-0.002831152973886253
1776714694.1429365,-0.0388457984415815,0.00426297893022691,-0.36153095223555914,-0.0021426539676165923
1776714694.1629543,-0.038904948170060086,-0.007379282877242543,-0.36152988993623614,0.0031992426654350314
1776714694.1829345,-0.03905697961043179,-0.007139048925401695,-0.36145813211807487,0.00458580868646119
1776714694.2029955,-0.039108525294453515,0.00555127891065485,-0.3614055840594529,-0.0011624858442635944
1776714694.223054,-0.03900694159116582,0.002257278818100658,-0.36145205912472944,-0.003712357493955043
1776714694.2434726,-0.03896105552798812,0.0008337968335679485,-0.3615393627819635,-0.005249917500034451
1776714694.2629452,-0.03900174484263337,-0.004802415545872171,-0.3615955667136957,-0.0012048049555397622
1776714694.2829487,-0.03915656270773398,-0.007953836276732698,-0.36154059867146093,0.005572836067710307
1776714694.302943,-0.03917290296632617,0.0067197442219109615,-0.3614920618785944,-0.0005059402107379096
1776714694.3230436,-0.039039237874055215,0.0059302480200497665,-0.36150942560526855,-0.002192551574472068
1776714694.3434105,-0.038970869285260085,-0.0013484783597310784,-0.36155217415824104,-2.437524857512585e-07
1776714694.363144,-0.03900447375432853,-0.0011703694245760593,-0.36156939341254213,-0.002399635231842945
1776714694.383086,-0.039091696130674536,-0.005766696566100654,-0.36162090734806007,-0.0029923561720170966
1776714694.4030993,-0.03914820953836656,-0.0008727535776818229,-0.36163158742973167,0.002215338977771264
1776714694.42293,-0.0391302426724952,0.0030796680446232155,-0.36153981717703276,0.005547507840651944
1776714694.4429696,-0.039069389042024824,0.0022235844554905904,-0.36149434189478613,0.0012467359910455222
1776714694.463145,-0.03898551153869892,0.005334788177124919,-0.3615276363857728,-0.004452855662915978
1776714694.4831414,-0.03898417834283954,-0.005822984341375112,-0.3616366976228348,-0.0038886328965419548
1776714694.5031307,-0.03914529451847089,-0.008736934728119539,-0.361611629698178,0.007143539930848597
1776714694.5229297,-0.039159576668275076,0.007493168615025275,-0.36141504946918024,0.01130045768367638
1776714694.5429692,-0.03902858286823782,0.009218676806353493,-0.36132563324521927,-0.0008934574038645948
1776714694.5629654,-0.038886488722303256,0.0022957282136991386,-0.3614370624842299,-0.009263295538041838
1776714694.5829372,-0.03894374711033713,-0.0075285464859659035,-0.36155800219653805,-0.001323548740711722
1776714694.6029334,-0.03918247174538157,-0.013571426374042225,-0.36154364085345014,0.002598841929571938
1776714694.623307,-0.03924726226451025,0.004441100491762828,-0.3615011166130966,0.0017228601668124455
1776714694.6434987,-0.03904499027829937,0.01550250612929907,-0.36144159121931096,0.0036902604887925072
1776714694.6630752,-0.038858381651101274,8.678192988097189e-05,-0.36141846614680473,-0.0007923610965918648
1776714694.6833534,-0.038925063605704635,-0.006285947376008724,-0.36146878171368113,-0.0032791617929746053
1776714694.703011,-0.039101914922892014,-0.010041631484979205,-0.3614792818067934,0.0018091770500872073
1776714694.723222,-0.03919223079819833,-0.0022728173812515268,-0.36141428142005166,0.005895219378733829
1776714694.7429793,-0.03906671359527236,0.01347844173276068,-0.3612657769518501,0.006702639253058917
1776714694.7633271,-0.0388681060559951,0.006102684316677251,-0.36125210673286,-0.0047723437577495975
1776714694.7829564,-0.0388752971947108,-0.008426084869099723,-0.3613936571606682,-0.00933454177713422
1776714694.802934,-0.03912064505068713,-0.012955328387768944,-0.3615277193441758,-0.003165750675278023
1776714694.8235667,-0.039295451164057665,-0.0031756655496511382,-0.36152817893731676,0.0036765395191038497
1776714694.8429322,-0.039203434040916536,0.013679845497558615,-0.36143010871104725,0.007605864151307928
1776714694.862937,-0.03891323117854649,0.012633204134364875,-0.3614096405444292,-0.004250323857013294
1776714694.8830416,-0.038842305159852236,-0.0059703129364680335,-0.36153018802270487,-0.008134040478653848
1776714694.9029284,-0.03898266808582686,-0.0064348103429646974,-0.3617054800396332,-0.0053124991530741905
1776714694.9235282,-0.03900810781140904,0.004074938850768317,-0.36176145113194347,-0.0009269464710843778
1776714694.9430516,-0.03893556620449998,0.0061047096032847,-0.3616453263998223,0.012272284466645189
1776714694.9629254,-0.03881806181640898,0.004674216399072256,-0.36142473406435294,0.0062247352489774865
1776714694.9829948,-0.038790628311024616,-0.0014704136328095585,-0.36146725293316323,-0.008992873070906793
1776714695.002937,-0.03894299464793044,-0.012420510647975821,-0.36157467920039377,7.24094554707122e-05
1776714695.0230172,-0.03914687268233807,-0.011881044182831979,-0.36153122995905307,0.0058204366983956035
1776714695.0430355,-0.03919001609517521,0.007188594581471558,-0.3614518439521761,6.237928209906762e-05
1776714695.0632517,-0.038918115485360956,0.016902779864278947,-0.36148641273878057,-0.003638181757072756
1776714695.0834348,-0.03873557624763802,-0.00017642158247099804,-0.3616165182544486,-0.007329822274884323
1776714695.1029663,-0.0388896583229311,-0.012779261853566246,-0.36169696370364063,-0.0009445525082021344
1776714695.1231222,-0.0391145900185299,-0.011967533932030455,-0.3616354898702654,0.008547022735829524
1776714695.1429374,-0.039192641493470286,0.0033948659615663096,-0.3614458659570504,0.008068433067220049
1776714695.1630058,-0.03894630032004297,0.018361291621727796,-0.36141755870363407,-0.004484986958444681
1776714695.182944,-0.038727430766064136,0.0018499387151551666,-0.3615893685927093,-0.010187899843745907
1776714695.202933,-0.038887497249070056,-0.015454919047027713,-0.3616904342585294,0.0005291433305512072
1776714695.223014,-0.03914836409176248,-0.006988221504774975,-0.361592103436147,0.00919581317256557
1776714695.242958,-0.03917116601708401,0.004517287382875643,-0.3614695795150201,0.005775519147316555
1776714695.262929,-0.03900839853079803,0.009173540034412675,-0.3614102751877498,0.0004578887147608235
1776714695.282931,-0.038874561723933346,0.0022430369762784647,-0.3615052025791622,-0.00875188210181177
1776714695.3029304,-0.03895905197121606,-0.009840694522642052,-0.3617462039423435,-0.012457348287793657
1776714695.3229558,-0.0391225430905114,-0.009223690222375416,-0.3617551400689094,0.007693248092023319
1776714695.3429415,-0.03918604077199307,0.004961623644102117,-0.36142436384417875,0.0220623578428516
1776714695.362986,-0.03900382483394405,0.011508354000972179,-0.36125940385928335,-0.006369522631047175
1776714695.3829358,-0.03883432498462358,0.0032740405787920063,-0.36154418808161387,-0.017118082110234578
1776714695.4029286,-0.03890251365015039,-0.008936335713580115,-0.3617944576419201,-0.0022277497672016366
1776714695.4230263,-0.03903210358479392,-0.0035931617076187528,-0.36168464968604985,0.011078399696035746
1776714695.4429357,-0.03904834147521116,0.004386151481944323,-0.3615046565430874,0.010573310408252379
1776714695.4630115,-0.03897861738391231,0.001184738085624193,-0.3614292028161954,-0.004096277047699992
1776714695.483009,-0.03895687840412912,0.001298782969809495,-0.3615791993138169,-0.010068112138045926
1776714695.5029223,-0.03890533635176275,0.0030570298281922537,-0.36172151625648935,-0.002286452417187279
1776714695.5230072,-0.03886337630525846,-0.0006772383657601272,-0.3616420950152721,0.00950125949743752
1776714695.5430582,-0.03893681432609358,-0.006811275147121987,-0.36151576473478664,0.00773575240154778
1776714695.5629852,-0.03907733450397235,-0.006048474957670108,-0.3614608386032324,-0.003082976524039216
1776714695.5829453,-0.03903555392375067,0.010129526081062143,-0.3615609799891032,-0.005250567394294414
1776714695.6029513,-0.03882702239233053,0.008440467570815555,-0.3616392834160392,-0.002035792721823526
1776714695.6230304,-0.038828854584961256,-0.009188708910702711,-0.3616336485331413,0.0021654557934611685
1776714695.6434703,-0.03899313340347921,-0.011427948998426404,-0.3615850944406801,0.0031879543047357295
1776714695.663328,-0.039128575748473386,-0.00028879480591441353,-0.361519511620077,0.001977074841884141
1776714695.6831992,-0.03905364210629014,0.0074080652991593415,-0.3615021158895281,0.0005731833011377585
1776714695.7029347,-0.03887632038192738,0.007594584463677154,-0.36146812882975643,0.0018787533640800547
1776714695.7231426,-0.038824781219239525,-0.0009519413708187485,-0.36148691482786605,-0.0010160294462668862
1776714695.7430277,-0.03893868139467311,-0.010738176651702,-0.3615367237850641,-0.003080312095430582
1776714695.7630146,-0.03919705584290783,-0.010538822171765619,-0.3614619894685955,0.010080157676587875
1776714695.7830112,-0.039194014320353056,0.008961752071074552,-0.36130682890284094,0.004288515376828617
1776714695.8029306,-0.038911754980723426,0.01727042665130868,-0.36133512641159465,-0.0085117516258848
1776714695.8229632,-0.038737243893593495,-0.003593636062173569,-0.3615279814197946,-0.006446940677363955
1776714695.843023,-0.03891917420473504,-0.015851836807061023,-0.36157121128721004,0.0014632384138102417
1776714695.8630152,-0.03918401982598027,-0.008254970329941588,-0.3614225248469795,0.011132038439107594
1776714695.8829384,-0.03914706650704845,0.01153378120124697,-0.3612681227540371,0.002293449931989766
1776714695.902934,-0.03891812237438953,0.008296787167018607,-0.3613764375827677,-0.011386506152233578
1776714695.9229388,-0.03886202017097032,-0.004993186977182748,-0.361564307272482,-0.005319427907825691
1776714695.9429176,-0.03898061015092444,-0.009339416948632856,-0.3615613269847092,0.005654550418608961
1776714695.9629405,-0.03916763386432839,-0.006001221683353611,-0.3613657395458728,0.009802686632455426
1776714695.9829488,-0.039170685386359816,0.005957962420101409,-0.3612834211472646,-0.0015784561850558099
1776714696.0029488,-0.0390065615850478,0.009373530836834745,-0.36138547068906846,-0.008411673120857666
1776714696.0229878,-0.038894179666894735,0.0029124468021634042,-0.36152620507637784,-0.005157460113557999
1776714696.0430195,-0.03888849673895846,-0.00218243237566422,-0.3615667626134202,0.0011276629680632144
1776714696.0629888,-0.03901635406746874,-0.007981521438088654,-0.36147638724889586,0.006668877427523423
1776714696.0832815,-0.03909585723669886,0.0005166506653767472,-0.3614342982860545,-0.0031215062469833743
1776714696.1029391,-0.03902280046968848,0.00812140268322599,-0.3615466322050963,-0.007992362810317122
1776714696.1230943,-0.03890466527857351,0.001756085261930107,-0.3616489089762449,-0.00016464170167918013
1776714696.1430073,-0.03887938220017535,0.00017973921378823532,-0.36159267114133387,0.004930251959201382
1776714696.1633039,-0.0389068797542092,-0.0036412697285645723,-0.36151076566996365,0.0032425636988100415
1776714696.1829803,-0.03908313915791385,-0.010733484483619174,-0.36149724834024416,-0.002449782228559849
1776714696.20294,-0.03913950970193815,0.004617264234018592,-0.36154358488551985,-0.001382435269957627
1776714696.2230582,-0.03896305744010322,0.013788465696448565,-0.3615772525234066,-0.0017330216895103945
1776714696.2434003,-0.03879310661613122,0.004592221290982176,-0.3616265923152113,-0.00412920749067891
1776714696.263382,-0.03885219697005467,-0.008148783391417141,-0.3616271014859581,0.0031209452594893605
1776714696.282939,-0.03906269575902528,-0.011034827050561288,-0.36153752562562147,0.005615940406024311
1776714696.3029401,-0.039106114772521086,0.0075497342973527,-0.3614712616610337,-0.000221352076002157
1776714696.3232708,-0.03893551898563954,0.013894551354428825,-0.36152682733493635,-0.00431377423421031
1776714696.3429825,-0.03874184123734763,0.00201459017648406,-0.3616190456994758,-0.003431991234454035
1776714696.363455,-0.03881305217285243,-0.008564517766060209,-0.3616147901269011,0.0036475034320151423
1776714696.3829796,-0.039006890893340695,-0.009022233919284695,-0.36149287266802205,0.005509334324509174
1776714696.4029386,-0.03905389200959193,0.003756665355576977,-0.3614793377669615,-0.00392926308158259
1776714696.4229968,-0.03894056416330791,0.009626866482259883,-0.361572289824283,-0.008031533896982301
1776714696.4434545,-0.03881302587710884,0.001493083963796174,-0.36166107134052033,0.00047557395773312194
1776714696.4631853,-0.03884034720003793,-0.003764117544271861,-0.36161066728259034,0.003744008163500956
1776714696.4829206,-0.03890538666501332,-0.0021500386198136517,-0.36155250078498635,0.0008613542136157726
1776714696.502926,-0.03901610906197414,-0.006975683892273529,-0.3615831617517315,-0.002267310620888141
1776714696.5229313,-0.03908164789435405,0.0001298704679838919,-0.3615884199843921,0.0018190303276786057
1776714696.542972,-0.03900039878712397,0.009958002239534205,-0.3614764052289997,0.010244439429561103
1776714696.562947,-0.03878323269045929,0.009210873622040372,-0.36129267668037596,0.007218751274886914
1776714696.5829225,-0.038721081045723374,-0.00290281145845267,-0.3612473069587365,-0.004350768422757945
1776714696.6029274,-0.03892744292184322,-0.014341677013533533,-0.3614337434861047,-0.011426162830404651
1776714696.6231573,-0.039071943250138005,-0.0034820744155705935,-0.36157242276206886,-0.007131399313973663
1776714696.6430097,-0.03895331917116071,0.014598831595830294,-0.3616370214228599,0.0008797317573638885
1776714696.6632655,-0.038691042881926076,0.008018623870786057,-0.36163067061299514,-0.0016179939974678703
1776714696.682928,-0.038686349883745356,-0.006816568949970334,-0.36169193851201586,-0.0028414556104787714
1776714696.7033489,-0.0388600261310246,-0.0131294869928162,-0.3617267478943237,-0.0014173740183209826
1776714696.723507,-0.039125127177535954,-0.004926612905576749,-0.36173850555619314,0.0019218902725230969
1776714696.7429805,-0.039082593453112456,0.010570138016888775,-0.36164082801110375,0.008255224705721265
1776714696.7629738,-0.03878604841111741,0.01606934615895675,-0.3614956345374992,0.005611840968093418
1776714696.7829618,-0.03862364023027326,-0.0020457917513336393,-0.3615046619437916,-0.006258237046810944
1776714696.8029444,-0.03885934440709916,-0.0184812729543406,-0.3616007686104679,-0.001994212634132797
1776714696.8234668,-0.03910767047042377,-0.010498133857064218,-0.3615715654148503,0.005639349214441536
1776714696.8429408,-0.039065003153518824,0.014514895848334236,-0.36139600211940137,0.009389265618167553
1776714696.8633075,-0.038728103858566766,0.01543806120605111,-0.3613062238344174,0.0006197559945559927
1776714696.8829396,-0.038625903444686326,-0.006536515859870945,-0.3614508041187335,-0.012258342779604359
1776714696.902934,-0.03884139431062551,-0.013551616071384498,-0.361602165966766,-0.0024925931337125284
1776714696.9229422,-0.039029596723559316,-0.0030785452868611063,-0.3615483171435491,0.007931371374886531
1776714696.942941,-0.03896629871525879,0.009873248002797971,-0.36145849128581364,0.0019477968446193206
1776714696.9630215,-0.03870586101857189,0.014108425355153248,-0.3615162783956471,-0.00703920268020819
1776714696.9829428,-0.038551763859315774,-0.0011949427815636099,-0.361699702661016,-0.008902296280276056
1776714697.0029316,-0.03872707075585423,-0.013392117572507758,-0.3617981785341611,-0.0007923081695846435
1776714697.0235348,-0.03892679187658214,-0.010878208206951984,-0.3617746585344762,0.0044858983163302835
1776714697.0429556,-0.03898172186763611,0.005792545020248549,-0.3616931256290475,0.0019335646064964074
1776714697.0629306,-0.03879623604308163,0.009337671922565544,-0.3617063851231527,-0.0044593102711101285
1776714697.0829291,-0.03871540107851175,0.0005798101013579915,-0.36176409616292254,-0.0038660193373649676
1776714697.102935,-0.03878028388587078,-0.005855490823951731,-0.36181724609848337,-0.0001562228195042259
1776714697.123037,-0.038922814449876,-0.005237808903107197,-0.36178697465626897,0.0028980947636600973
1776714697.1429646,-0.039024002502195426,-0.00471774830958821,-0.3616760679831864,0.007589883641975437
1776714697.162929,-0.03901503392042912,0.004378448382957437,-0.36153683607101095,0.00686181576897571
1776714697.1829214,-0.03886244457851569,0.00788110419566597,-0.3614490080479209,0.0017925725995640018
1776714697.2028909,-0.038774340410482444,-0.0005222727846159181,-0.3614400089680617,-0.0003954434882356139
1776714697.223,-0.03889835707044815,-0.009432513591049227,-0.3614606853528993,-0.0018547857474648932
1776714697.2429724,-0.03902552504316058,-0.00504756375464098,-0.3614817859556042,-0.0016170978324960839
1776714697.2633293,-0.03898912857432778,0.007945478742033926,-0.36147808664452596,0.002642211690606411
1776714697.2832875,-0.03884160603068439,0.004769127527101402,-0.36142203118504673,0.003020337531635775
1776714697.3030596,-0.038791197773019565,-0.0016219064592177673,-0.36142536653049984,-0.003846218403395163
1776714697.3234522,-0.038867805043454606,-0.006035605702647315,-0.36148264110164174,-0.0036775131310822218
1776714697.3429668,-0.03898332817740602,-0.004570613916583269,-0.36157692850418127,-0.0029157987362609106
1776714697.363412,-0.038987828392859046,0.0044611834114914595,-0.3616181196158509,0.0009496303838605336
1776714697.3831758,-0.03889167851755665,0.005178231205317144,-0.36153074765066184,0.008408444657976855
1776714697.4029844,-0.0387938999172632,0.004966960073501572,-0.3614057626995608,-0.0016911267574892808
1776714697.4233925,-0.03878725822542857,-0.001268186994152612,-0.3615564349169158,-0.015710734046563646
1776714697.4433537,-0.038929757912840826,-0.012018423861318323,-0.3617825005339269,-0.0085839309910829
1776714697.4634051,-0.03904735968805255,0.0021080132729001944,-0.3618998439108718,0.0009603117540428752
1776714697.4835095,-0.03882216354964421,0.017703483766264197,-0.3619021432827903,-0.0032896988051995812
1776714697.5029252,-0.038545620205830064,0.00839406836324845,-0.362029807547484,-0.0059664605240159485
1776714697.5233195,-0.03851874896500877,-0.006034079591841532,-0.3621323586291375,-0.006814959050413627
1776714697.543237,-0.03879317809708038,-0.017587661963843287,-0.36216970694740525,0.003222059257195653
1776714697.5635529,-0.039026454641536645,-0.003727756489473058,-0.3621047598632648,0.0030651649404556114
1776714697.5834594,-0.038866762659136286,0.01920723628001253,-0.36203018629230865,0.0015208313892745018
1776714697.6034539,-0.03852567444148049,0.010525140027623961,-0.3620136802706537,0.0004004185222232781
1776714697.6230493,-0.03851036860982303,-0.010065193821757148,-0.36204511631975733,-0.0038589184001101007
1776714697.6434562,-0.038727730526482075,-0.015270608635281721,-0.36203326516439305,0.003594686840537653
1776714697.6632876,-0.03894536036435805,-0.004033091373269515,-0.3619576745526786,0.004531927281410164
1776714697.6833553,-0.03883303610868857,0.01282862935446473,-0.3619149282459957,-0.0020769950651158275
1776714697.7029476,-0.038652890918255835,0.0033858327174739467,-0.3619604830995282,-0.0007496365318611087
1776714697.723316,-0.03867938669198051,-0.007164285996271669,-0.3619598344539093,-0.0004168725215407676
1776714697.7433271,-0.03876569975916114,-0.000796995961195035,-0.3619425394157033,0.0029923072930340133
1776714697.7630405,-0.038889613284822246,-0.007077112651217618,-0.3619151574959199,0.0009516656797299294
1776714697.78293,-0.03892923431268995,0.0002102135673923422,-0.36186811513697903,0.0015887208209892645
1776714697.8029299,-0.038851075286317,0.009568198377423134,-0.36178301621274433,0.0051624703889154855
1776714697.8230844,-0.03877741849210549,-0.005167962954584479,-0.3617807212196554,-0.004915897119452728
1776714697.8430302,-0.03884238930243708,-0.0039843650810577474,-0.3618964518997444,-0.009352272192914457
1776714697.863019,-0.038922722522654295,-0.0023864991707128053,-0.3620029500296852,-0.0004591214603015814
1776714697.8829248,-0.038991468136750126,-0.003516198447516758,-0.3619434586068889,0.005454670589011723
1776714697.902929,-0.038935267472437474,0.008914232945792966,-0.361819270012399,0.0050142686196930075
1776714697.9234724,-0.03881902925522287,0.0068390012359949015,-0.3618156245464974,-0.002107827594214129
1776714697.943033,-0.03876496224268046,-0.0028599588286247063,-0.3619322371427866,-0.008198159178982367
1776714697.9630241,-0.03880227281212538,0.00041260762715938926,-0.3619722551845988,0.005117383653016505
1776714697.982969,-0.0388280453174174,-0.0019098911794078882,-0.36179126126112143,0.010881778221931926
1776714698.0029309,-0.03880316905743607,0.004226238033662441,-0.36165511361638036,0.0002782363919142661
1776714698.0234048,-0.03871044173021976,0.008300960767091276,-0.3617397220836743,-0.009701750870227954
1776714698.043028,-0.038616086688233124,-0.0016063288986502416,-0.3619309588820817,-0.00759419124877625
1776714698.063026,-0.03866282259933938,-0.005248329040768204,-0.36197012638603077,0.004337274595746843
1776714698.0829182,-0.03880897740449363,-0.007945390151236006,-0.3618410349577401,0.00601550777955473
1776714698.1029341,-0.03890438951295194,-0.001303868545270384,-0.3618524078362212,-0.004906696775105024
1776714698.1229177,-0.03884395770031573,0.009138987734498047,-0.3619233440643075,-0.006325263024276717
1776714698.1430225,-0.03871110395689886,0.003315208920927709,-0.3619938538949684,0.001080835587744966
1776714698.1630242,-0.038694808809272625,-0.0027034128740132113,-0.3619043029656548,0.005397222985124239
1776714698.182978,-0.038792159178016004,-0.005094392847489901,-0.3618013826555635,0.004441233502398667
1776714698.2029269,-0.03894275894015628,-0.008358058726808018,-0.36182883552921796,-0.005889059305796307
1776714698.2232432,-0.038912554174878114,0.008409237344714646,-0.3618963882463505,-0.004488641622349521
1776714698.2430182,-0.03877068168302847,0.006152900970493494,-0.36187985819138685,0.006123089295780426
1776714698.2630217,-0.03881307434975186,-0.012800453673113082,-0.36177810607837246,0.003223909281662163
1776714698.282935,-0.03900214965523405,-0.00327937254860991,-0.36174128136121575,0.00041239274828619443
1776714698.3029327,-0.03908938798957734,-0.005717434826868359,-0.3617139475540412,0.004465002757513492
1776714698.3231971,-0.03908513854159518,0.005139980166351699,-0.36157447536595955,0.006777388096078862
1776714698.3430154,-0.03895409788856629,0.013098030037055994,-0.3614668625117036,0.006360151671642722
1776714698.3630226,-0.03878185838240247,0.002945746519819964,-0.3615632318038473,-0.013664346835791541
1776714698.3829873,-0.038803775285007606,-0.004252793872374636,-0.3618622549430609,-0.013857546915089003
1776714698.4029226,-0.038888888365354854,-0.003322491978245301,-0.36196173974952894,0.007472189809694996
1776714698.4234674,-0.038947829800361086,-0.0013298524990706662,-0.36179668739647164,0.010634395241915007
1776714698.4430156,-0.0387999989986159,0.012510781005369065,-0.3616086547237184,0.004870617758959694
1776714698.4629793,-0.038619294710372856,0.005616029832630126,-0.3616610693795131,-0.0086186243289883
1776714698.4829354,-0.038712863710607295,-0.014829790181319122,-0.3618884654491391,-0.011620493441549362
1776714698.5029213,-0.03896688056332785,-0.0070203434148775196,-0.3618379534655044,0.015224101859627526
1776714698.522954,-0.039005112345066345,0.0022635930727202824,-0.36154014628129016,0.0221548751690559
1776714698.5430183,-0.03887055486794677,0.008233627516080505,-0.36128158645484654,0.00037996876089052556
1776714698.5629272,-0.0387537836633383,0.0023596762789804826,-0.36148472664591613,-0.01585862436461838
1776714698.5830228,-0.03886311607126376,-0.011391086082064988,-0.36173236899985384,-0.006399197899000786
1776714698.602925,-0.03907531183171995,-0.008100632174093209,-0.3616267632407404,0.015429706062532356
1776714698.622983,-0.03910163451483954,0.004982436791747591,-0.3612886207052759,0.014334669608026651
1776714698.6429496,-0.03900888343206987,0.007263015576832885,-0.361272426347874,-0.010809872812302501
1776714698.6632955,-0.038842251895931504,0.0071018420687165434,-0.3616290617340768,-0.022659442169954858
1776714698.6829412,-0.03877447390961322,0.00026153365843054055,-0.36188335477415967,0.0008047629885805652
1776714698.7029502,-0.038833759587937514,-0.0056101087376755066,-0.36172165069091916,0.011553311881036477
1776714698.7229419,-0.038896652938893946,-0.0004574274914941612,-0.3616107527635708,0.0017702587322303565
1776714698.7429926,-0.03883840683203983,0.005348534609370778,-0.36170448817449286,-0.011295268232839772
1776714698.763393,-0.03868534948112805,0.007310291257030893,-0.36189187881980867,-0.004881025686846563
1776714698.7829309,-0.038584187196688095,0.0010721315764050526,-0.36186433851995214,0.008541501457174583
1776714698.8029425,-0.03870691589597157,-0.011511836292455224,-0.36165517211959713,0.009873541835603294
1776714698.8229535,-0.0388865823921936,-0.004767971483081487,-0.3614779378747215,0.006237338840000772
1776714698.8429954,-0.03894920886846187,0.0003509568519725059,-0.36133660406379603,0.00863675658772789
1776714698.8629606,-0.03888321132056152,0.004413451002504204,-0.36120821833414163,0.00333744944657699
1776714698.8829393,-0.03868923780806048,0.012579024561231972,-0.3612500765375184,-0.007748506180930814
1776714698.9029293,-0.0386115323593505,-0.005294389209101011,-0.3613885509184923,-0.004020075913898413
1776714698.923072,-0.038813294092628375,-0.018526770440844123,-0.3613775941827225,0.00522364068264114
1776714698.9429624,-0.039008115386956047,-0.0005296392601224637,-0.36128110004599334,0.0036403118921810584
1776714698.9629428,-0.03892953373345749,0.008416148162240178,-0.3612817486690479,-0.0049245664497119535
1776714698.9829297,-0.0387821325910366,0.00023853892631746365,-0.3613592899481478,-0.0002478489759780711
1776714699.0033538,-0.03878209616709518,-0.001462899368557563,-0.36134853099287473,0.0034040177384484505
1776714699.0230503,-0.038877476887628756,-0.008920497608394654,-0.3613324805987383,0.00018663777895056022
1776714699.0430346,-0.03895307723375722,0.0021797887622292123,-0.36134407979462785,-0.0032298217692945386
1776714699.0629392,-0.03878408880779464,0.01483424954704786,-0.3614758003132299,-0.007311202833254926
1776714699.0829313,-0.038544695292526826,0.0052505103925634955,-0.3616352732478203,-0.008815036846734792
1776714699.1029267,-0.03853870483054324,-0.005102237360828682,-0.3618337934198938,-0.0057653625771350026
1776714699.1229823,-0.038754879247359056,-0.017245685521791163,-0.36175483817105325,0.009077432617802916
1776714699.1429605,-0.039067159665775716,-0.010947253793108264,-0.36148434887380226,0.01814006942618729
1776714699.1629312,-0.03907453925779355,0.012589603592126714,-0.36119868687427736,0.0011356048989270562
1776714699.1829412,-0.03881910403218766,0.008967510635242024,-0.36144298894128457,-0.01892526485682966
1776714699.2029202,-0.03870785402136821,1.0875190109144173e-05,-0.36187064309176253,-0.020289946784906476
1776714699.2229884,-0.038774032944826106,-0.006149411413630221,-0.36191607407854787,0.012394191143830335
1776714699.2430356,-0.03895287045545271,-0.007826166946707624,-0.36148087684643,0.026384532743148226
1776714699.2629716,-0.038891663144543565,0.01339962804364056,-0.361202095646888,-0.0031021816441041405
1776714699.2829375,-0.0385087661246334,0.022965062210173318,-0.3615476992333794,-0.026055674918939786
1776714699.3029299,-0.038047645887035575,0.01937493410436529,-0.3622227733281884,-0.03535850460485346
1776714699.3230238,-0.03753882395178108,0.027293424353774826,-0.3628913831943389,-0.026174198499764767
1776714699.3430467,-0.03721175888095448,0.013087989278510112,-0.363196901002084,-0.008457734755304092
1776714699.3630397,-0.0372586665827625,-0.01801898658618735,-0.3631274431060646,0.013697415308857375
1776714699.3830338,-0.03776868653200509,-0.028388341874346412,-0.3627057155923831,0.026425314667109623
1776714699.4029226,-0.03839999915264224,-0.029037653880225722,-0.36207723892757465,0.03492384135359594
1776714699.4229016,-0.03880471895934532,-0.0131710641669128,-0.3610278422491325,0.06720374679929342
1776714699.4430604,-0.039048102113947436,-0.014354763554673439,-0.35961640556564867,0.1039887103556969
1776714699.463038,-0.03949916558622759,-0.030590108659959495,-0.3570543485998481,0.14039147909217364
1776714699.4829211,-0.0400516635349205,-0.0198975781204717,-0.3540291067144714,0.15602225529743619
1776714699.5029454,-0.040545372558037966,-0.02559544027342056,-0.3504706274779755,0.18523080629698796
1776714699.5230367,-0.040995105354353356,-0.03446231891755215,-0.3470826641073256,0.22102507118819392
1776714699.543036,-0.04176029339197488,-0.03794931135538039,-0.3424147965839158,0.22462030753606888
1776714699.5629408,-0.04263041723342184,-0.044601589503665384,-0.33761178603275344,0.2298384928363949
1776714699.5829232,-0.04333979463568012,-0.02319983279182869,-0.33287206935274094,0.2297538286678411
1776714699.6031115,-0.043797839166418696,-0.01935284588080717,-0.3280987097713352,0.22504155979655904
1776714699.6231122,-0.044219306984330756,-0.03278614252588309,-0.3242810734945184,0.2351239870279893
1776714699.6429615,-0.044810937741391985,-0.02462753306013188,-0.31944724204725694,0.22718480004786756
1776714699.662981,-0.04529407484929661,-0.020400690322616766,-0.3150004549302772,0.199095366798693
1776714699.6829379,-0.04561610670404233,-0.013506147192376,-0.31110174848890493,0.17649099075199726
1776714699.7029405,-0.045744228669358455,0.0004802420396073648,-0.3074943618305001,0.17343553260713374
1776714699.7229943,-0.045868200330308403,-0.012526558709645808,-0.3037339142977932,0.18888879024652716
1776714699.7430654,-0.046099085690925454,-0.017201719128748932,-0.3005015857893605,0.20020378764026303
1776714699.763053,-0.04646241682561726,-0.016461486403151537,-0.29631705412288567,0.2007910251429711
1776714699.7830372,-0.04682422603505675,-0.019166469655422708,-0.2921606938627894,0.19957740702164328
1776714699.8030498,-0.04718100301564154,-0.0150030907402868,-0.28794516958068606,0.2064202469696731
1776714699.8229432,-0.047469420927661994,-0.018468395837660523,-0.2844010105619047,0.2183843449699755
1776714699.842925,-0.04784619119665412,-0.01892921549172147,-0.2796952997224555,0.23138772680296937
1776714699.862928,-0.048251943084465766,-0.019283978972489513,-0.2748065534679743,0.23564478095684316
1776714699.8829188,-0.04886167072209488,-0.039505718004063634,-0.26990846123919465,0.2338107515208745
1776714699.9029257,-0.04958120710488445,-0.032493763904948125,-0.26504646559992273,0.23267762853869434
1776714699.9229167,-0.050171349829336576,-0.03274653231273017,-0.2611330336818048,0.23720991816093429
1776714699.9430404,-0.05093386908380389,-0.04268548761194224,-0.25609133269663403,0.24693363086551823
1776714699.9629312,-0.05178502216163576,-0.03921500216257154,-0.2508587849321007,0.256778324434922
1776714699.9830346,-0.05282744876868632,-0.06025013134716589,-0.24541966334054918,0.26427144278878856
1776714700.0029416,-0.05409919405134973,-0.06074227258879533,-0.2399441858427467,0.2606230799862701
1776714700.0229487,-0.054961013754884894,-0.039892479666919,-0.2355794106030391,0.26043409545786234
1776714700.043033,-0.0557532039025144,-0.039861719280144925,-0.23010145834449064,0.2665967406374965
1776714700.0629294,-0.05674155765756608,-0.05708244312925434,-0.2245353650715135,0.26844286950413554
1776714700.0829437,-0.058144358982834154,-0.07445995643376169,-0.21894296122454238,0.26920398642132326
1776714700.1029346,-0.05964412648602253,-0.06684822625721154,-0.21337987287216253,0.26467921846278497
1776714700.1229255,-0.060503878913448585,-0.038430222745193726,-0.20899846663761898,0.2613942363163205
1776714700.1429555,-0.06130833719144331,-0.038352431895080336,-0.20347810391350574,0.2668811034343911
1776714700.1629217,-0.06238358884701685,-0.06695674025489265,-0.19792731934766306,0.26635754509280074
1776714700.1829271,-0.06374765478335624,-0.06276286281882029,-0.19243693647049903,0.2590254093706166
1776714700.2029576,-0.06483803844859783,-0.06412854337798993,-0.18813774774213854,0.25743854486646967
1776714700.2229426,-0.06603707139941398,-0.05202283416097653,-0.18285868305527142,0.24942789173020896
1776714700.2429435,-0.06699955280867896,-0.0400555969054292,-0.17768542949726723,0.2461519904775401
1776714700.2629313,-0.0680092186079751,-0.06013020758988366,-0.1726036970862405,0.24352569553563547
1776714700.2830315,-0.06933085020829909,-0.06556456703670763,-0.16760722075014972,0.23424528491370067
1776714700.3029404,-0.0706565280493637,-0.06066509481902005,-0.16288255012063355,0.22022156321667558
1776714700.32291,-0.07180620737883733,-0.05175727863051305,-0.1584318458837099,0.20894468706726343
1776714700.3429296,-0.07256535291587288,-0.04073784141396558,-0.154978098542413,0.20546488763861198
1776714700.3629274,-0.07354460368612865,-0.05275714550356947,-0.15075662846918467,0.1998138244675926
1776714700.3829207,-0.07474418139680308,-0.0628555714020578,-0.14675578523202645,0.18500733065700953
1776714700.4029388,-0.07603181321650787,-0.05776636725096482,-0.14286048860107026,0.1870604259833672
1776714700.423069,-0.07721818262074062,-0.056912495402038715,-0.13887281208388733,0.19694386567380656
1776714700.4429178,-0.07803325454139881,-0.044379352152773915,-0.135626107616998,0.1929448502927666
1776714700.4629223,-0.07893725370650459,-0.04340757099533696,-0.13168105061135627,0.18708638478969625
1776714700.4829862,-0.08004345192023916,-0.06301182427269625,-0.12790064251426686,0.17810514616206347
1776714700.5029318,-0.08141003096831032,-0.06478052358274022,-0.12421319693510438,0.17646358942794005
1776714700.5230887,-0.0824745485409156,-0.060684083520414794,-0.12118517851229658,0.18701296158371344
1776714700.54292,-0.08364074770699478,-0.05135038983539808,-0.11720739172205534,0.19184095063983964
1776714700.5629396,-0.08459626081096955,-0.04221173227025335,-0.11347593225779458,0.16618338520190135
1776714700.5829225,-0.08563150014054594,-0.05773416755363239,-0.11016955964811628,0.15015273958818548
1776714700.602931,-0.08693617704948299,-0.06914102168801961,-0.10703296708348467,0.1534132864105065
1776714700.6230674,-0.0880356122991992,-0.06195960670739031,-0.10447563180016867,0.15430898794203407
1776714700.6429255,-0.08915011861517688,-0.045499868168115604,-0.10121650310365708,0.1606229377671901
1776714700.6629963,-0.09001626578835849,-0.03841535421340825,-0.09783265197956025,0.16389895839761437
1776714700.682921,-0.09098115808852823,-0.05421242381209812,-0.09452647099553416,0.1532037087339339
1776714700.702931,-0.09224645083639765,-0.0650749044467403,-0.09129276932078764,0.15655926222541128
1776714700.7231023,-0.09349940101960505,-0.0550150833047357,-0.08791763650160273,0.16830158474886134
1776714700.7429347,-0.09432674396038171,-0.043843449297766124,-0.08506530181872077,0.17349006178263177
1776714700.7630324,-0.09517477809374342,-0.04001379502733643,-0.08135138582017597,0.18379065920323376
1776714700.783565,-0.0961594599274555,-0.05540723197283859,-0.07743665417309928,0.19013979732509337
1776714700.8031788,-0.09747604112047388,-0.06916941268020099,-0.0734941758646421,0.18784276717702442
1776714700.8235147,-0.09852183466345929,-0.05620848632672876,-0.07028414449547427,0.19548780400898827
1776714700.8435397,-0.09947170205391195,-0.03481154660467828,-0.06605911799732023,0.21055776625348252
1776714700.863477,-0.10015959711823677,-0.035502861750167924,-0.06166671394993004,0.21089608609352015
1776714700.8830886,-0.10110736867360548,-0.05444963435995842,-0.05731497003154268,0.20813474290099526
1776714700.9030955,-0.10203442128659868,-0.057693797198860974,-0.05379634407062428,0.2137252513368518
1776714700.9237962,-0.10305113036073517,-0.0380684583043816,-0.04920119300338209,0.22798344964180337
1776714700.9434967,-0.1037000470877814,-0.025097015534754463,-0.04437632417734849,0.23339497263633735
1776714700.9634206,-0.10417657752923618,-0.023086630461198576,-0.0396063419465871,0.22508033105260294
1776714700.9835021,-0.10474214897775799,-0.03154580583543293,-0.03485073417802563,0.23196037199081695
1776714701.0029268,-0.10555097350795054,-0.045081653998424565,-0.029812963282381505,0.2532983811966795
1776714701.0234106,-0.10621870879471426,-0.035748134197272685,-0.025524607908898878,0.26222066518740533
1776714701.043532,-0.10684339122994987,-0.02308595336210767,-0.019982813940405998,0.2674484534050038
1776714701.0633552,-0.10730699632293961,-0.024912670174692342,-0.014477726004520124,0.26164132782173666
1776714701.0833974,-0.10784299249289012,-0.025971044056122106,-0.008993633148742184,0.2636327656515661
1776714701.1029248,-0.10837022182148723,-0.024520862089139894,-0.0033863944186595706,0.27702932004201314
1776714701.123189,-0.10870438734093191,-0.015202777676360357,0.001283102697034152,0.2823230213331722
1776714701.1433105,-0.10898343550334888,-0.01166168067042056,0.00726134115892468,0.29032913112866926
1776714701.1634016,-0.1093347451042038,-0.022085526942816347,0.013339816023805181,0.291048163624602
1776714701.1832032,-0.1097382941291778,-0.015363704977140291,0.01931178269967098,0.28324231692389235
1776714701.2030299,-0.10996745920364434,-0.005695276859084941,0.025302451927266777,0.2936162380120354
1776714701.22307,-0.11007217917050433,-0.008828946467294874,0.03033290061058697,0.3100612699487024
1776714701.2433183,-0.11033118962619615,-0.01502712477018836,0.03667915929395818,0.2993125843383532
1776714701.2635133,-0.1106018702234402,-0.01133378340158342,0.04273960849502688,0.28269919045490566
1776714701.28325,-0.11078003598346896,-0.004260286312123329,0.0487157500321975,0.29154452758172794
1776714701.3030393,-0.11086104972453047,-0.005239526376978665,0.05474539741089858,0.29001910506455075
1776714701.3234475,-0.11094926343010551,-0.00604038230859677,0.05961347384891325,0.29178665381960095
1776714701.343437,-0.11113377049183833,-0.012587968286377427,0.06579703832819725,0.3015013030910939
1776714701.3629687,-0.11152082410415903,-0.023041373864880532,0.07184805281344747,0.27986061254607364
1776714701.3832667,-0.11200303478190522,-0.021843177132052638,0.07761142565099766,0.27240325595870246
1776714701.4029217,-0.11237946658867165,-0.015239889688500652,0.08346651298054775,0.28888252383096447
1776714701.4230294,-0.1126809550289039,-0.021330458242348582,0.08812060794784465,0.27279330194192986
1776714701.4429622,-0.1132749275561659,-0.035397272663737045,0.09368147844696943,0.25901554702782
1776714701.4629405,-0.11409789171479626,-0.0410941989843428,0.09907266132475426,0.26177483784643785
1776714701.4830213,-0.11481967807826504,-0.028297672501638282,0.10439898843091393,0.24824217155031603
1776714701.5030217,-0.11530749398268823,-0.018362530168829827,0.10958211562649195,0.2490347845241745
1776714701.522903,-0.1156980040453549,-0.02129346902914686,0.1147760626352822,0.2504897180552041
1776714701.5431616,-0.1160627607751624,-0.02265554339189435,0.11897064436307893,0.25014616140804596
1776714701.5629346,-0.11659863511750908,-0.028766148095255517,0.12415086488624141,0.2477647047559432
1776714701.582924,-0.11718564234627141,-0.02742745572415961,0.12909942967171956,0.22676460234394025
1776714701.602924,-0.11759976857684984,-0.012075942609476309,0.13372282420431114,0.2182837992983177
1776714701.622934,-0.11781034718428558,-0.012263657895858981,0.1374349069139556,0.22607573639310619
1776714701.6430275,-0.11812584023678549,-0.018772931614400468,0.14217636676684603,0.22871761107817629
1776714701.6630294,-0.11847038805499446,-0.01398956874304047,0.14683411234229035,0.21719789831634928
1776714701.6829321,-0.11883925309418787,-0.019331819559331775,0.1512130838510058,0.2053074889846772
1776714701.7029347,-0.11913035486341646,-0.008692327459650429,0.15554516737680152,0.2116567996550872
1776714701.7229052,-0.11912681091047314,0.009266715377628076,0.15919969774415393,0.22680334861946366
1776714701.7430518,-0.11890199850795435,0.01088709639354074,0.16393772037504997,0.2260581787878589
1776714701.763024,-0.11878597561648413,0.0008324576150933183,0.16851772840209228,0.21364541649428354
1776714701.7829268,-0.11886460883794095,-0.0058406893130507065,0.17298495613567894,0.21672496722755857
1776714701.802927,-0.11890044036077414,0.005122760706857299,0.1776361624835476,0.22960500613807233
1776714701.8229885,-0.11845902045156598,0.034264268047051905,0.18243039903293684,0.22929485473276906
1776714701.842933,-0.117928692926447,0.031445462945603075,0.18612023258785698,0.214039377625578
1776714701.862924,-0.1175713703324531,-0.0005901019929865359,0.19038745660369416,0.1960777677486777
1776714701.8830323,-0.11760255493865268,0.0007615710075541404,0.1944139081165459,0.1905786016860439
1776714701.9029524,-0.11730023433870204,0.030011360024639,0.1983306826366662,0.18386142279541529
1776714701.9229388,-0.11640080490978992,0.052967671646806214,0.20194197273002626,0.16180459026066285
1776714701.9429655,-0.11565011383001206,0.038807205093227326,0.20442263167252261,0.13703374500120968
1776714701.9629688,-0.11523370955362511,0.0016461216201832385,0.20706134028982626,0.11934637592789565
1776714701.9829245,-0.11514747716658769,0.010285196968631893,0.20956289929676725,0.12179664782179755
1776714702.0030127,-0.11461284241854243,0.04303681360471717,0.21207867108631914,0.12015379385907288
1776714702.0234692,-0.11355082944372358,0.05507100934890358,0.21446472110994316,0.1080091207484275
1776714702.0433865,-0.11271208096764981,0.04588288388021894,0.21624495639633617,0.10439800344303318
1776714702.063291,-0.11204924745274805,0.019569135376833968,0.21834767348754544,0.100240577093899
1776714702.0831354,-0.11148597291874018,0.034307496099751644,0.22053237164024125,0.10967794458228164
1776714702.1029308,-0.11050716840207994,0.06130911075461726,0.22299274128215638,0.1270782095716252
1776714702.1234376,-0.10945528891311901,0.06234464253180966,0.225051471101837,0.12092213520426587
1776714702.1429996,-0.10823875375263464,0.05433730883139931,0.2273914416077647,0.10488153356830787
1776714702.1634386,-0.10731912737150917,0.0361110238495253,0.229613117846157,0.11057458239915163
1776714702.1829762,-0.10654170316074875,0.04038525938882831,0.23204122997652005,0.12232439573830445
1776714702.2029312,-0.1054408128244595,0.06515087622495008,0.23456769991165713,0.1193467201753956
1776714702.2230628,-0.10411430383393214,0.060857020362265535,0.2369395416336148,0.10862836088676464
1776714702.242938,-0.10316041977405754,0.050268789705956274,0.23872682543323823,0.10741811909345622
1776714702.262934,-0.10226000184255105,0.0379699994441029,0.24115586982596482,0.12592613326057045
1776714702.28293,-0.10161546867013861,0.025676080150574876,0.24400901830426527,0.14800129411657692
1776714702.30293,-0.10091633414114068,0.03900351740896996,0.24715644955862748,0.1522671637964068
1776714702.323107,-0.10033171284346779,0.034747676225138024,0.24965442748076136,0.14804118765321228
1776714702.3429186,-0.09975058485183587,0.019623898203947387,0.2527204541234099,0.14545826984810728
1776714702.363018,-0.09921385181539513,0.033516057518695574,0.2557250494864193,0.1431018749496764
1776714702.382924,-0.09848376819257731,0.03711908336198538,0.25863067251041605,0.13295233796920525
1776714702.402918,-0.09771522731849303,0.03640803879383586,0.26127177266719737,0.11813560511231602
1776714702.4230485,-0.09710408048309291,0.03844069858581933,0.2630677676580325,0.09795098314073636
1776714702.4429355,-0.0963475577898327,0.0355323503303871,0.2648555799752755,0.07403710228966398
1776714702.463017,-0.09546192108876875,0.047239709837219424,0.2661857044741939,0.05588758403201899
1776714702.4830182,-0.09447550831658272,0.04503111744657062,0.26722975831208234,0.044056415604099786
1776714702.5029159,-0.09386135043860144,0.015070463109547183,0.26813053374177953,0.04318990236478515
1776714702.5229256,-0.09357332012487843,0.01379778570721385,0.2690498593170987,0.04476669863466465
1776714702.5429413,-0.09335947203633563,0.017476760067239305,0.26981332918204104,0.04609483739309894
1776714702.5629473,-0.09298068024638767,0.016603682616896154,0.27072091357894523,0.0404535853948943
1776714702.58303,-0.0926520951712647,0.015504017098656508,0.2714442079480186,0.02925904513433375
1776714702.602931,-0.0925504323080984,-0.00488390876504774,0.2721028997833664,0.03329022689545558
1776714702.6231298,-0.09264403031652842,-0.006168972567713038,0.2726895036715458,0.038170524934926675
1776714702.6429343,-0.09254501592866862,0.01571207065839242,0.2734113569082275,0.02997474305580461
1776714702.662925,-0.09218387788218517,0.019863749057195956,0.273985897057715,0.024997437978421133
1776714702.6829686,-0.09176708046859666,0.017854468405169244,0.27449846425559793,0.0253518411108673
1776714702.7029274,-0.091523387971917,0.006020380574516648,0.27498900517277064,0.023485779557931297
1776714702.7230208,-0.09155204038652608,-0.009907148934352239,0.27544013408362594,0.0299346411262148
1776714702.743043,-0.09159238949129644,0.004825246966907004,0.2761495453059442,0.03819904786333972
1776714702.7629318,-0.09141120934270952,0.01369078493036413,0.27687748417409036,0.03083651622913608
1776714702.7829177,-0.0912258008929365,0.0005113859926950681,0.2774880476331167,0.026890933697552466
1776714702.803077,-0.09133514290911549,-0.008350307408493796,0.2780152567431702,0.023467978216729968
1776714702.8229744,-0.09154736416999651,-0.016571882719521758,0.2783809193826235,0.020129800434029343
1776714702.8429394,-0.09173769503038118,-0.0006409097702722577,0.2788581490979387,0.024643841001513955
1776714702.8630276,-0.09168713719304818,0.006172446391077224,0.2792675108914472,0.015176363213287858
1776714702.8829257,-0.09175133936134817,-0.013132847443922402,0.27932558230963034,-0.008887076473742095
1776714702.9029708,-0.09202856565684286,-0.014329454282806853,0.27908844240688724,-0.011722366290918496
1776714702.9229398,-0.09229074662827762,-0.015160763154956514,0.2789578544788519,-0.0035112087418603943
1776714702.9429393,-0.0926460453797914,-0.018957964856863074,0.27891441968539715,-0.0032599257012160265
1776714702.9629333,-0.09287640475023456,-0.004589914454001642,0.2786206243386948,-0.024695304833578735
1776714702.9830315,-0.09304474414612902,-0.011634399697105724,0.2779184124206681,-0.04049595670752082
1776714703.0029202,-0.09340706540258158,-0.02483724280992,0.2770932729605706,-0.036034437138480646
1776714703.0232153,-0.09385094388457035,-0.02643191285593971,0.2765538410849644,-0.03037675688909036
1776714703.042933,-0.09448804116092066,-0.03375749437324749,0.27584701139046464,-0.04077847878146457
1776714703.0629525,-0.09513889134670098,-0.03149726847278239,0.27469077935302016,-0.0706732342179116
1776714703.0829196,-0.09584720338227413,-0.034625977079212056,0.27302447335318103,-0.08732289977824037
1776714703.1029267,-0.09666173059095785,-0.042640740442491776,0.27122476364217163,-0.08532568324688283
1776714703.1229475,-0.0973390045763067,-0.03794642840566398,0.26971290379082546,-0.09676352681653244
1776714703.1429336,-0.09825691548130665,-0.049960542730583535,0.26724915920633574,-0.13894622067556273
1776714703.1629438,-0.0994707924370111,-0.06654834734830328,0.26409153044015043,-0.16320095327618278
1776714703.1829298,-0.10080620462556847,-0.06139042436859393,0.2606939633429478,-0.162201375157775
1776714703.202932,-0.10205877082618128,-0.06125054134597957,0.25712573590771076,-0.18047451824914507
1776714703.2230365,-0.1031632149579623,-0.07405728976873593,0.25400287262513715,-0.19635388657249087
1776714703.2429335,-0.10499441937502654,-0.10098489911621661,0.24971492930554767,-0.21502549775846935
1776714703.2629354,-0.10722690679829537,-0.10955117470259584,0.24495985719920993,-0.24058619710452522
1776714703.2829351,-0.109334478099373,-0.09094186978230168,0.23992599515240826,-0.24361412775910218
1776714703.3029222,-0.111201776689417,-0.09005833405679037,0.2347140323772914,-0.25567067385157793
1776714703.3230255,-0.11279662629960688,-0.1028205635347676,0.2302592457107177,-0.2796374874786618
1776714703.3429472,-0.11509898227477597,-0.11797589579146717,0.22432039907526435,-0.28955722659527316
1776714703.3629282,-0.11764390310006564,-0.12227580644947766,0.21825190823324575,-0.29303511307214747
1776714703.382945,-0.11988885928082635,-0.09508981998373123,0.21199199106019972,-0.30908108809915424
1776714703.4029279,-0.12170329203304478,-0.08020117248619896,0.20554927104229223,-0.3111838016839108
1776714703.422929,-0.12345723310556594,-0.08974320009291464,0.19893580003979372,-0.32223665655526845
1776714703.4429595,-0.12493197734339917,-0.0866861039026241,0.1933729894488057,-0.3439918562098019
1776714703.4629357,-0.12674551927095876,-0.08315094144821839,0.18605691782633277,-0.356938398880683
1776714703.4829316,-0.12821700696731475,-0.05922521484704152,0.17844578557160812,-0.37219632019213483
1776714703.5029345,-0.12921001219462006,-0.038249572125973574,0.17052673605300092,-0.389716707342182
1776714703.522938,-0.13020893380129228,-0.0583787936067931,0.16239784659322182,-0.39067923143876765
1776714703.5431154,-0.13108544622052387,-0.05202034734783112,0.15581548717081592,-0.39890258661355904
1776714703.562933,-0.1319983883896406,-0.03309643077497204,0.14742509263316983,-0.40888620954011773
1776714703.5830238,-0.13281476933136552,-0.045851809133296284,0.13886576262470565,-0.4113279340465966
1776714703.6029468,-0.13368417343440964,-0.037442824145650144,0.1302239484607896,-0.4181127162820306
1776714703.6229298,-0.13435281865449494,-0.02416363179673453,0.12146383591266056,-0.41891627139860876
1776714703.64297,-0.13464214522192333,-0.013627894970421994,0.11454142063455455,-0.4126514986627991
1776714703.6629477,-0.13481444126282072,-0.003050287781905525,0.10596343804168787,-0.41221031334356406
1776714703.6829216,-0.1349872194546926,-0.0145927543432956,0.09722506473769088,-0.42703948195955993
1776714703.7029357,-0.13526453657271886,-0.011763334404557846,0.08834764591367493,-0.4244521324536557
1776714703.7230835,-0.13535213144481367,0.0031100693708328575,0.08136788489894842,-0.40974824437107216
1776714703.74298,-0.1352061129541448,0.0098484343729065,0.07309491462775408,-0.388506439228808
1776714703.7629461,-0.1350572222082045,0.0029119111252464136,0.06488200708579625,-0.4016365379418694
1776714703.782926,-0.13516807678045523,-0.011702407631842437,0.0562257352638483,-0.42915956426444296
1776714703.8029256,-0.13529237673136885,0.0007847392846817014,0.04738570660692523,-0.41579355183341443
1776714703.823028,-0.13503820864807164,0.030201537633898046,0.04051058172164689,-0.4053448346129653
1776714703.8429546,-0.1343045189078998,0.03542995945746774,0.0320172784944279,-0.41182386195323345
1776714703.8629491,-0.13390392568374368,0.0017404189925973035,0.023433589577202367,-0.4142739757163812
1776714703.883025,-0.13400553636410878,-0.008856419363593604,0.014729713188689812,-0.41997458854595465
1776714703.9029205,-0.1339610524748069,0.015825615761721146,0.0060775039787162475,-0.4103115571831234
1776714703.9230688,-0.13355108139475785,0.033737155619953774,-0.0006244110144590385,-0.3938500541309575
1776714703.9429271,-0.13290638762213447,0.02611111998937915,-0.008825736129840094,-0.3946848358972882
1776714703.9634016,-0.13256234440480175,0.004657429954391501,-0.017091980047949255,-0.3997741148589039
1776714703.983,-0.13257005612398082,-0.0026813967274602057,-0.02537748187466951,-0.3936262268105208
1776714704.0031688,-0.1325174053508772,0.008466409750482795,-0.0319460786368151,-0.3948818924230581
1776714704.0229769,-0.13215749699705115,0.025390014761287216,-0.04021207492242927,-0.396946115186318
1776714704.0430427,-0.1317191495459045,0.014970720168861973,-0.048370408637389006,-0.3874760936387812
1776714704.063232,-0.13158879273988786,-0.003293042364808374,-0.05651376350468928,-0.3926247387782541
1776714704.0833244,-0.1317431611950198,-0.008327620936452007,-0.06474946578516497,-0.398830451310659
1776714704.1033475,-0.13175107491634422,0.008314006455831913,-0.07314895955637568,-0.405503772119439
1776714704.1232417,-0.1314115750282604,0.02250913361511636,-0.08170304007849208,-0.41540222734739785
1776714704.1434948,-0.1311584879435838,0.008325239150112407,-0.08857257438686716,-0.4089893354963604
1776714704.1629498,-0.13110073340902423,-0.0019285840258624898,-0.09705608454344836,-0.4060568528532222
1776714704.1830385,-0.13102400678252235,0.010974761756788909,-0.10556025500460814,-0.4114920607202815
1776714704.2029219,-0.1308805253137565,0.0037077047576977717,-0.1142478879831212,-0.42078631586785387
1776714704.2229297,-0.13077464081304235,0.004558795233692292,-0.12306267584869073,-0.4242496428311653
1776714704.2429745,-0.13065039889567853,0.01192445008105486,-0.1300516882785586,-0.41481416699052415
1776714704.2629335,-0.13042055773442268,0.009460137239537592,-0.13866155599326185,-0.41273621576499747
1776714704.2829268,-0.13013514351686814,0.015736469400187802,-0.14741601997246415,-0.4291685778975888
1776714704.3029327,-0.12992372503459973,0.006625916616166239,-0.15638875780838593,-0.4336371669585744
1776714704.3229449,-0.1298704800027936,-0.0011455927548573719,-0.1636920121576197,-0.438877380945155
1776714704.3429375,-0.12970639488172248,0.016551068114903367,-0.17283522069607316,-0.43821936381120935
1776714704.362925,-0.12932012884408522,0.020695152775818404,-0.18182563222830334,-0.42615118618849257
1776714704.3829818,-0.12879151556381901,0.02431483606559237,-0.1908599875535874,-0.4403710318395244
1776714704.4029245,-0.12851779987653933,0.0049868908096808995,-0.19997157846020416,-0.4339937803506414
1776714704.422917,-0.12862282318058338,-0.014034822921166368,-0.2087012193316498,-0.40150309745607105
1776714704.443031,-0.12864789589406705,0.011299369654629687,-0.2153795886200358,-0.3984450759098117
1776714704.4630208,-0.1282931210143661,0.020167284660648654,-0.22362242054863093,-0.39413303455972215
1776714704.4830198,-0.12810419740759307,-0.00447291487833823,-0.23163847521468733,-0.3759522776424232
1776714704.502927,-0.12819900038978474,-0.0037498065837350825,-0.2393584720840271,-0.36680753030250757
1776714704.5229936,-0.12834716577781896,-0.006282517516772945,-0.24695482748660003,-0.36226852788771047
1776714704.5429633,-0.12832944605651536,0.0032717362705468878,-0.2529283249236821,-0.35499958782918883
1776714704.562938,-0.12811736245213712,0.017721265053597834,-0.2601781235638679,-0.3407784085654664
1776714704.5830185,-0.12797713350859208,-0.00514373309326055,-0.2672088607774731,-0.33378559735540636
1776714704.602927,-0.1280474207136469,-0.0016246767961352604,-0.2741574367395567,-0.33375580397327476
1776714704.622999,-0.12803340115369644,0.005870656485970682,-0.2811119333938371,-0.33271233450721516
1776714704.6430206,-0.12790797222124067,0.007045603410559764,-0.28660801173572625,-0.32815167970332226
1776714704.6629412,-0.1274789404582423,0.032918405379752824,-0.29342146554776044,-0.3254877688953073
1776714704.6830206,-0.12697665473614606,0.018083233846725,-0.3000685651459405,-0.31329406953197847
1776714704.7029264,-0.1267980928379065,-0.0036809472872085247,-0.3063769337811055,-0.2898132339199232
1776714704.7230985,-0.12671675943060023,0.014312239967918028,-0.3121582704785037,-0.2659403235778732
1776714704.7430322,-0.1264977810275884,0.011552289465257104,-0.3164385894572609,-0.24763654014016667
1776714704.7629263,-0.12622705028395598,0.014424547746367589,-0.3213925703261626,-0.2273187425339166
1776714704.7829542,-0.1258602386466557,0.021547976798601876,-0.3255816893129056,-0.17631667495217296
1776714704.8029273,-0.1255487120714075,0.009557264814369082,-0.32878921166861325,-0.1290426492506006
1776714704.82355,-0.12529642362776644,0.015929013604207787,-0.33076101899120547,-0.1091238797667412
1776714704.8433282,-0.12503201495262475,0.01266172415796546,-0.3327439882629045,-0.08157065404349229
1776714704.862937,-0.12475802341791636,0.010968155752775155,-0.3340767160530408,-0.04738050099923252
1776714704.883251,-0.12437687968272645,0.02772368482439541,-0.33447228361874115,0.009131722257788688
1776714704.9031558,-0.12402422571248332,0.005367046998967839,-0.333685961961869,0.0665455498092079
1776714704.9231935,-0.12397942434262091,-0.005183646116384111,-0.3323402792686584,0.09708270741641345
1776714704.9435134,-0.1241928775241947,-0.013759596856412648,-0.32983956456223285,0.14202067821816877
1776714704.9633503,-0.1246601951515832,-0.028929147938301536,-0.32625134910497977,0.20149108866272847
1776714704.9829273,-0.12499893365723787,-0.004061008750764428,-0.32151874954604764,0.24755575061100132
1776714705.0029297,-0.1251234072414063,-0.007898910286975758,-0.31628578655286255,0.25640408323067865
1776714705.0230722,-0.1254192514733244,-0.031849804916115665,-0.31183465186643233,0.2716003134909303
1776714705.043403,-0.12607458984193526,-0.028184286565103522,-0.30580790488065557,0.31025022684032033
1776714705.063507,-0.126569349482716,-0.017056257701777044,-0.29910076904315686,0.3301260248350847
1776714705.0833545,-0.126738025907709,-0.0006225233594777668,-0.2921258518667952,0.34371561016592067
1776714705.1029246,-0.12671765580873523,0.0031634152402820193,-0.28477364244787173,0.35952688804627275
1776714705.1232362,-0.1267678379444095,-0.0097949203247778,-0.27877244311325683,0.3651699244508836
1776714705.143384,-0.1269126296989353,-0.004157757202944923,-0.27100749584664396,0.3808115616532406
1776714705.1634605,-0.12690438504994608,0.005625299237782322,-0.2626513733713841,0.42257832852774324
1776714705.1829407,-0.126771068439141,0.007217863108131439,-0.253538569336654,0.4489997088639728
1776714705.20292,-0.1263625690029837,0.028655497324043933,-0.2441321613352532,0.4540749273199782
1776714705.2234714,-0.12598066158955606,0.022288249289778184,-0.23640331190357702,0.4720112416839267
1776714705.2432628,-0.12566999451536506,0.0069871122907052,-0.2261382258775218,0.5132386962097032
1776714705.2635198,-0.12529543783302918,0.029912788345186736,-0.21529083060676868,0.5277098279466562
1776714705.2829304,-0.12461931380175637,0.03473105415982569,-0.20430746541041553,0.5248911305793693
1776714705.3029423,-0.12391383280630196,0.03257076567337286,-0.19324055570904233,0.5375275777962799
1776714705.3230553,-0.12330664289393102,0.03936500384265662,-0.18423295601752462,0.5464252953712503
1776714705.3435526,-0.12251266079409907,0.038504134326706796,-0.17266148873560794,0.5619206771115048
1776714705.3633494,-0.1216227692847758,0.04524402557505408,-0.16087401504315302,0.569884057912809
1776714705.3837254,-0.12068859201162932,0.04670348175001693,-0.1491144900732213,0.557382480495529
1776714705.4029286,-0.1196528624544131,0.05152478634606228,-0.1374660522971847,0.5637489719688132
1776714705.4234283,-0.1186673587612988,0.06747682838514679,-0.12792483097265547,0.5813536247728015
1776714705.443039,-0.11732369111235356,0.06135579758824733,-0.11578060539424442,0.5813606826943628
1776714705.4629452,-0.11613857108842154,0.05179176883728204,-0.1038726561935292,0.5607607919108579
1776714705.4829352,-0.11494789959368895,0.06394278478918819,-0.09218074265821283,0.561067663362028
1776714705.5029266,-0.11352484363478255,0.07169674787001223,-0.08046778904995847,0.5689644170325113
1776714705.5229373,-0.1118993914487252,0.08278465283680819,-0.06850294921484797,0.5760020801331893
1776714705.5430174,-0.11053877169078527,0.08162202017134407,-0.05900430888981882,0.566833894376318
1776714705.562955,-0.10902398156264033,0.06343197077268048,-0.047398067557370305,0.5446441064127843
1776714705.5830314,-0.10776265258448739,0.05968570105117488,-0.03602774731895928,0.5475043115746328
1776714705.602926,-0.10639549555288308,0.07194117250591053,-0.024688757723470994,0.541597455305098
1776714705.6229455,-0.10514232468992432,0.07866721088386935,-0.01571485420322143,0.5335449802424425
1776714705.642934,-0.10352791609304793,0.07291624680907355,-0.00463303741068839,0.5306458720318461
1776714705.662924,-0.1022295178512051,0.052420102631538845,0.006258710834360314,0.5156678182347425
1776714705.6829321,-0.10113491047104817,0.052718212539634046,0.016845168261517433,0.5003043357856466
1776714705.7029216,-0.10000272401820667,0.0583141350757001,0.027235583375619828,0.4974121011101846
1776714705.7233684,-0.09880719875017899,0.0561185574776244,0.037525107020391045,0.4885131675661113
1776714705.743557,-0.09780014048323833,0.06404754086570857,0.0455749094387485,0.47822389710638047
1776714705.7633228,-0.09653570401242839,0.05711243229832441,0.05546585578171294,0.47209425459433935
1776714705.783453,-0.09552342164794543,0.041138969127688885,0.06525006467817426,0.4661725763803065
1776714705.803371,-0.09460291004704319,0.04951758587121746,0.07472067150785587,0.4432020166436623
1776714705.8228939,-0.09349185282344712,0.056952703390439174,0.0838025715905546,0.42764338117581707
1776714705.8434646,-0.09250393381172803,0.05977449401669377,0.09086491453495685,0.4219296963207082
1776714705.8629315,-0.09125320116670088,0.059068676379202434,0.09956475588055277,0.4103986400452164
1776714705.883439,-0.09016481715888877,0.047592311382224306,0.1080122478234149,0.39945903410928674
1776714705.9032626,-0.08900952553593834,0.06274743567789187,0.11616296425693884,0.38203073359347783
1776714705.923269,-0.08747280922635689,0.0857908348813548,0.1238897992340195,0.3639011462258331
1776714705.943122,-0.08603075329995728,0.08775386539383384,0.13009375557903344,0.3763877924457044
1776714705.9634295,-0.08404457126530296,0.10161299310650693,0.13791899870114827,0.37630294295250966
1776714705.9829626,-0.08189261791917907,0.10497773240189259,0.145381291287081,0.33670345048077155
1776714706.003613,-0.07986204175822062,0.09077191872951437,0.15234445136107916,0.33197508947036325
1776714706.0229805,-0.07769702293695427,0.11795680386035515,0.1592099046016593,0.3267441110298374
1776714706.0434194,-0.07552756058988482,0.14339389538349648,0.16451673690564306,0.30812783224642165
1776714706.0633833,-0.07257924545379758,0.13668677239403568,0.17055227113493562,0.27448281202505176
1776714706.0832763,-0.06992066072186254,0.11866176187946006,0.17606232568668684,0.25476046808512304
1776714706.1034114,-0.06742799608641879,0.12410632764179885,0.1813754970436125,0.2575575839463971
1776714706.12311,-0.06516882064814453,0.14568613593391022,0.18567211626196883,0.25367380061584077
1776714706.1434588,-0.061972450554302116,0.15744093441812987,0.19059364698901998,0.2200846261919548
1776714706.1634467,-0.05902945938515814,0.12387487931569116,0.1949567428345484,0.19712218822634886
1776714706.1833923,-0.056620792596253064,0.10744890516084893,0.1990164976662283,0.19621029462134765
1776714706.2029274,-0.054357096444135944,0.11193129421350645,0.20300186899636696,0.18285190072651536
1776714706.2231867,-0.052571679250315834,0.10381803503342396,0.2058893559602895,0.16409568525542884
1776714706.2430146,-0.050509852176912604,0.09322820809087257,0.20900376726925501,0.13281792572530804
1776714706.2633424,-0.04862936043416402,0.08718028159761501,0.21129475824735094,0.08775029764806552
1776714706.2833192,-0.046968245037167705,0.06909562713738718,0.2126464346567748,0.040997010425469105
1776714706.302923,-0.04601214839375549,0.024280217854260933,0.21322208777766677,0.014859961588656212
1776714706.3231165,-0.04581622641634671,-0.002159959861728372,0.2132129765499808,-0.014438435540338856
1776714706.3434474,-0.045797372592500746,0.004063181356577544,0.21234755366082564,-0.06791240083767003
1776714706.363337,-0.04590471695155353,-0.015628947865132303,0.210580738912323,-0.10297143615317816
1776714706.3832908,-0.04665502729992601,-0.0572698931241617,0.20803565436934068,-0.14035796215632246
1776714706.4029284,-0.048037541090385674,-0.07291076310567773,0.2046709482987396,-0.18377674141801148
1776714706.4235036,-0.049748011849667276,-0.08844328341095578,0.20060037304100178,-0.20821592399510458
1776714706.4433672,-0.05123682901430846,-0.09393582606175743,0.1968285844852081,-0.2426014141955195
1776714706.4633899,-0.05331487095880898,-0.10473280770211993,0.19127015715489726,-0.2911216171771275
1776714706.4834425,-0.055757766208642826,-0.13008657135401194,0.1848633849717365,-0.3212208286480771
1776714706.503303,-0.058490580420732116,-0.13265756139534846,0.1779120079364569,-0.3446293172091637
1776714706.5229788,-0.06138988299259057,-0.14198676087224726,0.1706786236510435,-0.34979393462531394
1776714706.543484,-0.0636860022027551,-0.1379137953846435,0.16471666017526854,-0.3630994863183947
1776714706.5633066,-0.06625352819476586,-0.11020152456564761,0.15673289615303704,-0.4026420290824839
1776714706.5833793,-0.0688462879190049,-0.1375675565561318,0.14820127375814007,-0.41548095400173424
1776714706.6033602,-0.07183606778832949,-0.1484066337290729,0.13957663139657223,-0.41136627187902053
1776714706.6230128,-0.0740254225500419,-0.1137917645988854,0.13262338529119796,-0.42093350437246435
1776714706.643509,-0.07634427882226616,-0.10944833180755653,0.12392422736546099,-0.41911991429377443
1776714706.663393,-0.07876197010684002,-0.1254071151806341,0.1149765688469527,-0.4391412697612668
1776714706.6833594,-0.08124683169595086,-0.11071335670559218,0.10543828243283727,-0.47731663796530294
1776714706.7029257,-0.08340426187293731,-0.09547730629182069,0.09555802140311676,-0.46877855654478207
1776714706.7230642,-0.08482181130219033,-0.07822529995430502,0.08771476158337248,-0.46868265703634543
1776714706.7433026,-0.08647073376824452,-0.07887345614096497,0.0777276166214235,-0.4920500484079327
1776714706.7634456,-0.08821533270981032,-0.08826023141312156,0.06734543529078152,-0.5043737130508932
1776714706.7834806,-0.08970574196274128,-0.053663944280429476,0.05661129970112867,-0.5228024267303936
1776714706.802928,-0.09062240729636566,-0.03331589615178693,0.045699040083421565,-0.5265865975545186
1776714706.8233554,-0.09101388591590451,-0.019805288343337946,0.03690605443774277,-0.5264023456806813
1776714706.8433359,-0.09131579758251232,-0.009324450216984748,0.025763938169298284,-0.5440205426113892
1776714706.8629956,-0.09172444824104589,-0.028708374410846615,0.014488803247572348,-0.536687749372543
1776714706.8833647,-0.09203734248997299,0.0008799180535781215,0.0035044379066516587,-0.5175328927434806
1776714706.9029481,-0.09146138991948129,0.05265677351875675,-0.007302436244143713,-0.5222223806745682
1776714706.923178,-0.09067045139728046,0.04287686211512093,-0.016074968461409066,-0.5293969718555285
1776714706.943357,-0.09011769412017348,0.008838069144898042,-0.02699713617094354,-0.5205843287300255
1776714706.9634125,-0.0898954644278254,0.017596715538001517,-0.037979627203743156,-0.5309720715577366
1776714706.9829254,-0.08908582035490069,0.058390305886103,-0.04913799888926432,-0.5429694089977866
1776714707.00292,-0.08765907981689983,0.07612071945812865,-0.06034862596185036,-0.5310041224696219
1776714707.022956,-0.08656534047947397,0.055132070598247374,-0.06920126398657474,-0.5301703636198921
1776714707.0433822,-0.08559942979329332,0.039857555893309554,-0.0802315324143236,-0.5302646269275713
1776714707.0633595,-0.08460532963231095,0.05789850986235737,-0.09132903686544781,-0.5337050101039748
1776714707.0829227,-0.0832306409480003,0.07415798828489142,-0.10251452404827535,-0.5398504083796809
1776714707.1029277,-0.08154011920810901,0.08683982880979244,-0.1136953324799391,-0.5325187075056352
1776714707.1230118,-0.08008076561702494,0.08811101370847835,-0.12255583133404431,-0.5291915464062613
1776714707.1431136,-0.07842337735775706,0.07090624059753711,-0.133500489825749,-0.5215058478860743
1776714707.1634727,-0.07698660057203835,0.06752322132681665,-0.1441309080455896,-0.4978109279863515
1776714707.1833968,-0.07531180723824346,0.09373431451645,-0.15436630785661012,-0.484033894162485
1776714707.2029197,-0.07319710457056802,0.10676753061095054,-0.16435512206483205,-0.47604345919286206
1776714707.2233891,-0.07156247592342256,0.09037581718493537,-0.17228731733958286,-0.4736557309253122
1776714707.2433343,-0.06996213413679606,0.06682173442685535,-0.18199761433980083,-0.4591331199922265
1776714707.2638767,-0.06843692682122705,0.07989995479733761,-0.19126784834756508,-0.4292050299443839
1776714707.2833965,-0.06666845360215679,0.09019130477886561,-0.20005739636911907,-0.4132566766344702
1776714707.302924,-0.06485070882898496,0.08353713567166851,-0.20847264221624556,-0.3953894578360576
1776714707.3229284,-0.06307948678743261,0.085289777381689,-0.21656631372290785,-0.3794394459065136
1776714707.3429518,-0.06171762775470268,0.07671860230803546,-0.22279359975335872,-0.3667474960986048
1776714707.3629274,-0.060480287002595785,0.04254108187345962,-0.22980706975639448,-0.30675022551618825
1776714707.3829317,-0.05965833099449665,0.03793029967714595,-0.23568158604574743,-0.2562445123392658
1776714707.40293,-0.05864728353055056,0.058817622630390115,-0.24087765658657548,-0.2429713456537862
1776714707.4229176,-0.05781506917535947,0.04069079794665101,-0.24456294305598245,-0.20016377628605608
1776714707.4430299,-0.05747155715912858,-0.008558608090113273,-0.24798074355768282,-0.12505725344053775
1776714707.4630187,-0.057839070637280374,-0.024439918556281304,-0.24992815482051237,-0.06144544329305068
1776714707.4829316,-0.05838227242057194,-0.02614987955205353,-0.2504161805181181,0.01264734558964875
1776714707.5029252,-0.059154181232241886,-0.049434098255700915,-0.24964358627236077,0.06252962779453464
1776714707.523459,-0.0600996928898648,-0.0669638894060351,-0.24827268851151008,0.09923774483627856
1776714707.54302,-0.06175730055036451,-0.08983972989973629,-0.24545500429172137,0.17182659778887366
1776714707.5630243,-0.06369465148753779,-0.09798674021607673,-0.24126735638661806,0.22995701521503653
1776714707.5829258,-0.06578043272006727,-0.10090991146723335,-0.23592089743738567,0.28325626733122855
1776714707.602926,-0.0680722160932796,-0.11994614335414813,-0.22931681301716206,0.3498994721861727
1776714707.6228967,-0.07002235078622895,-0.11770316545410242,-0.22322132119042087,0.3851305507434327
1776714707.643025,-0.07261845803415613,-0.1307562824100139,-0.2146506391111382,0.43608660899784446
1776714707.6630273,-0.07568704842043628,-0.1634605833643511,-0.20485175523532406,0.5042030116234737
1776714707.682927,-0.07902782854771243,-0.15412110233300372,-0.1939582440299569,0.5400306001375441
1776714707.702921,-0.08217151779459825,-0.14665331348474975,-0.18231333048066456,0.5783285805964394
1776714707.7233424,-0.08524316922519953,-0.14850483485161814,-0.16983214154609866,0.6202631871530322
1776714707.7430217,-0.08753223177951269,-0.12872541563274673,-0.1593967662728083,0.631483272416214
1776714707.7630203,-0.09010590101039276,-0.11909263684675317,-0.14603694143646573,0.646462106271659
1776714707.7829242,-0.09273397514093254,-0.13250522898797518,-0.1324813542411859,0.6556790145483968
1776714707.8029249,-0.09533642779907167,-0.11644638987187295,-0.11876590260119121,0.6576426833230763
1776714707.8229809,-0.09761351469588433,-0.1010891868983067,-0.10497700531789456,0.6676118001083251
1776714707.84303,-0.09921152011160488,-0.0937120973715781,-0.09391843678347106,0.6608095690870655
1776714707.8630197,-0.10109648283412537,-0.08871614017675944,-0.08017295962833361,0.658077005945829
1776714707.8829312,-0.10308933206943593,-0.10039749623424943,-0.06641312659259692,0.6625279134435726
1776714707.90292,-0.10502788283634756,-0.0855328945187056,-0.052749686958505,0.6460336743053359
1776714707.922995,-0.10633977834461622,-0.06833722422717464,-0.042180558950818646,0.6218673827094952
1776714707.9430192,-0.10779581922979692,-0.07187192377248708,-0.02947503126809735,0.5986743973690117
1776714707.9629245,-0.10910885938187992,-0.05705489529611468,-0.01712373310925524,0.5886680961900024
1776714707.983026,-0.11027179644477364,-0.05391138175814231,-0.0049406127809192655,0.5806328081737546
1776714708.0029447,-0.11154818345725305,-0.06969970377691254,0.006991287188243291,0.5629350437911063
1776714708.0230005,-0.11282678299468946,-0.05090206937670877,0.018395114515794987,0.5315571240494223
1776714708.0429337,-0.11361180217237292,-0.038717013460783045,0.027132041656433736,0.5157093075043602
1776714708.0629406,-0.1143008055203884,-0.029900216316261996,0.037746962127288,0.5036839108266127
1776714708.0829303,-0.11481621429758554,-0.01999745401505837,0.0481221467926156,0.4893693673057233
1776714708.102924,-0.11546235895233858,-0.039567930452597155,0.05805298219598834,0.4646614660908936
1776714708.1229942,-0.11620201472814003,-0.03162098441597305,0.06745301656737589,0.437022472937201
1776714708.1430457,-0.11660650974434664,-0.011596303924658158,0.07461988913565037,0.42518258928723396
1776714708.1629353,-0.11670071376976052,0.0013014511181278499,0.0833064925203679,0.40937086185609073
1776714708.1829343,-0.11645390358247878,0.019607242700097893,0.0918418234391855,0.40694156093549105
1776714708.2029247,-0.11612649839425326,0.010248768120225071,0.10022429909242783,0.39862321537054957
1776714708.2229333,-0.115979161996937,0.004202430801508561,0.10837637710048241,0.38439863215757525
1776714708.2429512,-0.11568207737383975,0.031482859978460676,0.11479651672818691,0.38761782462293826
1776714708.2629385,-0.11484434900181048,0.050516045997660464,0.12282963113305098,0.3823513963693654
1776714708.2830298,-0.11370298391560095,0.0547956208267385,0.13054551011870136,0.35618567262359657
1776714708.3029354,-0.11258347644709656,0.05344706159554713,0.13763179918179733,0.3247421677334219
1776714708.3229375,-0.11154823614836673,0.04722226818089159,0.14431717912987074,0.31842743307326665
1776714708.3430252,-0.11054100647432466,0.07096044070475838,0.14969754085776776,0.3275741085703211
1776714708.3629344,-0.10890854070400299,0.08729744108055709,0.15646048314089134,0.3187375340629119
1776714708.3830276,-0.10719452040245918,0.07470160619858762,0.1627424080715947,0.28177627312047926
1776714708.402932,-0.1056624064485758,0.07297900335252638,0.16836512604629092,0.259325461196238
1776714708.4229767,-0.10423278919040163,0.0664476149995637,0.17381485375737915,0.2631513414274179
1776714708.4429352,-0.10297058291253505,0.08075839325306017,0.1780915723772739,0.2506993070983067
1776714708.4629388,-0.1011125904144742,0.096152211991549,0.18281425291866987,0.20005545200371538
1776714708.482926,-0.09948001944946999,0.059469211160904034,0.18645507327939997,0.1510702549874101
1776714708.5029223,-0.09840742734452777,0.043147983407708757,0.1893701908133267,0.13072238132836378
1776714708.5230477,-0.09770347986299709,0.045095548857027434,0.19143008667246397,0.11711419155576919
1776714708.5430324,-0.09698272360812117,0.02340080864937183,0.19354338697847107,0.08538117338256124
1776714708.5630376,-0.09659678427646817,0.011536606584848008,0.19495264714898744,0.050094309941180915
1776714708.5836685,-0.09655576710342087,-0.005779663248486833,0.19574511982689174,0.026026329521006364
1776714708.6029198,-0.09684000373538662,-0.023464949002135915,0.19599465232575003,-0.0036724848982000458
1776714708.623356,-0.0974830394994988,-0.038931192728078434,0.19535857332816187,-0.059013070174274596
1776714708.643441,-0.09845919795452791,-0.0765592218463032,0.1939437518181744,-0.1100604556216026
1776714708.663427,-0.10022299510149588,-0.09359307035823194,0.19123604509261574,-0.1483673472084609
1776714708.6833775,-0.10205501961434732,-0.07969977689184737,0.18793408669421294,-0.16835369321896165
1776714708.7029421,-0.10392715616513455,-0.10150164957839969,0.18401467057875906,-0.2085325935799247
1776714708.7229664,-0.10568806855885453,-0.11531233398099128,0.180200343085885,-0.248655949361627
1776714708.7430277,-0.10836492368032549,-0.1389592182428005,0.1746249740040338,-0.28439882765646574
1776714708.7629385,-0.11152126921904187,-0.16237628707614582,0.1685056299091549,-0.3021339481795772
1776714708.7830484,-0.11472122465788265,-0.1434842877529679,0.1620275768049629,-0.32352668554144465
1776714708.8029392,-0.11715938403909924,-0.14468305180035512,0.15628737999282244,-0.36242001812452085
1776714708.822948,-0.12028792808217117,-0.1594199989341818,0.1483870843599549,-0.39676837499321016
1776714708.8429399,-0.12366844738074578,-0.1622016480502828,0.13995522053335352,-0.40700279204478906
1776714708.8629344,-0.1270442696059037,-0.1583572871429702,0.13141718382534184,-0.41457123186075806
1776714708.8830495,-0.12986426059905434,-0.11266417541946488,0.12272144673502625,-0.4189050741337044
1776714708.902935,-0.13197999357562387,-0.09151091711993758,0.1138319761376131,-0.43621144587742666
1776714708.9229765,-0.13392343296017933,-0.09822928497057276,0.10461278360176124,-0.44768941598451834
1776714708.9430237,-0.13546621907641077,-0.08552213860954178,0.09719670408739162,-0.44295465326248745
1776714708.9629278,-0.13710361359047551,-0.0694541226135163,0.08803939886714586,-0.43440314393921137
1776714708.9830668,-0.13830772167175615,-0.049291264409797364,0.07905036229466003,-0.4291758711383483
1776714709.0029256,-0.13913515214959654,-0.03326162126755927,0.07017999212897026,-0.42351319239196344
1776714709.0229197,-0.13985532885530413,-0.05001699258445741,0.06304677122212217,-0.4290579212871244
1776714709.042966,-0.14100249588516167,-0.06335871610030736,0.0542204492577974,-0.4212536541229886
1776714709.0629275,-0.14246235626459003,-0.07083103615601966,0.04551304771198718,-0.4121052559760971
1776714709.0829408,-0.1439300492272656,-0.0724851706499472,0.03692625070399737,-0.416479076475067
1776714709.102938,-0.14520246614233684,-0.04793786654176169,0.02838697056048741,-0.4024302193296598
1776714709.1229947,-0.14626559964219185,-0.053353936433572724,0.019968455109575317,-0.40720111823040206
1776714709.1429675,-0.14717766520684702,-0.05834992369324843,0.013019373857917026,-0.42694882428535524
1776714709.1629543,-0.14829214190276752,-0.04806977680049379,0.003987413000168546,-0.44156959838448395
1776714709.1832864,-0.14927023460163283,-0.04342794000185851,-0.005298876320920474,-0.4471770321731692
1776714709.203038,-0.14994672584095992,-0.02348224149701128,-0.014702433922361249,-0.4535897487061163
1776714709.22298,-0.15033079537348007,-0.013027820497679699,-0.024054710285640605,-0.4438917458347058
1776714709.2429485,-0.15058911164574804,-0.021673663260150577,-0.03143146856654973,-0.438655600067616
1776714709.2629433,-0.15108289200938893,-0.023061855524645458,-0.04033447245345438,-0.4156690129929801
1776714709.2832766,-0.15147886680710781,-0.012071629099567827,-0.04855246540019298,-0.36954137780149676
1776714709.3029623,-0.1513614787500972,0.02417984422162084,-0.05569990945019805,-0.31595218862268926
1776714709.3230078,-0.15045804442326252,0.06272350570579066,-0.061655664674030525,-0.2561230309732083
1776714709.3429515,-0.14931712929658233,0.075269952512029,-0.06560782420802777,-0.21659020892009848
1776714709.363236,-0.14757976473136167,0.09185281167975928,-0.0695953279848453,-0.16622206679224696
1776714709.3830545,-0.14537119118351968,0.12217121474176468,-0.07242662805434597,-0.10539104288200274
1776714709.4029388,-0.14237478641288137,0.16631379735484175,-0.07407837276812546,-0.0545535735074677
1776714709.4231455,-0.1391888065129152,0.21525647132746073,-0.0747141300856265,-0.022995170562686323
1776714709.443141,-0.13431129157398425,0.2520891976223037,-0.0747901735565441,0.013207986373937941
1776714709.4631817,-0.12892929926285096,0.2639377588898484,-0.07423246312484677,0.03950640069769834
1776714709.483007,-0.12307851995899789,0.29967896061844634,-0.07314481946202131,0.06253408944174277
1776714709.5029302,-0.11633575446943378,0.3478442126594944,-0.07166428296169719,0.08240118497460769
1776714709.5233583,-0.10859587631838408,0.3915401703085831,-0.06970552351585318,0.10318815087492886
1776714709.5432942,-0.10187675038894423,0.4143864565536796,-0.06795688153781987,0.10634676750020786
1776714709.562964,-0.0931072912184774,0.4267188273916399,-0.06598493272954936,0.08016655662684671
1776714709.5833616,-0.08400947063526329,0.4462133029609526,-0.06449386820602886,0.06466043909874356
1776714709.602935,-0.07450114011856335,0.4676733883251868,-0.06308708877616462,0.07473507582522743
1776714709.6231074,-0.06657084428551921,0.48404691075476103,-0.06167535219056096,0.09375625828658266
1776714709.643045,-0.056269013584963556,0.504168601425281,-0.05965138947258685,0.09805729744272942
1776714709.663037,-0.04580457400364848,0.5000017246465243,-0.057803946442660695,0.07792363941430216
1776714709.6829345,-0.03545203304535524,0.49192767894838163,-0.056258715438908924,0.07239196044448756
1776714709.7029219,-0.02525467942349239,0.48773951409397176,-0.054772433467618745,0.07133396887302493
1776714709.723012,-0.015134824057871723,0.4824758449823751,-0.053273166989337484,0.07242401479036542
1776714709.7429483,-0.007073856342621789,0.48399756389371246,-0.05206064506508705,0.07312199850073245
1776714709.7630382,0.0028878989510833114,0.47350403557336246,-0.050592179282923824,0.0671411462099315
1776714709.7830327,0.012613326298307104,0.457576620208634,-0.0492012912351593,0.06540034438491402
1776714709.8029225,0.021876772977226143,0.4324790625894263,-0.047847595786390265,0.06477262923888433
1776714709.8228943,0.028875859329697613,0.4059468063350947,-0.04680851373328155,0.059962704573211484
1776714709.8429804,0.03728193345240206,0.4015113511993744,-0.045580493893735516,0.058398049184700984
1776714709.863043,0.045590081963487364,0.39606901541621353,-0.0444228254313475,0.0533753620033349
1776714709.8829367,0.05359484117420936,0.36860447889826,-0.043372736237797,0.0469262623105066
1776714709.9029267,0.060898730763376235,0.335620446097169,-0.04240758504499257,0.0468989564554875
1776714709.923183,0.06764734580267504,0.31663599603628473,-0.04138424277397855,0.05282361054301381
1776714709.9431293,0.07306988095144817,0.331605499287308,-0.040436774823258276,0.061943825859801
1776714709.9629462,0.07999298461502415,0.33195325977124385,-0.039077642551808414,0.06974578591994667
1776714709.9830372,0.08668263836689605,0.3078999914688544,-0.03760403997232087,0.07154272018634576
1776714710.0029273,0.09305339584714706,0.3062302626980935,-0.035973989061208134,0.0843492708879045
1776714710.0230935,0.0980974248235043,0.3056593202342196,-0.03448435431987687,0.0955210361140652
1776714710.0430403,0.10481870957927394,0.33324163969015286,-0.03245526364834497,0.09908421692748011
1776714710.0629392,0.11176828046112906,0.3338603372809544,-0.03037022995658031,0.100216730286662
1776714710.0829265,0.11829773208282164,0.2841820611443045,-0.028338780596910067,0.09470998996010009
1776714710.102929,0.1239503777908904,0.2592036130807179,-0.026407979137514602,0.08999801745568523
1776714710.123441,0.129176840681628,0.24598778608392152,-0.024553123822573675,0.08769361887308305
1776714710.1431556,0.13327775828307936,0.2471808144905237,-0.023157304711070487,0.0794099682223362
1776714710.1634557,0.13842636615593099,0.24867055011754813,-0.02157594411778341,0.07236178020085209
1776714710.183487,0.14346732601407625,0.23383262499988672,-0.0201707379155273,0.06471718696638945
1776714710.2029374,0.1482308594607198,0.22329478734030866,-0.018848696844794652,0.06217222762548176
1776714710.2230394,0.15184608474321482,0.2125843977303674,-0.017728053682589368,0.07246602495980875
1776714710.243427,0.156060414721216,0.19627494745529117,-0.016194640649210133,0.0746115561605345
1776714710.2634203,0.16033737931539105,0.21533479494607782,-0.014732777789663257,0.06495008523051714
1776714710.2834013,0.16501406592607706,0.23508878726795818,-0.013489150474525508,0.05574240237110959
1776714710.3029294,0.16993602427768215,0.2365792778467814,-0.012413401509711838,0.04782892554628752
1776714710.323347,0.17404515645622878,0.25610132472570524,-0.011560589193686702,0.053276975931362415
1776714710.343393,0.1795824445279007,0.2762006893951792,-0.010358682634148443,0.06209944447337787
1776714710.363362,0.18557839557358383,0.29637571191952583,-0.009081255992843498,0.05987726119860091
1776714710.3834178,0.1919633717615892,0.31571732790062956,-0.0078758395114688,0.05480450688399571
1776714710.4029176,0.19839764645380326,0.3012092749307327,-0.006827465849773236,0.04543991416520891
1776714710.4232554,0.20469030771772706,0.30225104173870754,-0.006001585897277761,0.03495235641497493
1776714710.443405,0.20979641889624434,0.3132257198979741,-0.0054511953646299415,0.030979737946625917
1776714710.4634047,0.216404839285929,0.31923923568216783,-0.0048979093896232935,0.022900032474228952
1776714710.4833264,0.2230970705708822,0.31763078160280245,-0.004454584745948665,0.020540491969188016
1776714710.5031905,0.22911265652206625,0.2595732079562798,-0.003952117969095484,0.029397087049861527
1776714710.523101,0.23395987702358884,0.20646881973518372,-0.003234052201669318,0.04090933138030796
1776714710.5436656,0.23738324799485755,0.20563187383042214,-0.0024412094761260463,0.05281071497520896
1776714710.56345,0.24154491116937762,0.1968755779833583,-0.0013061281378488254,0.05469304721276105
1776714710.5829346,0.24563269655934988,0.19270867657269108,-0.0003023969804073223,0.040601851455645724
1776714710.6029284,0.24966554191418155,0.19463168088371485,0.00042086969685709,0.030613112937321798
1776714710.6230593,0.25276543034260324,0.17577520228170052,0.0008999813373029755,0.02835441135487959
1776714710.6433911,0.2562040942033858,0.15428928262687192,0.0015700178992826043,0.03782206101077437
1776714710.6634002,0.25932234529169906,0.14618428962947616,0.0025158759280180343,0.05237109745976149
1776714710.6829703,0.26240461328295733,0.14995900823112884,0.0037085350298798896,0.060165773465236654
1776714710.702932,0.2656569169884049,0.16079014297181227,0.004974354887682841,0.06077274784199903
1776714710.7234051,0.26820079907467737,0.14896404205603697,0.0059857672199860705,0.05904614769118193
1776714710.7435884,0.2711182003405789,0.13351343433848262,0.007236643293084737,0.06102005956789175
1776714710.7634695,0.27410041511059896,0.1534888333563107,0.008523507833637728,0.06105232710738346
1776714710.7832525,0.2774027522720015,0.16086030069936663,0.009670422379173814,0.048687146554104055
1776714710.8030434,0.2806803054405558,0.14897060413794472,0.010628071817234852,0.04247917779774201
1776714710.8233364,0.2830128143274919,0.1306587397287713,0.011329204132790746,0.04339298755402708
1776714710.8433032,0.28537793129043404,0.09526664269413576,0.01224724124305614,0.04407870899892017
1776714710.8634067,0.2870295450999705,0.062246261624235855,0.013211690541693539,0.04669609705115009
1776714710.8829396,0.28782491224655166,0.012287947774311303,0.013989297448402603,0.026997675218602822
1776714710.9029248,0.287394781519387,-0.054535322655140606,0.014288770612699592,0.0006564246579942659
1776714710.9233506,0.2856254245603451,-0.11579042622614011,0.014090484116059182,-0.017462839959908147
1776714710.9432108,0.28315834654779504,-0.1770817493936171,0.013690894914248228,-0.030148684560875758
1776714710.9633167,0.27870076568800706,-0.25009881641105447,0.013021016785122418,-0.03433123280440578
1776714710.982937,0.27302675245021846,-0.29184441115686544,0.012273703344940292,-0.03833281812395155
1776714711.0029347,0.26652015322041644,-0.3311084174802329,0.011286749276021822,-0.05604864539650584
1776714711.0231228,0.25920242002249405,-0.37281440975400926,0.010009049013058446,-0.06601164044936658
1776714711.0430348,0.25261544251668155,-0.417094381457625,0.008898522305918824,-0.06634832704553571
1776714711.0629482,0.24326077389927714,-0.47957747438527654,0.007546250719377675,-0.06348692685478716
1776714711.0830357,0.23297690712205749,-0.5071285852494835,0.006272977841030906,-0.05792491563449314
1776714711.1029193,0.22217360645614537,-0.5282043172864135,0.005060217796656398,-0.05798678679788942
1776714711.123175,0.21312586894980062,-0.5589368727524783,0.004054760591021385,-0.06336616085804551
1776714711.1429217,0.20117181492917335,-0.5906377270394405,0.0027052041724244273,-0.06627474685875161
1776714711.162927,0.18846949707555144,-0.6241247084234651,0.0012916082088512961,-0.0678136666318956
1776714711.1829293,0.17549231688611097,-0.6222020941397276,-0.00015115876673481537,-0.07122662649930431
1776714711.2029238,0.1627317603197057,-0.6028040505391585,-0.0017040108970124731,-0.07843420696572227
1776714711.2229304,0.15000536814899254,-0.6194859281155138,-0.0034549135338841803,-0.08892372702495649
1776714711.2430348,0.13962916055929409,-0.6299199624326486,-0.004838855011422032,-0.08070721371904312
1776714711.2629225,0.12625501909860704,-0.650886855381269,-0.006364014882465762,-0.06291699461624636
1776714711.2829447,0.11245717712238551,-0.6738550529212719,-0.0075005049053598295,-0.047512492182428805
1776714711.3029363,0.09852908269439374,-0.662459334456005,-0.008363820309893043,-0.0329764234736216
1776714711.323178,0.08481011721376398,-0.6564078016684392,-0.00904341328765196,-0.032001660949662114
1776714711.343036,0.07379107777376526,-0.6657467938257604,-0.009568550324634384,-0.03132862909900844
1776714711.3629663,0.059920474800682515,-0.6643610262559829,-0.0101439745683031,-0.022311713474263955
1776714711.38304,0.04608291394261663,-0.6591211122780063,-0.010438207866693014,-0.007113057825853655
1776714711.4029186,0.03245409126679203,-0.6501840351040785,-0.01062639606314595,-0.011440849186895318
1776714711.4229236,0.01904489717486555,-0.6348793271544291,-0.010980581296526678,-0.024293977360971643
1776714711.443041,0.008501749179124586,-0.628858417100134,-0.011410391429607597,-0.026784760488940084
1776714711.4629757,-0.004388456821047522,-0.6105364712788827,-0.011986456260765953,-0.026896404525428262
1776714711.482937,-0.01702308157379373,-0.6018824780009243,-0.01246019911998986,-0.017220952216221934
1776714711.5029361,-0.029473520351160708,-0.5951890443793759,-0.01273439761117839,-0.009328870012611255
1776714711.523042,-0.04162820356133426,-0.5707214626023172,-0.01295208255850916,-0.01149405126861168
1776714711.5429747,-0.05105942214210044,-0.5598300179449878,-0.013049195508005252,-0.001707849657349353
1776714711.5633507,-0.06271010165250057,-0.5586378349272031,-0.012900075743162568,0.015688446385050625
1776714711.583508,-0.07428330065096755,-0.55128766351473,-0.012550573553833114,0.014949017718675524
1776714711.6032548,-0.08557065554986179,-0.5322960474882336,-0.012416777648443617,-0.0013426868582931822
1776714711.6234512,-0.09640754067888439,-0.5095836674813747,-0.012579257742470006,-0.01580193297143486
1776714711.6438038,-0.10485106925628648,-0.5036779448764813,-0.012824128419180722,-0.014829476282776734
1776714711.6634624,-0.11538309511592586,-0.5089357323910475,-0.013139002029157673,-0.016544496275187066
1776714711.6829424,-0.12609583388601647,-0.5183968241294279,-0.01366067164295878,-0.03285588475774436
1776714711.7032213,-0.136969670605264,-0.5231932602622034,-0.014436461505458771,-0.04041765016334886
1776714711.7232091,-0.14557446807810454,-0.5093139495732812,-0.015079928210303269,-0.03717611122621346
1776714711.7434788,-0.15592131660214076,-0.48453186991395975,-0.01599278989398889,-0.05195917841447825
1776714711.7634392,-0.16592224199879518,-0.4775267766079544,-0.017405710082383678,-0.08597966555629286
1776714711.7834437,-0.17586473121697796,-0.47785120764142147,-0.01954681901171377,-0.11711258896500171
1776714711.802924,-0.185852573902897,-0.4793337939435664,-0.02201844448525874,-0.11920769000476542
1776714711.823456,-0.19380239546522116,-0.47550636543046965,-0.023853402321710154,-0.10129974514866219
1776714711.843475,-0.20356751472365814,-0.46202363252384315,-0.02597411869984613,-0.10692206783255483
1776714711.8634565,-0.21320102751271885,-0.46486158725388194,-0.0286892805870805,-0.14957927121847442
1776714711.8836699,-0.22303496347697493,-0.47881586931783326,-0.031686807339650264,-0.1397219663239419
1776714711.9029331,-0.23307714444153754,-0.47976294256391483,-0.034380554920984255,-0.11472256315837369
1776714711.9231954,-0.24091842224007323,-0.45855685979902616,-0.03633283538999043,-0.12498391880025708
1776714711.9435055,-0.24999354511015662,-0.41303584168306573,-0.03913036286437793,-0.14166623414299323
1776714711.9635441,-0.25830957632079193,-0.3880535562174504,-0.04228673890066793,-0.16131231384153977
1776714711.9833362,-0.2662989623757416,-0.3809076317194664,-0.045823527366042234,-0.17489574021104526
1776714712.0029366,-0.2741013745787017,-0.3692343821028906,-0.04943952308461695,-0.1737037724449477
1776714712.022979,-0.2802893046676022,-0.3723437303371758,-0.05235457350926144,-0.17307610768461612
1776714712.0435567,-0.28806895952152517,-0.37542852536070315,-0.055919370252294834,-0.17100661206784945
1776714712.0631232,-0.29582887441607175,-0.36738975611256486,-0.059353948942925366,-0.1557100586965309
1776714712.08337,-0.3034269807988135,-0.36085741098729696,-0.06262529503464422,-0.15519052629207258
1776714712.102926,-0.3107575446293632,-0.34303451732120105,-0.0657067374461438,-0.14139081962059433
1776714712.1231825,-0.31639276402180644,-0.3303210314308308,-0.06790509782060862,-0.12175122628801821
1776714712.1432943,-0.32296405886461965,-0.301212287899317,-0.07023721872140658,-0.10520181678246196
1776714712.1633816,-0.3289097862900199,-0.27044118350507285,-0.0723202179388728,-0.09475144504739821
1776714712.1833904,-0.33459881030196725,-0.2778264581809189,-0.07427417143912962,-0.09259095619790642
1776714712.2029963,-0.34036960322396814,-0.2767653349271517,-0.07607748469316375,-0.08122704798130384
1776714712.2232115,-0.34490687489848404,-0.26302740078630715,-0.0773098679890867,-0.06591443726310142
1776714712.2435887,-0.35010263606381953,-0.23315898855250705,-0.07853571732615829,-0.0523463790707448
1776714712.2633588,-0.35435618326576135,-0.17598312411080796,-0.07950735277208881,-0.04012224417596674
1776714712.2833097,-0.3576636014088845,-0.1428403145309427,-0.08021326069693344,-0.027406377171020763
1776714712.3029325,-0.36041011850999816,-0.12479386691147809,-0.08065477441276199,-0.01312263323345464
1776714712.323243,-0.3623940538614492,-0.11063718571228631,-0.08065293366260146,0.012117997794913432
1776714712.3433414,-0.3646801971307683,-0.10725629214393284,-0.08007794628272923,0.04189104713000555
1776714712.3632884,-0.3665576630916479,-0.07308915887569212,-0.0791057740821306,0.04740185766698474
1776714712.383251,-0.36768607766194755,-0.03388107766385118,-0.07814675386019918,0.04275849221606956
1776714712.402969,-0.3681884770994125,-0.014427761991960164,-0.07738944321226096,0.03148193444649039
